P3
24 20
255
0 0 0 0 0 0 0 0 0 0 0 0 0 0 0 0 0 0 0 0 0 0 0 0 0 0 0 0 0 0 0 0 0 0 0 0 0 0 0 0 0 0 0 0 0 0 0 0 0 0 0 0 0 0 0 0 0 0 0 0 0 0 0 0 0 0 0 0 0 0 0 0
0 0 0 0 0 0 0 0 0 0 0 0 0 0 0 0 0 0 0 0 0 0 0 0 0 0 0 0 0 0 0 0 0 0 0 0 0 0 0 0 0 0 0 0 0 0 0 0 0 0 0 0 0 0 0 0 0 0 0 0 0 0 0 0 0 0 0 0 0 0 0 0
0 0 0 0 0 0 0 0 0 0 0 0 0 0 0 0 0 0 0 0 0 0 0 0 0 0 0 0 0 0 0 0 0 0 0 0 0 0 0 0 0 0 0 0 0 0 0 0 0 0 0 0 0 0 0 0 0 0 0 0 0 0 0 0 0 0 0 0 0 0 0 0
0 0 0 0 0 0 0 0 0 0 0 0 0 0 0 0 0 0 0 0 0 119 136 153 119 136 153 119 136 153 119 136 153 119 136 153 119 136 153 119 136 153 119 136 153 119 136 153 119 136 153 0 0 0 0 0 0 0 0 0 0 0 0 0 0 0 0 0 0 0 0 0
0 0 0 0 0 0 0 0 0 0 0 0 0 0 0 0 0 0 0 0 0 119 136 153 119 136 153 119 136 153 119 136 153 119 136 153 119 136 153 119 136 153 119 136 153 119 136 153 119 136 153 0 0 0 0 0 0 0 0 0 0 0 0 0 0 0 0 0 0 0 0 0
0 0 0 0 0 0 0 0 0 0 0 0 0 0 0 85 102 119 85 102 119 119 136 153 119 136 153 119 136 153 119 136 153 119 136 153 119 136 153 119 136 153 119 136 153 119 136 153 119 136 153 85 102 119 85 102 119 0 0 0 0 0 0 0 0 0 0 0 0 0 0 0
0 0 0 0 0 0 0 0 0 0 0 0 0 0 0 85 102 119 85 102 119 119 136 153 119 136 153 119 136 153 119 136 153 119 136 153 119 136 153 119 136 153 119 136 153 119 136 153 119 136 153 85 102 119 85 102 119 0 0 0 0 0 0 0 0 0 0 0 0 0 0 0
0 0 0 0 0 0 0 0 0 0 0 0 0 0 0 85 102 119 85 102 119 85 102 119 85 102 119 85 102 119 17 17 34 17 17 34 17 17 34 17 17 34 85 102 119 85 102 119 85 102 119 85 102 119 85 102 119 0 0 0 0 0 0 0 0 0 0 0 0 0 0 0
0 0 0 0 0 0 0 0 0 51 68 85 51 68 85 85 102 119 85 102 119 85 102 119 85 102 119 85 102 119 17 17 34 255 170 34 255 170 34 17 17 34 85 102 119 85 102 119 85 102 119 85 102 119 85 102 119 51 68 85 51 68 85 0 0 0 0 0 0 0 0 0
0 0 0 0 0 0 0 0 0 51 68 85 51 68 85 85 102 119 85 102 119 85 102 119 85 102 119 85 102 119 17 17 34 255 170 34 255 170 34 17 17 34 85 102 119 85 102 119 85 102 119 85 102 119 85 102 119 51 68 85 51 68 85 0 0 0 0 0 0 0 0 0
0 0 0 0 0 0 0 0 0 51 68 85 51 68 85 85 102 119 85 102 119 85 102 119 85 102 119 85 102 119 17 17 34 17 17 34 17 17 34 17 17 34 85 102 119 85 102 119 85 102 119 85 102 119 85 102 119 51 68 85 51 68 85 0 0 0 0 0 0 0 0 0
0 0 0 0 0 0 0 0 0 51 68 85 51 68 85 85 102 119 85 102 119 85 102 119 85 102 119 85 102 119 85 102 119 85 102 119 85 102 119 85 102 119 85 102 119 85 102 119 85 102 119 85 102 119 85 102 119 51 68 85 51 68 85 0 0 0 0 0 0 0 0 0
0 0 0 0 0 0 0 0 0 51 68 85 51 68 85 85 102 119 85 102 119 85 102 119 85 102 119 85 102 119 85 102 119 85 102 119 85 102 119 85 102 119 85 102 119 85 102 119 85 102 119 85 102 119 85 102 119 51 68 85 51 68 85 0 0 0 0 0 0 0 0 0
0 0 0 0 0 0 0 0 0 51 68 85 51 68 85 85 102 119 85 102 119 85 102 119 85 102 119 85 102 119 85 102 119 85 102 119 85 102 119 85 102 119 85 102 119 85 102 119 85 102 119 85 102 119 85 102 119 51 68 85 51 68 85 0 0 0 0 0 0 0 0 0
0 0 0 0 0 0 0 0 0 51 68 85 51 68 85 85 102 119 85 102 119 85 102 119 85 102 119 85 102 119 85 102 119 85 102 119 85 102 119 85 102 119 85 102 119 85 102 119 85 102 119 85 102 119 85 102 119 51 68 85 51 68 85 0 0 0 0 0 0 0 0 0
0 0 0 0 0 0 0 0 0 51 68 85 51 68 85 85 102 119 85 102 119 85 102 119 85 102 119 85 102 119 85 102 119 85 102 119 85 102 119 85 102 119 85 102 119 85 102 119 85 102 119 85 102 119 85 102 119 51 68 85 51 68 85 0 0 0 0 0 0 0 0 0
0 0 0 0 0 0 34 34 51 34 34 51 34 34 51 34 34 51 34 34 51 34 34 51 34 34 51 34 34 51 34 34 51 34 34 51 34 34 51 34 34 51 34 34 51 34 34 51 34 34 51 34 34 51 34 34 51 34 34 51 34 34 51 34 34 51 0 0 0 0 0 0
0 0 0 0 0 0 34 34 51 34 34 51 34 34 51 34 34 51 34 34 51 34 34 51 34 34 51 34 34 51 34 34 51 34 34 51 34 34 51 34 34 51 34 34 51 34 34 51 34 34 51 34 34 51 34 34 51 34 34 51 34 34 51 34 34 51 0 0 0 0 0 0
0 0 0 0 0 0 0 0 0 0 0 0 0 0 0 0 0 0 0 0 0 0 0 0 0 0 0 0 0 0 0 0 0 0 0 0 0 0 0 0 0 0 0 0 0 0 0 0 0 0 0 0 0 0 0 0 0 0 0 0 0 0 0 0 0 0 0 0 0 0 0 0
0 0 0 0 0 0 0 0 0 0 0 0 0 0 0 0 0 0 0 0 0 0 0 0 0 0 0 0 0 0 0 0 0 0 0 0 0 0 0 0 0 0 0 0 0 0 0 0 0 0 0 0 0 0 0 0 0 0 0 0 0 0 0 0 0 0 0 0 0 0 0 0
