P3
8 8
255
0 0 0 0 0 0 0 0 0 0 0 0 0 0 0 0 0 0 0 0 0 0 0 0
0 0 0 0 0 0 221 51 68 221 51 68 221 51 68 221 51 68 0 0 0 0 0 0
0 0 0 255 170 34 255 170 34 255 170 34 255 170 34 255 170 34 255 170 34 0 0 0
0 0 0 255 170 34 255 170 34 221 238 255 221 238 255 255 170 34 255 170 34 0 0 0
0 0 0 255 170 34 255 170 34 221 238 255 221 238 255 255 170 34 255 170 34 0 0 0
0 0 0 255 170 34 255 170 34 255 170 34 255 170 34 255 170 34 255 170 34 0 0 0
0 0 0 0 0 0 221 51 68 221 51 68 221 51 68 221 51 68 0 0 0 0 0 0
0 0 0 0 0 0 0 0 0 0 0 0 0 0 0 0 0 0 0 0 0 0 0 0
