P3
28 16
255
0 0 0 0 0 0 0 0 0 0 0 0 0 0 0 0 0 0 0 0 0 0 0 0 0 0 0 0 0 0 0 0 0 0 0 0 0 0 0 0 0 0 0 0 0 0 0 0 0 0 0 0 0 0 0 0 0 0 0 0 0 0 0 0 0 0 0 0 0 0 0 0 0 0 0 0 0 0 0 0 0 0 0 0
0 0 0 0 0 0 0 0 0 0 0 0 0 0 0 0 0 0 0 0 0 0 0 0 0 0 0 0 0 0 0 0 0 0 0 0 0 0 0 0 0 0 0 0 0 0 0 0 0 0 0 0 0 0 0 0 0 0 0 0 0 0 0 0 0 0 0 0 0 0 0 0 0 0 0 0 0 0 0 0 0 0 0 0
0 0 0 0 0 0 0 0 0 0 0 0 0 0 0 0 0 0 0 0 0 0 0 0 0 0 0 0 0 0 0 0 0 0 0 0 0 0 0 0 0 0 0 0 0 0 0 0 0 0 0 0 0 0 0 0 0 0 0 0 0 0 0 0 0 0 0 0 0 0 0 0 0 0 0 0 0 0 0 0 0 0 0 0
0 0 0 0 0 0 0 0 0 0 0 0 0 0 0 0 0 0 0 0 0 0 0 0 0 0 0 0 0 0 0 0 0 0 0 0 0 0 0 0 0 0 0 0 0 0 0 0 0 0 0 0 0 0 0 0 0 0 0 0 0 0 0 0 0 0 0 0 0 0 0 0 0 0 0 0 0 0 0 0 0 0 0 0
0 0 0 0 0 0 0 0 0 0 0 0 0 0 0 85 102 119 85 102 119 85 102 119 85 102 119 85 102 119 85 102 119 85 102 119 85 102 119 85 102 119 85 102 119 85 102 119 85 102 119 85 102 119 85 102 119 85 102 119 85 102 119 85 102 119 85 102 119 0 0 0 0 0 0 0 0 0 0 0 0 0 0 0
0 0 0 0 0 0 0 0 0 0 0 0 0 0 0 85 102 119 85 102 119 85 102 119 170 187 204 170 187 204 170 187 204 170 187 204 170 187 204 85 102 119 85 102 119 85 102 119 255 170 34 255 170 34 255 170 34 255 170 34 255 170 34 85 102 119 85 102 119 0 0 0 0 0 0 0 0 0 0 0 0 0 0 0
0 0 0 0 0 0 0 0 0 0 0 0 0 0 0 85 102 119 85 102 119 85 102 119 170 187 204 170 187 204 170 187 204 170 187 204 170 187 204 85 102 119 85 102 119 85 102 119 255 170 34 255 170 34 255 170 34 255 170 34 255 170 34 85 102 119 85 102 119 0 0 0 0 0 0 0 0 0 0 0 0 0 0 0
0 0 0 0 0 0 51 68 85 51 68 85 51 68 85 85 102 119 85 102 119 85 102 119 170 187 204 170 187 204 170 187 204 170 187 204 170 187 204 85 102 119 85 102 119 85 102 119 255 170 34 255 170 34 255 170 34 255 170 34 255 170 34 85 102 119 85 102 119 51 68 85 51 68 85 51 68 85 0 0 0 0 0 0
0 0 0 0 0 0 51 68 85 51 68 85 51 68 85 85 102 119 85 102 119 85 102 119 85 102 119 85 102 119 85 102 119 85 102 119 85 102 119 85 102 119 85 102 119 85 102 119 85 102 119 85 102 119 85 102 119 85 102 119 85 102 119 85 102 119 85 102 119 51 68 85 51 68 85 51 68 85 0 0 0 0 0 0
0 0 0 0 0 0 51 68 85 51 68 85 51 68 85 85 102 119 85 102 119 85 102 119 85 102 119 85 102 119 85 102 119 85 102 119 85 102 119 85 102 119 85 102 119 85 102 119 85 102 119 85 102 119 85 102 119 85 102 119 85 102 119 85 102 119 85 102 119 51 68 85 51 68 85 51 68 85 0 0 0 0 0 0
0 0 0 0 0 0 51 68 85 51 68 85 51 68 85 85 102 119 85 102 119 85 102 119 85 102 119 85 102 119 85 102 119 85 102 119 85 102 119 85 102 119 85 102 119 85 102 119 85 102 119 85 102 119 85 102 119 85 102 119 85 102 119 85 102 119 85 102 119 51 68 85 51 68 85 51 68 85 0 0 0 0 0 0
0 0 0 0 0 0 51 68 85 51 68 85 51 68 85 85 102 119 85 102 119 85 102 119 85 102 119 85 102 119 85 102 119 85 102 119 85 102 119 85 102 119 85 102 119 85 102 119 85 102 119 85 102 119 85 102 119 85 102 119 85 102 119 85 102 119 85 102 119 51 68 85 51 68 85 51 68 85 0 0 0 0 0 0
0 0 0 0 0 0 51 68 85 51 68 85 51 68 85 51 68 85 51 68 85 51 68 85 51 68 85 51 68 85 51 68 85 51 68 85 51 68 85 51 68 85 51 68 85 51 68 85 51 68 85 51 68 85 51 68 85 51 68 85 51 68 85 51 68 85 51 68 85 51 68 85 51 68 85 51 68 85 0 0 0 0 0 0
0 0 0 0 0 0 0 0 0 0 0 0 0 0 0 34 34 51 34 34 51 34 34 51 0 0 0 0 0 0 34 34 51 34 34 51 34 34 51 0 0 0 0 0 0 0 0 0 0 0 0 34 34 51 34 34 51 34 34 51 0 0 0 0 0 0 34 34 51 34 34 51 34 34 51 0 0 0 0 0 0 0 0 0
0 0 0 0 0 0 0 0 0 0 0 0 0 0 0 34 34 51 34 34 51 34 34 51 0 0 0 0 0 0 34 34 51 34 34 51 34 34 51 0 0 0 0 0 0 0 0 0 0 0 0 34 34 51 34 34 51 34 34 51 0 0 0 0 0 0 34 34 51 34 34 51 34 34 51 0 0 0 0 0 0 0 0 0
0 0 0 0 0 0 0 0 0 0 0 0 0 0 0 0 0 0 0 0 0 0 0 0 0 0 0 0 0 0 0 0 0 0 0 0 0 0 0 0 0 0 0 0 0 0 0 0 0 0 0 0 0 0 0 0 0 0 0 0 0 0 0 0 0 0 0 0 0 0 0 0 0 0 0 0 0 0 0 0 0 0 0 0
