P3
128 16
255
17 17 34 17 17 34 17 17 34 17 17 34 17 17 34 17 17 34 17 17 34 17 17 34 17 17 34 17 17 34 17 17 34 17 17 34 17 17 34 17 17 34 17 17 34 17 17 34 17 17 34 17 17 34 17 17 34 17 17 34 17 17 34 17 17 34 17 17 34 17 17 34 17 17 34 17 17 34 17 17 34 17 17 34 17 17 34 17 17 34 17 17 34 17 17 34 17 17 34 17 17 34 17 17 34 17 17 34 17 17 34 17 17 34 17 17 34 17 17 34 17 17 34 17 17 34 17 17 34 17 17 34 17 17 34 17 17 34 17 17 34 17 17 34 17 17 34 17 17 34 17 17 34 17 17 34 17 17 34 17 17 34 17 17 34 17 17 34 17 17 34 17 17 34 17 17 34 17 17 34 17 17 34 17 17 34 17 17 34 17 17 34 17 17 34 17 17 34 17 17 34 17 17 34 17 17 34 17 17 34 17 17 34 17 17 34 17 17 34 17 17 34 17 17 34 17 17 34 17 17 34 17 17 34 17 17 34 17 17 34 17 17 34 17 17 34 17 17 34 17 17 34 17 17 34 17 17 34 17 17 34 17 17 34 17 17 34 17 17 34 17 17 34 17 17 34 17 17 34 17 17 34 17 17 34 17 17 34 17 17 34 17 17 34 17 17 34 17 17 34 17 17 34 17 17 34 17 17 34 17 17 34 17 17 34 17 17 34 17 17 34 17 17 34 17 17 34 17 17 34 17 17 34 17 17 34 17 17 34 17 17 34 17 17 34 17 17 34 17 17 34 17 17 34 17 17 34 17 17 34 17 17 34 17 17 34 17 17 34 17 17 34 17 17 34 17 17 34 17 17 34 17 17 34
17 17 34 51 68 85 51 68 85 51 68 85 51 68 85 51 68 85 51 68 85 51 68 85 51 68 85 51 68 85 51 68 85 51 68 85 51 68 85 51 68 85 51 68 85 51 68 85 51 68 85 51 68 85 51 68 85 51 68 85 51 68 85 51 68 85 51 68 85 51 68 85 51 68 85 51 68 85 51 68 85 51 68 85 51 68 85 51 68 85 51 68 85 17 17 34 17 17 34 51 68 85 51 68 85 51 68 85 51 68 85 51 68 85 51 68 85 51 68 85 51 68 85 51 68 85 51 68 85 51 68 85 51 68 85 51 68 85 51 68 85 51 68 85 51 68 85 51 68 85 51 68 85 51 68 85 51 68 85 51 68 85 51 68 85 51 68 85 51 68 85 51 68 85 51 68 85 51 68 85 51 68 85 51 68 85 51 68 85 17 17 34 17 17 34 51 68 85 51 68 85 51 68 85 51 68 85 51 68 85 51 68 85 51 68 85 51 68 85 51 68 85 51 68 85 51 68 85 51 68 85 51 68 85 51 68 85 51 68 85 51 68 85 51 68 85 51 68 85 51 68 85 51 68 85 51 68 85 51 68 85 51 68 85 51 68 85 51 68 85 51 68 85 51 68 85 51 68 85 51 68 85 51 68 85 17 17 34 17 17 34 51 68 85 51 68 85 51 68 85 51 68 85 51 68 85 51 68 85 51 68 85 51 68 85 51 68 85 51 68 85 51 68 85 51 68 85 51 68 85 51 68 85 51 68 85 51 68 85 51 68 85 51 68 85 51 68 85 51 68 85 51 68 85 51 68 85 51 68 85 51 68 85 51 68 85 51 68 85 51 68 85 51 68 85 51 68 85 51 68 85 17 17 34
17 17 34 51 68 85 34 34 51 34 34 51 34 34 51 34 34 51 34 34 51 34 34 51 34 34 51 34 34 51 34 34 51 34 34 51 34 34 51 34 34 51 34 34 51 34 34 51 34 34 51 34 34 51 34 34 51 34 34 51 34 34 51 34 34 51 34 34 51 34 34 51 34 34 51 34 34 51 34 34 51 34 34 51 34 34 51 34 34 51 51 68 85 17 17 34 17 17 34 51 68 85 34 34 51 34 34 51 34 34 51 34 34 51 34 34 51 34 34 51 34 34 51 34 34 51 34 34 51 34 34 51 34 34 51 34 34 51 34 34 51 34 34 51 34 34 51 34 34 51 34 34 51 34 34 51 34 34 51 34 34 51 34 34 51 34 34 51 34 34 51 34 34 51 34 34 51 34 34 51 34 34 51 34 34 51 51 68 85 17 17 34 17 17 34 51 68 85 34 34 51 34 34 51 34 34 51 34 34 51 34 34 51 34 34 51 34 34 51 34 34 51 34 34 51 34 34 51 34 34 51 34 34 51 34 34 51 34 34 51 34 34 51 34 34 51 34 34 51 34 34 51 34 34 51 34 34 51 34 34 51 34 34 51 34 34 51 34 34 51 34 34 51 34 34 51 34 34 51 34 34 51 51 68 85 17 17 34 17 17 34 51 68 85 34 34 51 34 34 51 34 34 51 34 34 51 34 34 51 34 34 51 34 34 51 34 34 51 34 34 51 34 34 51 34 34 51 34 34 51 34 34 51 34 34 51 34 34 51 34 34 51 34 34 51 34 34 51 34 34 51 34 34 51 34 34 51 34 34 51 34 34 51 34 34 51 34 34 51 34 34 51 34 34 51 34 34 51 51 68 85 17 17 34
17 17 34 51 68 85 34 34 51 34 34 51 34 34 51 34 34 51 34 34 51 34 34 51 34 34 51 34 34 51 34 34 51 34 34 51 34 34 51 34 34 51 34 34 51 34 34 51 34 34 51 34 34 51 34 34 51 34 34 51 34 34 51 34 34 51 34 34 51 34 34 51 34 34 51 34 34 51 34 34 51 34 34 51 34 34 51 34 34 51 51 68 85 17 17 34 17 17 34 51 68 85 34 34 51 34 34 51 34 34 51 34 34 51 34 34 51 34 34 51 34 34 51 34 34 51 34 34 51 34 34 51 34 34 51 34 34 51 34 34 51 34 34 51 34 34 51 34 34 51 34 34 51 34 34 51 34 34 51 34 34 51 34 34 51 34 34 51 34 34 51 34 34 51 34 34 51 34 34 51 34 34 51 34 34 51 51 68 85 17 17 34 17 17 34 51 68 85 34 34 51 34 34 51 34 34 51 34 34 51 34 34 51 34 34 51 34 34 51 34 34 51 34 34 51 34 34 51 34 34 51 34 34 51 34 34 51 34 34 51 34 34 51 34 34 51 34 34 51 34 34 51 34 34 51 34 34 51 34 34 51 34 34 51 34 34 51 34 34 51 34 34 51 34 34 51 34 34 51 34 34 51 51 68 85 17 17 34 17 17 34 51 68 85 34 34 51 34 34 51 34 34 51 34 34 51 34 34 51 34 34 51 34 34 51 34 34 51 34 34 51 34 34 51 221 238 255 221 238 255 221 238 255 221 238 255 221 238 255 221 238 255 221 238 255 221 238 255 34 34 51 34 34 51 34 34 51 34 34 51 34 34 51 34 34 51 34 34 51 34 34 51 34 34 51 34 34 51 51 68 85 17 17 34
17 17 34 51 68 85 34 34 51 34 34 51 34 34 51 34 34 51 34 34 51 34 34 51 34 34 51 34 34 51 34 34 51 34 34 51 34 34 51 34 34 51 0 170 221 0 170 221 0 170 221 0 170 221 34 34 51 34 34 51 34 34 51 34 34 51 34 34 51 34 34 51 34 34 51 34 34 51 34 34 51 34 34 51 34 34 51 34 34 51 51 68 85 17 17 34 17 17 34 51 68 85 34 34 51 34 34 51 34 34 51 34 34 51 34 34 51 34 34 51 0 170 221 0 170 221 0 170 221 0 170 221 34 34 51 34 34 51 34 34 51 34 34 51 34 34 51 34 34 51 34 34 51 34 34 51 0 170 221 0 170 221 0 170 221 0 170 221 34 34 51 34 34 51 34 34 51 34 34 51 34 34 51 34 34 51 51 68 85 17 17 34 17 17 34 51 68 85 34 34 51 34 34 51 34 34 51 34 34 51 34 34 51 34 34 51 34 34 51 34 34 51 34 34 51 34 34 51 34 34 51 34 34 51 34 34 51 34 34 51 34 34 51 34 34 51 34 34 51 34 34 51 34 34 51 34 34 51 34 34 51 34 34 51 34 34 51 34 34 51 34 34 51 34 34 51 34 34 51 34 34 51 51 68 85 17 17 34 17 17 34 51 68 85 34 34 51 34 34 51 34 34 51 34 34 51 34 34 51 34 34 51 34 34 51 34 34 51 34 34 51 34 34 51 221 238 255 221 238 255 221 238 255 221 238 255 221 238 255 221 238 255 221 238 255 221 238 255 34 34 51 34 34 51 34 34 51 34 34 51 34 34 51 34 34 51 34 34 51 34 34 51 34 34 51 34 34 51 51 68 85 17 17 34
17 17 34 51 68 85 34 34 51 34 34 51 34 34 51 34 34 51 34 34 51 34 34 51 34 34 51 34 34 51 34 34 51 34 34 51 34 34 51 34 34 51 0 170 221 0 170 221 0 170 221 0 170 221 34 34 51 34 34 51 34 34 51 34 34 51 34 34 51 34 34 51 34 34 51 34 34 51 34 34 51 34 34 51 34 34 51 34 34 51 51 68 85 17 17 34 17 17 34 51 68 85 34 34 51 34 34 51 34 34 51 34 34 51 34 34 51 34 34 51 0 170 221 0 170 221 0 170 221 0 170 221 34 34 51 34 34 51 34 34 51 34 34 51 34 34 51 34 34 51 34 34 51 34 34 51 0 170 221 0 170 221 0 170 221 0 170 221 34 34 51 34 34 51 34 34 51 34 34 51 34 34 51 34 34 51 51 68 85 17 17 34 17 17 34 51 68 85 34 34 51 34 34 51 34 34 51 34 34 51 0 170 221 0 170 221 0 170 221 0 170 221 0 170 221 34 34 51 34 34 51 34 34 51 34 34 51 34 34 51 34 34 51 34 34 51 34 34 51 34 34 51 34 34 51 0 170 221 0 170 221 0 170 221 0 170 221 0 170 221 34 34 51 34 34 51 34 34 51 34 34 51 51 68 85 17 17 34 17 17 34 51 68 85 34 34 51 34 34 51 34 34 51 34 34 51 34 34 51 34 34 51 34 34 51 34 34 51 34 34 51 34 34 51 34 34 51 34 34 51 0 170 221 0 170 221 0 170 221 0 170 221 34 34 51 34 34 51 34 34 51 34 34 51 34 34 51 34 34 51 34 34 51 34 34 51 34 34 51 34 34 51 34 34 51 34 34 51 51 68 85 17 17 34
17 17 34 51 68 85 34 34 51 34 34 51 34 34 51 34 34 51 34 34 51 34 34 51 34 34 51 34 34 51 34 34 51 34 34 51 34 34 51 34 34 51 0 170 221 0 170 221 0 170 221 0 170 221 34 34 51 34 34 51 34 34 51 34 34 51 34 34 51 34 34 51 34 34 51 34 34 51 34 34 51 34 34 51 34 34 51 34 34 51 51 68 85 17 17 34 17 17 34 51 68 85 34 34 51 34 34 51 34 34 51 34 34 51 34 34 51 34 34 51 0 170 221 0 170 221 0 170 221 0 170 221 34 34 51 34 34 51 34 34 51 34 34 51 34 34 51 34 34 51 34 34 51 34 34 51 0 170 221 0 170 221 0 170 221 0 170 221 34 34 51 34 34 51 34 34 51 34 34 51 34 34 51 34 34 51 51 68 85 17 17 34 17 17 34 51 68 85 34 34 51 34 34 51 34 34 51 34 34 51 0 170 221 0 170 221 0 170 221 0 170 221 0 170 221 34 34 51 34 34 51 34 34 51 34 34 51 34 34 51 34 34 51 34 34 51 34 34 51 34 34 51 34 34 51 0 170 221 0 170 221 0 170 221 0 170 221 0 170 221 34 34 51 34 34 51 34 34 51 34 34 51 51 68 85 17 17 34 17 17 34 51 68 85 34 34 51 34 34 51 34 34 51 34 34 51 34 34 51 34 34 51 34 34 51 34 34 51 34 34 51 34 34 51 34 34 51 34 34 51 0 170 221 0 170 221 0 170 221 0 170 221 34 34 51 34 34 51 34 34 51 34 34 51 34 34 51 34 34 51 34 34 51 34 34 51 34 34 51 34 34 51 34 34 51 34 34 51 51 68 85 17 17 34
17 17 34 51 68 85 34 34 51 34 34 51 34 34 51 34 34 51 34 34 51 34 34 51 34 34 51 34 34 51 34 34 51 34 34 51 34 34 51 34 34 51 0 170 221 0 170 221 0 170 221 0 170 221 34 34 51 34 34 51 34 34 51 34 34 51 34 34 51 34 34 51 34 34 51 34 34 51 34 34 51 34 34 51 34 34 51 34 34 51 51 68 85 17 17 34 17 17 34 51 68 85 34 34 51 34 34 51 34 34 51 34 34 51 34 34 51 34 34 51 0 170 221 0 170 221 0 170 221 0 170 221 34 34 51 34 34 51 34 34 51 34 34 51 34 34 51 34 34 51 34 34 51 34 34 51 0 170 221 0 170 221 0 170 221 0 170 221 34 34 51 34 34 51 34 34 51 34 34 51 34 34 51 34 34 51 51 68 85 17 17 34 17 17 34 51 68 85 34 34 51 34 34 51 34 34 51 34 34 51 0 170 221 0 170 221 0 170 221 0 170 221 0 170 221 34 34 51 34 34 51 34 34 51 34 34 51 34 34 51 34 34 51 34 34 51 34 34 51 34 34 51 34 34 51 0 170 221 0 170 221 0 170 221 0 170 221 0 170 221 34 34 51 34 34 51 34 34 51 34 34 51 51 68 85 17 17 34 17 17 34 51 68 85 34 34 51 34 34 51 34 34 51 34 34 51 34 34 51 34 34 51 34 34 51 34 34 51 34 34 51 34 34 51 34 34 51 34 34 51 0 170 221 0 170 221 0 170 221 0 170 221 34 34 51 34 34 51 34 34 51 34 34 51 34 34 51 34 34 51 34 34 51 34 34 51 34 34 51 34 34 51 34 34 51 34 34 51 51 68 85 17 17 34
17 17 34 51 68 85 34 34 51 34 34 51 34 34 51 34 34 51 34 34 51 34 34 51 34 34 51 34 34 51 34 34 51 34 34 51 34 34 51 34 34 51 0 170 221 0 170 221 0 170 221 0 170 221 34 34 51 34 34 51 34 34 51 34 34 51 34 34 51 34 34 51 34 34 51 34 34 51 34 34 51 34 34 51 34 34 51 34 34 51 51 68 85 17 17 34 17 17 34 51 68 85 34 34 51 34 34 51 34 34 51 34 34 51 34 34 51 34 34 51 0 170 221 0 170 221 0 170 221 0 170 221 34 34 51 34 34 51 34 34 51 34 34 51 34 34 51 34 34 51 34 34 51 34 34 51 0 170 221 0 170 221 0 170 221 0 170 221 34 34 51 34 34 51 34 34 51 34 34 51 34 34 51 34 34 51 51 68 85 17 17 34 17 17 34 51 68 85 34 34 51 34 34 51 34 34 51 34 34 51 0 170 221 0 170 221 0 170 221 0 170 221 0 170 221 34 34 51 34 34 51 34 34 51 34 34 51 34 34 51 34 34 51 34 34 51 34 34 51 34 34 51 34 34 51 0 170 221 0 170 221 0 170 221 0 170 221 0 170 221 34 34 51 34 34 51 34 34 51 34 34 51 51 68 85 17 17 34 17 17 34 51 68 85 34 34 51 34 34 51 34 34 51 34 34 51 34 34 51 34 34 51 34 34 51 34 34 51 34 34 51 34 34 51 34 34 51 34 34 51 0 170 221 0 170 221 0 170 221 0 170 221 34 34 51 34 34 51 34 34 51 34 34 51 34 34 51 34 34 51 34 34 51 34 34 51 34 34 51 34 34 51 34 34 51 34 34 51 51 68 85 17 17 34
17 17 34 51 68 85 34 34 51 34 34 51 34 34 51 34 34 51 34 34 51 34 34 51 34 34 51 34 34 51 34 34 51 34 34 51 34 34 51 34 34 51 0 170 221 0 170 221 0 170 221 0 170 221 34 34 51 34 34 51 34 34 51 34 34 51 34 34 51 34 34 51 34 34 51 34 34 51 34 34 51 34 34 51 34 34 51 34 34 51 51 68 85 17 17 34 17 17 34 51 68 85 34 34 51 34 34 51 34 34 51 34 34 51 34 34 51 34 34 51 0 170 221 0 170 221 0 170 221 0 170 221 34 34 51 34 34 51 34 34 51 34 34 51 34 34 51 34 34 51 34 34 51 34 34 51 0 170 221 0 170 221 0 170 221 0 170 221 34 34 51 34 34 51 34 34 51 34 34 51 34 34 51 34 34 51 51 68 85 17 17 34 17 17 34 51 68 85 34 34 51 34 34 51 34 34 51 34 34 51 0 170 221 0 170 221 0 170 221 0 170 221 0 170 221 34 34 51 34 34 51 34 34 51 34 34 51 34 34 51 34 34 51 34 34 51 34 34 51 34 34 51 34 34 51 0 170 221 0 170 221 0 170 221 0 170 221 0 170 221 34 34 51 34 34 51 34 34 51 34 34 51 51 68 85 17 17 34 17 17 34 51 68 85 34 34 51 34 34 51 34 34 51 34 34 51 34 34 51 34 34 51 34 34 51 34 34 51 34 34 51 34 34 51 34 34 51 34 34 51 0 170 221 0 170 221 0 170 221 0 170 221 34 34 51 34 34 51 34 34 51 34 34 51 34 34 51 34 34 51 34 34 51 34 34 51 34 34 51 34 34 51 34 34 51 34 34 51 51 68 85 17 17 34
17 17 34 51 68 85 34 34 51 34 34 51 34 34 51 34 34 51 34 34 51 34 34 51 34 34 51 34 34 51 34 34 51 34 34 51 0 170 221 0 170 221 0 170 221 0 170 221 0 170 221 0 170 221 0 170 221 0 170 221 34 34 51 34 34 51 34 34 51 34 34 51 34 34 51 34 34 51 34 34 51 34 34 51 34 34 51 34 34 51 51 68 85 17 17 34 17 17 34 51 68 85 34 34 51 34 34 51 34 34 51 34 34 51 34 34 51 34 34 51 0 170 221 0 170 221 0 170 221 0 170 221 34 34 51 34 34 51 34 34 51 34 34 51 34 34 51 34 34 51 34 34 51 34 34 51 0 170 221 0 170 221 0 170 221 0 170 221 34 34 51 34 34 51 34 34 51 34 34 51 34 34 51 34 34 51 51 68 85 17 17 34 17 17 34 51 68 85 34 34 51 34 34 51 34 34 51 34 34 51 0 170 221 0 170 221 0 170 221 0 170 221 0 170 221 34 34 51 34 34 51 34 34 51 34 34 51 34 34 51 34 34 51 34 34 51 34 34 51 34 34 51 34 34 51 0 170 221 0 170 221 0 170 221 0 170 221 0 170 221 34 34 51 34 34 51 34 34 51 34 34 51 51 68 85 17 17 34 17 17 34 51 68 85 34 34 51 34 34 51 34 34 51 34 34 51 34 34 51 34 34 51 34 34 51 34 34 51 34 34 51 34 34 51 34 34 51 34 34 51 0 170 221 0 170 221 0 170 221 0 170 221 34 34 51 34 34 51 34 34 51 34 34 51 34 34 51 34 34 51 34 34 51 34 34 51 34 34 51 34 34 51 34 34 51 34 34 51 51 68 85 17 17 34
17 17 34 51 68 85 34 34 51 34 34 51 34 34 51 34 34 51 34 34 51 34 34 51 34 34 51 34 34 51 34 34 51 34 34 51 0 170 221 0 170 221 0 170 221 0 170 221 0 170 221 0 170 221 0 170 221 0 170 221 34 34 51 34 34 51 34 34 51 34 34 51 34 34 51 34 34 51 34 34 51 34 34 51 34 34 51 34 34 51 51 68 85 17 17 34 17 17 34 51 68 85 34 34 51 34 34 51 34 34 51 34 34 51 34 34 51 34 34 51 34 34 51 34 34 51 34 34 51 34 34 51 34 34 51 34 34 51 34 34 51 34 34 51 34 34 51 34 34 51 34 34 51 34 34 51 34 34 51 34 34 51 34 34 51 34 34 51 34 34 51 34 34 51 34 34 51 34 34 51 34 34 51 34 34 51 51 68 85 17 17 34 17 17 34 51 68 85 34 34 51 34 34 51 34 34 51 34 34 51 34 34 51 34 34 51 34 34 51 34 34 51 34 34 51 34 34 51 34 34 51 34 34 51 34 34 51 34 34 51 34 34 51 34 34 51 34 34 51 34 34 51 34 34 51 34 34 51 34 34 51 34 34 51 34 34 51 34 34 51 34 34 51 34 34 51 34 34 51 34 34 51 51 68 85 17 17 34 17 17 34 51 68 85 34 34 51 34 34 51 34 34 51 34 34 51 34 34 51 34 34 51 34 34 51 34 34 51 34 34 51 34 34 51 34 34 51 34 34 51 0 170 221 0 170 221 0 170 221 0 170 221 34 34 51 34 34 51 34 34 51 34 34 51 34 34 51 34 34 51 34 34 51 34 34 51 34 34 51 34 34 51 34 34 51 34 34 51 51 68 85 17 17 34
17 17 34 51 68 85 34 34 51 34 34 51 34 34 51 34 34 51 34 34 51 34 34 51 34 34 51 34 34 51 34 34 51 34 34 51 34 34 51 34 34 51 34 34 51 34 34 51 34 34 51 34 34 51 34 34 51 34 34 51 34 34 51 34 34 51 34 34 51 34 34 51 34 34 51 34 34 51 34 34 51 34 34 51 34 34 51 34 34 51 51 68 85 17 17 34 17 17 34 51 68 85 34 34 51 34 34 51 34 34 51 34 34 51 34 34 51 34 34 51 34 34 51 34 34 51 34 34 51 34 34 51 34 34 51 34 34 51 34 34 51 34 34 51 34 34 51 34 34 51 34 34 51 34 34 51 34 34 51 34 34 51 34 34 51 34 34 51 34 34 51 34 34 51 34 34 51 34 34 51 34 34 51 34 34 51 51 68 85 17 17 34 17 17 34 51 68 85 34 34 51 34 34 51 34 34 51 34 34 51 34 34 51 34 34 51 34 34 51 34 34 51 34 34 51 34 34 51 34 34 51 34 34 51 34 34 51 34 34 51 34 34 51 34 34 51 34 34 51 34 34 51 34 34 51 34 34 51 34 34 51 34 34 51 34 34 51 34 34 51 34 34 51 34 34 51 34 34 51 34 34 51 51 68 85 17 17 34 17 17 34 51 68 85 34 34 51 34 34 51 34 34 51 34 34 51 34 34 51 34 34 51 34 34 51 34 34 51 34 34 51 34 34 51 34 34 51 34 34 51 0 170 221 0 170 221 0 170 221 0 170 221 34 34 51 34 34 51 34 34 51 34 34 51 34 34 51 34 34 51 34 34 51 34 34 51 34 34 51 34 34 51 34 34 51 34 34 51 51 68 85 17 17 34
17 17 34 51 68 85 34 34 51 34 34 51 34 34 51 34 34 51 34 34 51 34 34 51 34 34 51 34 34 51 34 34 51 34 34 51 34 34 51 34 34 51 34 34 51 34 34 51 34 34 51 34 34 51 34 34 51 34 34 51 34 34 51 34 34 51 34 34 51 34 34 51 34 34 51 34 34 51 34 34 51 34 34 51 34 34 51 34 34 51 51 68 85 17 17 34 17 17 34 51 68 85 34 34 51 34 34 51 34 34 51 34 34 51 34 34 51 34 34 51 34 34 51 34 34 51 34 34 51 34 34 51 34 34 51 34 34 51 34 34 51 34 34 51 34 34 51 34 34 51 34 34 51 34 34 51 34 34 51 34 34 51 34 34 51 34 34 51 34 34 51 34 34 51 34 34 51 34 34 51 34 34 51 34 34 51 51 68 85 17 17 34 17 17 34 51 68 85 34 34 51 34 34 51 34 34 51 34 34 51 34 34 51 34 34 51 34 34 51 34 34 51 34 34 51 34 34 51 34 34 51 34 34 51 34 34 51 34 34 51 34 34 51 34 34 51 34 34 51 34 34 51 34 34 51 34 34 51 34 34 51 34 34 51 34 34 51 34 34 51 34 34 51 34 34 51 34 34 51 34 34 51 51 68 85 17 17 34 17 17 34 51 68 85 34 34 51 34 34 51 34 34 51 34 34 51 34 34 51 34 34 51 34 34 51 34 34 51 34 34 51 34 34 51 34 34 51 34 34 51 34 34 51 34 34 51 34 34 51 34 34 51 34 34 51 34 34 51 34 34 51 34 34 51 34 34 51 34 34 51 34 34 51 34 34 51 34 34 51 34 34 51 34 34 51 34 34 51 51 68 85 17 17 34
17 17 34 51 68 85 51 68 85 51 68 85 51 68 85 51 68 85 51 68 85 51 68 85 51 68 85 51 68 85 51 68 85 51 68 85 51 68 85 51 68 85 51 68 85 51 68 85 51 68 85 51 68 85 51 68 85 51 68 85 51 68 85 51 68 85 51 68 85 51 68 85 51 68 85 51 68 85 51 68 85 51 68 85 51 68 85 51 68 85 51 68 85 17 17 34 17 17 34 51 68 85 51 68 85 51 68 85 51 68 85 51 68 85 51 68 85 51 68 85 51 68 85 51 68 85 51 68 85 51 68 85 51 68 85 51 68 85 51 68 85 51 68 85 51 68 85 51 68 85 51 68 85 51 68 85 51 68 85 51 68 85 51 68 85 51 68 85 51 68 85 51 68 85 51 68 85 51 68 85 51 68 85 51 68 85 51 68 85 17 17 34 17 17 34 51 68 85 51 68 85 51 68 85 51 68 85 51 68 85 51 68 85 51 68 85 51 68 85 51 68 85 51 68 85 51 68 85 51 68 85 51 68 85 51 68 85 51 68 85 51 68 85 51 68 85 51 68 85 51 68 85 51 68 85 51 68 85 51 68 85 51 68 85 51 68 85 51 68 85 51 68 85 51 68 85 51 68 85 51 68 85 51 68 85 17 17 34 17 17 34 51 68 85 51 68 85 51 68 85 51 68 85 51 68 85 51 68 85 51 68 85 51 68 85 51 68 85 51 68 85 51 68 85 51 68 85 51 68 85 51 68 85 51 68 85 51 68 85 51 68 85 51 68 85 51 68 85 51 68 85 51 68 85 51 68 85 51 68 85 51 68 85 51 68 85 51 68 85 51 68 85 51 68 85 51 68 85 51 68 85 17 17 34
17 17 34 17 17 34 17 17 34 17 17 34 17 17 34 17 17 34 17 17 34 17 17 34 17 17 34 17 17 34 17 17 34 17 17 34 17 17 34 17 17 34 17 17 34 17 17 34 17 17 34 17 17 34 17 17 34 17 17 34 17 17 34 17 17 34 17 17 34 17 17 34 17 17 34 17 17 34 17 17 34 17 17 34 17 17 34 17 17 34 17 17 34 17 17 34 17 17 34 17 17 34 17 17 34 17 17 34 17 17 34 17 17 34 17 17 34 17 17 34 17 17 34 17 17 34 17 17 34 17 17 34 17 17 34 17 17 34 17 17 34 17 17 34 17 17 34 17 17 34 17 17 34 17 17 34 17 17 34 17 17 34 17 17 34 17 17 34 17 17 34 17 17 34 17 17 34 17 17 34 17 17 34 17 17 34 17 17 34 17 17 34 17 17 34 17 17 34 17 17 34 17 17 34 17 17 34 17 17 34 17 17 34 17 17 34 17 17 34 17 17 34 17 17 34 17 17 34 17 17 34 17 17 34 17 17 34 17 17 34 17 17 34 17 17 34 17 17 34 17 17 34 17 17 34 17 17 34 17 17 34 17 17 34 17 17 34 17 17 34 17 17 34 17 17 34 17 17 34 17 17 34 17 17 34 17 17 34 17 17 34 17 17 34 17 17 34 17 17 34 17 17 34 17 17 34 17 17 34 17 17 34 17 17 34 17 17 34 17 17 34 17 17 34 17 17 34 17 17 34 17 17 34 17 17 34 17 17 34 17 17 34 17 17 34 17 17 34 17 17 34 17 17 34 17 17 34 17 17 34 17 17 34 17 17 34 17 17 34 17 17 34 17 17 34 17 17 34 17 17 34 17 17 34
