P3
192 16
255
34 34 51 34 34 51 34 34 51 34 34 51 34 34 51 34 34 51 34 34 51 34 34 51 34 34 51 34 34 51 34 34 51 34 34 51 34 34 51 34 34 51 34 34 51 34 34 51 34 34 51 34 34 51 34 34 51 34 34 51 34 34 51 34 34 51 34 34 51 34 34 51 34 34 51 34 34 51 34 34 51 34 34 51 34 34 51 34 34 51 34 34 51 34 34 51 34 34 51 34 34 51 34 34 51 34 34 51 34 34 51 34 34 51 0 51 102 0 170 221 0 170 221 0 51 102 34 34 51 34 34 51 34 34 51 34 34 51 34 34 51 34 34 51 34 34 51 34 34 51 34 34 51 34 34 51 34 34 51 34 34 51 0 51 102 0 51 102 0 51 102 0 51 102 34 34 51 34 34 51 34 34 51 34 34 51 34 34 51 34 34 51 34 34 51 34 34 51 34 34 51 34 34 51 34 34 51 34 34 51 34 34 51 34 34 51 34 34 51 34 34 51 34 34 51 34 34 51 34 34 51 34 34 51 34 34 51 34 34 51 34 34 51 34 34 51 34 34 51 34 34 51 34 34 51 34 34 51 0 51 102 0 170 221 0 170 221 0 51 102 34 34 51 34 34 51 34 34 51 34 34 51 34 34 51 34 34 51 34 34 51 34 34 51 34 34 51 34 34 51 34 34 51 34 34 51 34 34 51 34 34 51 34 34 51 34 34 51 34 34 51 34 34 51 34 34 51 34 34 51 34 34 51 34 34 51 34 34 51 34 34 51 34 34 51 34 34 51 34 34 51 34 34 51 34 34 51 34 34 51 34 34 51 34 34 51 34 34 51 34 34 51 34 34 51 34 34 51 34 34 51 34 34 51 34 34 51 34 34 51 34 34 51 34 34 51 34 34 51 34 34 51 34 34 51 34 34 51 34 34 51 34 34 51 34 34 51 34 34 51 34 34 51 34 34 51 34 34 51 34 34 51 34 34 51 34 34 51 34 34 51 34 34 51 34 34 51 34 34 51 0 51 102 0 170 221 0 170 221 0 51 102 34 34 51 34 34 51 34 34 51 34 34 51 34 34 51 34 34 51 34 34 51 34 34 51 34 34 51 34 34 51 34 34 51 34 34 51 34 34 51 34 34 51 34 34 51 34 34 51 34 34 51 34 34 51 34 34 51 34 34 51 34 34 51 34 34 51 34 34 51 34 34 51 34 34 51 34 34 51 34 34 51 34 34 51 34 34 51 34 34 51 34 34 51 34 34 51 34 34 51 34 34 51 34 34 51 34 34 51 34 34 51 34 34 51
34 34 51 51 68 85 51 68 85 51 68 85 51 68 85 51 68 85 51 68 85 51 68 85 51 68 85 51 68 85 51 68 85 51 68 85 51 68 85 51 68 85 51 68 85 34 34 51 34 34 51 51 68 85 51 68 85 51 68 85 51 68 85 51 68 85 51 68 85 51 68 85 51 68 85 51 68 85 51 68 85 51 68 85 51 68 85 51 68 85 51 68 85 34 34 51 34 34 51 51 68 85 51 68 85 51 68 85 51 68 85 51 68 85 0 51 102 0 170 221 0 170 221 0 51 102 51 68 85 51 68 85 51 68 85 51 68 85 51 68 85 34 34 51 34 34 51 51 68 85 51 68 85 51 68 85 51 68 85 51 68 85 0 51 102 0 51 102 0 51 102 0 51 102 51 68 85 51 68 85 51 68 85 51 68 85 51 68 85 34 34 51 34 34 51 51 68 85 51 68 85 51 68 85 51 68 85 51 68 85 51 68 85 51 68 85 51 68 85 51 68 85 51 68 85 51 68 85 51 68 85 51 68 85 51 68 85 34 34 51 34 34 51 51 68 85 51 68 85 51 68 85 51 68 85 51 68 85 0 51 102 0 170 221 0 170 221 0 51 102 51 68 85 51 68 85 51 68 85 51 68 85 51 68 85 34 34 51 34 34 51 51 68 85 51 68 85 51 68 85 51 68 85 51 68 85 51 68 85 51 68 85 51 68 85 51 68 85 51 68 85 51 68 85 51 68 85 51 68 85 51 68 85 34 34 51 34 34 51 51 68 85 51 68 85 51 68 85 51 68 85 51 68 85 51 68 85 51 68 85 51 68 85 51 68 85 51 68 85 51 68 85 51 68 85 51 68 85 51 68 85 34 34 51 34 34 51 51 68 85 51 68 85 51 68 85 51 68 85 51 68 85 51 68 85 51 68 85 51 68 85 51 68 85 51 68 85 51 68 85 51 68 85 51 68 85 51 68 85 34 34 51 34 34 51 51 68 85 51 68 85 51 68 85 51 68 85 51 68 85 0 51 102 0 170 221 0 170 221 0 51 102 51 68 85 51 68 85 51 68 85 51 68 85 51 68 85 34 34 51 34 34 51 51 68 85 51 68 85 51 68 85 51 68 85 51 68 85 51 68 85 51 68 85 51 68 85 51 68 85 51 68 85 51 68 85 51 68 85 51 68 85 51 68 85 34 34 51 34 34 51 51 68 85 51 68 85 51 68 85 51 68 85 51 68 85 51 68 85 51 68 85 51 68 85 51 68 85 51 68 85 51 68 85 51 68 85 51 68 85 51 68 85 34 34 51
34 34 51 51 68 85 51 68 85 51 68 85 51 68 85 51 68 85 51 68 85 51 68 85 51 68 85 51 68 85 51 68 85 51 68 85 51 68 85 51 68 85 51 68 85 34 34 51 34 34 51 51 68 85 51 68 85 51 68 85 51 68 85 51 68 85 51 68 85 51 68 85 51 68 85 51 68 85 51 68 85 51 68 85 51 68 85 51 68 85 51 68 85 34 34 51 34 34 51 51 68 85 51 68 85 51 68 85 51 68 85 51 68 85 0 51 102 0 170 221 0 170 221 0 51 102 51 68 85 51 68 85 51 68 85 51 68 85 51 68 85 34 34 51 34 34 51 51 68 85 51 68 85 51 68 85 51 68 85 51 68 85 0 51 102 0 51 102 0 51 102 0 51 102 51 68 85 51 68 85 51 68 85 51 68 85 51 68 85 34 34 51 34 34 51 51 68 85 51 68 85 51 68 85 51 68 85 51 68 85 51 68 85 51 68 85 51 68 85 51 68 85 51 68 85 51 68 85 51 68 85 51 68 85 51 68 85 34 34 51 34 34 51 51 68 85 51 68 85 51 68 85 51 68 85 51 68 85 0 51 102 0 170 221 0 170 221 0 51 102 51 68 85 51 68 85 51 68 85 51 68 85 51 68 85 34 34 51 34 34 51 51 68 85 51 68 85 51 68 85 51 68 85 51 68 85 51 68 85 51 68 85 51 68 85 51 68 85 51 68 85 51 68 85 51 68 85 51 68 85 51 68 85 34 34 51 34 34 51 51 68 85 51 68 85 51 68 85 51 68 85 51 68 85 51 68 85 51 68 85 51 68 85 51 68 85 51 68 85 51 68 85 51 68 85 51 68 85 51 68 85 34 34 51 34 34 51 51 68 85 51 68 85 51 68 85 51 68 85 51 68 85 51 68 85 51 68 85 51 68 85 51 68 85 51 68 85 51 68 85 51 68 85 51 68 85 51 68 85 34 34 51 34 34 51 51 68 85 51 68 85 51 68 85 51 68 85 51 68 85 0 51 102 0 170 221 0 170 221 0 51 102 51 68 85 51 68 85 51 68 85 51 68 85 51 68 85 34 34 51 34 34 51 51 68 85 51 68 85 51 68 85 51 68 85 51 68 85 51 68 85 51 68 85 51 68 85 51 68 85 51 68 85 51 68 85 51 68 85 51 68 85 51 68 85 34 34 51 34 34 51 51 68 85 51 68 85 51 68 85 51 68 85 51 68 85 51 68 85 51 68 85 51 68 85 51 68 85 51 68 85 51 68 85 51 68 85 51 68 85 51 68 85 34 34 51
34 34 51 51 68 85 51 68 85 85 102 119 85 102 119 85 102 119 85 102 119 85 102 119 85 102 119 85 102 119 85 102 119 85 102 119 85 102 119 51 68 85 51 68 85 34 34 51 34 34 51 51 68 85 51 68 85 51 68 85 51 68 85 51 68 85 51 68 85 51 68 85 51 68 85 51 68 85 51 68 85 51 68 85 51 68 85 51 68 85 51 68 85 34 34 51 34 34 51 51 68 85 51 68 85 51 68 85 51 68 85 51 68 85 0 51 102 0 170 221 0 170 221 0 51 102 51 68 85 51 68 85 51 68 85 51 68 85 51 68 85 34 34 51 34 34 51 51 68 85 51 68 85 51 68 85 51 68 85 51 68 85 0 51 102 0 51 102 0 51 102 0 51 102 51 68 85 51 68 85 51 68 85 51 68 85 51 68 85 34 34 51 34 34 51 51 68 85 51 68 85 51 68 85 51 68 85 51 68 85 51 68 85 51 68 85 51 68 85 51 68 85 51 68 85 51 68 85 51 68 85 51 68 85 51 68 85 34 34 51 34 34 51 51 68 85 51 68 85 51 68 85 51 68 85 51 68 85 0 51 102 0 170 221 0 170 221 0 51 102 51 68 85 51 68 85 51 68 85 51 68 85 51 68 85 34 34 51 34 34 51 51 68 85 51 68 85 119 136 153 119 136 153 51 68 85 51 68 85 119 136 153 119 136 153 51 68 85 51 68 85 119 136 153 119 136 153 51 68 85 51 68 85 34 34 51 34 34 51 51 68 85 51 68 85 85 102 119 85 102 119 85 102 119 85 102 119 85 102 119 85 102 119 85 102 119 85 102 119 85 102 119 85 102 119 51 68 85 51 68 85 34 34 51 34 34 51 51 68 85 51 68 85 51 68 85 51 68 85 51 68 85 51 68 85 51 68 85 51 68 85 51 68 85 51 68 85 51 68 85 51 68 85 51 68 85 51 68 85 34 34 51 34 34 51 51 68 85 51 68 85 51 68 85 51 68 85 51 68 85 0 51 102 0 170 221 0 170 221 0 51 102 51 68 85 51 68 85 51 68 85 51 68 85 51 68 85 34 34 51 34 34 51 51 68 85 51 68 85 51 68 85 51 68 85 51 68 85 51 68 85 51 68 85 51 68 85 51 68 85 51 68 85 51 68 85 51 68 85 51 68 85 51 68 85 34 34 51 34 34 51 51 68 85 51 68 85 17 17 34 17 17 34 17 17 34 17 17 34 17 17 34 17 17 34 17 17 34 17 17 34 17 17 34 17 17 34 51 68 85 51 68 85 34 34 51
34 34 51 51 68 85 51 68 85 85 102 119 85 102 119 85 102 119 85 102 119 85 102 119 85 102 119 85 102 119 85 102 119 85 102 119 85 102 119 51 68 85 51 68 85 34 34 51 34 34 51 51 68 85 51 68 85 51 68 85 51 68 85 51 68 85 51 68 85 51 68 85 51 68 85 51 68 85 51 68 85 51 68 85 51 68 85 51 68 85 51 68 85 34 34 51 34 34 51 51 68 85 51 68 85 51 68 85 51 68 85 51 68 85 0 51 102 0 170 221 0 170 221 0 51 102 51 68 85 51 68 85 51 68 85 51 68 85 51 68 85 34 34 51 34 34 51 51 68 85 51 68 85 51 68 85 51 68 85 51 68 85 0 51 102 0 51 102 0 51 102 0 51 102 51 68 85 51 68 85 51 68 85 51 68 85 51 68 85 34 34 51 34 34 51 51 68 85 51 68 85 51 68 85 51 68 85 51 68 85 51 68 85 51 68 85 51 68 85 51 68 85 51 68 85 51 68 85 51 68 85 51 68 85 51 68 85 34 34 51 34 34 51 51 68 85 51 68 85 51 68 85 51 68 85 51 68 85 0 51 102 0 170 221 0 170 221 0 51 102 51 68 85 51 68 85 51 68 85 51 68 85 51 68 85 34 34 51 34 34 51 51 68 85 51 68 85 119 136 153 119 136 153 51 68 85 51 68 85 119 136 153 119 136 153 51 68 85 51 68 85 119 136 153 119 136 153 51 68 85 51 68 85 34 34 51 34 34 51 51 68 85 51 68 85 85 102 119 85 102 119 85 102 119 85 102 119 85 102 119 85 102 119 85 102 119 85 102 119 85 102 119 85 102 119 51 68 85 51 68 85 34 34 51 34 34 51 51 68 85 51 68 85 51 68 85 51 68 85 51 68 85 51 68 85 51 68 85 51 68 85 51 68 85 51 68 85 51 68 85 51 68 85 51 68 85 51 68 85 34 34 51 34 34 51 51 68 85 51 68 85 51 68 85 51 68 85 51 68 85 0 51 102 0 170 221 0 170 221 0 51 102 51 68 85 51 68 85 51 68 85 51 68 85 51 68 85 34 34 51 34 34 51 51 68 85 51 68 85 51 68 85 51 68 85 51 68 85 51 68 85 51 68 85 51 68 85 51 68 85 51 68 85 51 68 85 51 68 85 51 68 85 51 68 85 34 34 51 34 34 51 51 68 85 51 68 85 17 17 34 34 34 51 34 34 51 34 34 51 34 34 51 34 34 51 34 34 51 34 34 51 34 34 51 17 17 34 51 68 85 51 68 85 34 34 51
34 34 51 51 68 85 51 68 85 85 102 119 85 102 119 85 102 119 85 102 119 85 102 119 85 102 119 85 102 119 85 102 119 85 102 119 85 102 119 51 68 85 51 68 85 34 34 51 34 34 51 51 68 85 51 68 85 51 68 85 51 68 85 51 68 85 51 68 85 51 68 85 51 68 85 51 68 85 51 68 85 51 68 85 51 68 85 51 68 85 51 68 85 34 34 51 34 34 51 51 68 85 51 68 85 51 68 85 51 68 85 51 68 85 0 51 102 0 170 221 0 170 221 0 51 102 51 68 85 51 68 85 51 68 85 51 68 85 51 68 85 34 34 51 34 34 51 51 68 85 51 68 85 51 68 85 51 68 85 51 68 85 0 51 102 0 51 102 0 51 102 0 51 102 51 68 85 51 68 85 51 68 85 51 68 85 51 68 85 34 34 51 34 34 51 51 68 85 51 68 85 51 68 85 51 68 85 51 68 85 51 68 85 51 68 85 51 68 85 51 68 85 51 68 85 51 68 85 51 68 85 51 68 85 51 68 85 34 34 51 34 34 51 51 68 85 51 68 85 51 68 85 51 68 85 51 68 85 0 51 102 0 170 221 0 170 221 0 51 102 51 68 85 51 68 85 51 68 85 51 68 85 51 68 85 34 34 51 34 34 51 51 68 85 51 68 85 119 136 153 119 136 153 51 68 85 51 68 85 119 136 153 119 136 153 51 68 85 51 68 85 119 136 153 119 136 153 51 68 85 51 68 85 34 34 51 34 34 51 51 68 85 51 68 85 85 102 119 85 102 119 85 102 119 85 102 119 85 102 119 85 102 119 85 102 119 85 102 119 85 102 119 85 102 119 51 68 85 51 68 85 34 34 51 34 34 51 51 68 85 51 68 85 51 68 85 51 68 85 51 68 85 51 68 85 51 68 85 51 68 85 51 68 85 51 68 85 51 68 85 51 68 85 51 68 85 51 68 85 34 34 51 34 34 51 51 68 85 51 68 85 51 68 85 51 68 85 51 68 85 0 51 102 0 170 221 0 170 221 0 51 102 51 68 85 51 68 85 51 68 85 51 68 85 51 68 85 34 34 51 34 34 51 51 68 85 51 68 85 51 68 85 51 68 85 51 68 85 51 68 85 51 68 85 51 68 85 51 68 85 51 68 85 51 68 85 51 68 85 51 68 85 51 68 85 34 34 51 34 34 51 51 68 85 51 68 85 17 17 34 34 34 51 34 34 51 34 34 51 34 34 51 34 34 51 34 34 51 34 34 51 34 34 51 17 17 34 51 68 85 51 68 85 34 34 51
34 34 51 51 68 85 51 68 85 85 102 119 85 102 119 85 102 119 85 102 119 85 102 119 85 102 119 85 102 119 85 102 119 85 102 119 85 102 119 51 68 85 51 68 85 34 34 51 0 51 102 0 51 102 0 51 102 0 51 102 0 51 102 0 51 102 0 51 102 0 51 102 0 51 102 0 51 102 0 51 102 0 51 102 0 51 102 0 51 102 0 51 102 0 51 102 34 34 51 51 68 85 51 68 85 51 68 85 51 68 85 51 68 85 0 51 102 0 170 221 0 170 221 0 51 102 51 68 85 51 68 85 51 68 85 51 68 85 51 68 85 34 34 51 0 51 102 0 51 102 0 51 102 0 51 102 0 51 102 0 51 102 0 51 102 0 51 102 0 51 102 0 51 102 0 51 102 0 51 102 0 51 102 0 51 102 0 51 102 0 51 102 0 51 102 0 51 102 0 51 102 0 51 102 0 51 102 0 51 102 0 51 102 0 51 102 0 51 102 0 51 102 0 51 102 0 51 102 0 51 102 0 51 102 0 51 102 0 51 102 34 34 51 51 68 85 51 68 85 51 68 85 51 68 85 51 68 85 0 51 102 0 170 221 0 170 221 0 51 102 51 68 85 51 68 85 51 68 85 51 68 85 51 68 85 34 34 51 34 34 51 51 68 85 51 68 85 119 136 153 119 136 153 51 68 85 51 68 85 119 136 153 119 136 153 51 68 85 51 68 85 119 136 153 119 136 153 51 68 85 51 68 85 34 34 51 34 34 51 51 68 85 51 68 85 85 102 119 85 102 119 85 102 119 85 102 119 85 102 119 85 102 119 85 102 119 85 102 119 85 102 119 85 102 119 51 68 85 51 68 85 34 34 51 0 51 102 0 51 102 0 51 102 0 51 102 0 51 102 0 51 102 0 51 102 0 51 102 0 51 102 0 51 102 0 51 102 0 51 102 0 51 102 0 51 102 0 51 102 0 51 102 34 34 51 51 68 85 51 68 85 51 68 85 51 68 85 51 68 85 0 51 102 0 170 221 0 170 221 0 51 102 51 68 85 51 68 85 51 68 85 51 68 85 51 68 85 34 34 51 34 34 51 51 68 85 51 68 85 51 68 85 51 68 85 51 68 85 51 68 85 51 68 85 51 68 85 51 68 85 51 68 85 51 68 85 51 68 85 51 68 85 51 68 85 34 34 51 34 34 51 51 68 85 51 68 85 17 17 34 34 34 51 34 34 51 255 170 34 255 170 34 255 170 34 255 170 34 34 34 51 34 34 51 17 17 34 51 68 85 51 68 85 34 34 51
34 34 51 51 68 85 51 68 85 85 102 119 85 102 119 85 102 119 85 102 119 85 102 119 85 102 119 85 102 119 85 102 119 85 102 119 85 102 119 51 68 85 51 68 85 34 34 51 0 170 221 0 170 221 0 170 221 0 170 221 0 170 221 0 170 221 0 170 221 0 170 221 0 170 221 0 170 221 0 170 221 0 170 221 0 170 221 0 170 221 0 170 221 0 170 221 34 34 51 51 68 85 51 68 85 51 68 85 51 68 85 51 68 85 0 51 102 0 170 221 0 170 221 0 51 102 51 68 85 51 68 85 51 68 85 51 68 85 51 68 85 34 34 51 0 51 102 0 51 102 0 51 102 0 51 102 0 51 102 0 51 102 0 51 102 0 170 221 0 170 221 0 51 102 0 51 102 0 51 102 0 51 102 0 51 102 0 51 102 0 51 102 0 170 221 0 170 221 0 170 221 0 170 221 0 170 221 0 170 221 0 170 221 0 170 221 0 170 221 0 170 221 0 170 221 0 170 221 0 170 221 0 170 221 0 170 221 0 170 221 34 34 51 51 68 85 51 68 85 51 68 85 51 68 85 51 68 85 0 51 102 0 170 221 0 170 221 0 51 102 51 68 85 51 68 85 51 68 85 51 68 85 51 68 85 34 34 51 34 34 51 51 68 85 51 68 85 119 136 153 119 136 153 51 68 85 51 68 85 119 136 153 119 136 153 51 68 85 51 68 85 119 136 153 119 136 153 51 68 85 51 68 85 34 34 51 34 34 51 51 68 85 51 68 85 85 102 119 85 102 119 85 102 119 85 102 119 85 102 119 85 102 119 85 102 119 85 102 119 85 102 119 85 102 119 51 68 85 51 68 85 34 34 51 0 170 221 0 170 221 0 170 221 0 170 221 0 170 221 0 170 221 0 170 221 0 170 221 0 170 221 0 170 221 0 170 221 0 170 221 0 170 221 0 170 221 0 170 221 0 170 221 34 34 51 51 68 85 51 68 85 51 68 85 51 68 85 51 68 85 0 51 102 0 170 221 0 170 221 0 51 102 51 68 85 51 68 85 51 68 85 51 68 85 51 68 85 34 34 51 34 34 51 51 68 85 51 68 85 51 68 85 51 68 85 51 68 85 51 68 85 51 68 85 51 68 85 51 68 85 51 68 85 51 68 85 51 68 85 51 68 85 51 68 85 34 34 51 34 34 51 51 68 85 51 68 85 17 17 34 34 34 51 34 34 51 255 170 34 255 170 34 255 170 34 255 170 34 34 34 51 34 34 51 17 17 34 51 68 85 51 68 85 34 34 51
34 34 51 51 68 85 51 68 85 85 102 119 85 102 119 85 102 119 85 102 119 85 102 119 85 102 119 85 102 119 85 102 119 85 102 119 85 102 119 51 68 85 51 68 85 34 34 51 0 170 221 0 170 221 0 170 221 0 170 221 0 170 221 0 170 221 0 170 221 0 170 221 0 170 221 0 170 221 0 170 221 0 170 221 0 170 221 0 170 221 0 170 221 0 170 221 34 34 51 51 68 85 51 68 85 51 68 85 51 68 85 51 68 85 0 51 102 0 170 221 0 170 221 0 51 102 51 68 85 51 68 85 51 68 85 51 68 85 51 68 85 34 34 51 0 51 102 0 51 102 0 51 102 0 51 102 0 51 102 0 51 102 0 51 102 0 170 221 0 170 221 0 51 102 0 51 102 0 51 102 0 51 102 0 51 102 0 51 102 0 51 102 0 170 221 0 170 221 0 170 221 0 170 221 0 170 221 0 170 221 0 170 221 0 170 221 0 170 221 0 170 221 0 170 221 0 170 221 0 170 221 0 170 221 0 170 221 0 170 221 34 34 51 51 68 85 51 68 85 51 68 85 51 68 85 51 68 85 0 51 102 0 170 221 0 170 221 0 51 102 51 68 85 51 68 85 51 68 85 51 68 85 51 68 85 34 34 51 34 34 51 51 68 85 51 68 85 119 136 153 119 136 153 51 68 85 51 68 85 119 136 153 119 136 153 51 68 85 51 68 85 119 136 153 119 136 153 51 68 85 51 68 85 34 34 51 34 34 51 51 68 85 51 68 85 85 102 119 85 102 119 85 102 119 85 102 119 85 102 119 85 102 119 85 102 119 85 102 119 85 102 119 85 102 119 51 68 85 51 68 85 34 34 51 0 170 221 0 170 221 0 170 221 0 170 221 0 170 221 0 170 221 0 170 221 0 170 221 0 170 221 0 170 221 0 170 221 0 170 221 0 170 221 0 170 221 0 170 221 0 170 221 34 34 51 51 68 85 51 68 85 51 68 85 51 68 85 51 68 85 0 51 102 0 170 221 0 170 221 0 51 102 51 68 85 51 68 85 51 68 85 51 68 85 51 68 85 34 34 51 34 34 51 51 68 85 51 68 85 51 68 85 51 68 85 51 68 85 51 68 85 51 68 85 51 68 85 51 68 85 51 68 85 51 68 85 51 68 85 51 68 85 51 68 85 34 34 51 34 34 51 51 68 85 51 68 85 17 17 34 34 34 51 34 34 51 255 170 34 255 170 34 255 170 34 255 170 34 34 34 51 34 34 51 17 17 34 51 68 85 51 68 85 34 34 51
34 34 51 51 68 85 51 68 85 85 102 119 85 102 119 85 102 119 85 102 119 85 102 119 85 102 119 85 102 119 85 102 119 85 102 119 85 102 119 51 68 85 51 68 85 34 34 51 0 51 102 0 51 102 0 51 102 0 51 102 0 51 102 0 51 102 0 51 102 0 51 102 0 51 102 0 51 102 0 51 102 0 51 102 0 51 102 0 51 102 0 51 102 0 51 102 34 34 51 51 68 85 51 68 85 51 68 85 51 68 85 51 68 85 0 51 102 0 170 221 0 170 221 0 51 102 51 68 85 51 68 85 51 68 85 51 68 85 51 68 85 34 34 51 0 51 102 0 51 102 0 51 102 0 51 102 0 51 102 0 51 102 0 51 102 0 51 102 0 51 102 0 51 102 0 51 102 0 51 102 0 51 102 0 51 102 0 51 102 0 51 102 0 51 102 0 51 102 0 51 102 0 51 102 0 51 102 0 51 102 0 51 102 0 51 102 0 51 102 0 51 102 0 51 102 0 51 102 0 51 102 0 51 102 0 51 102 0 51 102 34 34 51 51 68 85 51 68 85 51 68 85 51 68 85 51 68 85 0 51 102 0 170 221 0 170 221 0 51 102 51 68 85 51 68 85 51 68 85 51 68 85 51 68 85 34 34 51 34 34 51 51 68 85 51 68 85 119 136 153 119 136 153 51 68 85 51 68 85 119 136 153 119 136 153 51 68 85 51 68 85 119 136 153 119 136 153 51 68 85 51 68 85 34 34 51 34 34 51 51 68 85 51 68 85 85 102 119 85 102 119 85 102 119 85 102 119 85 102 119 85 102 119 85 102 119 85 102 119 85 102 119 85 102 119 51 68 85 51 68 85 34 34 51 0 51 102 0 51 102 0 51 102 0 51 102 0 51 102 0 51 102 0 51 102 0 51 102 0 51 102 0 51 102 0 51 102 0 51 102 0 51 102 0 51 102 0 51 102 0 51 102 34 34 51 51 68 85 51 68 85 51 68 85 51 68 85 51 68 85 0 51 102 0 170 221 0 170 221 0 51 102 51 68 85 51 68 85 51 68 85 51 68 85 51 68 85 34 34 51 34 34 51 51 68 85 51 68 85 51 68 85 51 68 85 51 68 85 51 68 85 51 68 85 51 68 85 51 68 85 51 68 85 51 68 85 51 68 85 51 68 85 51 68 85 34 34 51 34 34 51 51 68 85 51 68 85 17 17 34 34 34 51 34 34 51 255 170 34 255 170 34 255 170 34 255 170 34 34 34 51 34 34 51 17 17 34 51 68 85 51 68 85 34 34 51
34 34 51 51 68 85 51 68 85 85 102 119 85 102 119 85 102 119 85 102 119 85 102 119 85 102 119 85 102 119 85 102 119 85 102 119 85 102 119 51 68 85 51 68 85 34 34 51 34 34 51 51 68 85 51 68 85 51 68 85 51 68 85 51 68 85 51 68 85 51 68 85 51 68 85 51 68 85 51 68 85 51 68 85 51 68 85 51 68 85 51 68 85 34 34 51 34 34 51 51 68 85 51 68 85 51 68 85 51 68 85 51 68 85 0 51 102 0 170 221 0 170 221 0 51 102 51 68 85 51 68 85 51 68 85 51 68 85 51 68 85 34 34 51 34 34 51 51 68 85 51 68 85 51 68 85 51 68 85 51 68 85 0 51 102 0 51 102 0 51 102 0 51 102 51 68 85 51 68 85 51 68 85 51 68 85 51 68 85 34 34 51 34 34 51 51 68 85 51 68 85 51 68 85 51 68 85 51 68 85 51 68 85 51 68 85 51 68 85 51 68 85 51 68 85 51 68 85 51 68 85 51 68 85 51 68 85 34 34 51 34 34 51 51 68 85 51 68 85 51 68 85 51 68 85 51 68 85 0 51 102 0 170 221 0 170 221 0 51 102 51 68 85 51 68 85 51 68 85 51 68 85 51 68 85 34 34 51 34 34 51 51 68 85 51 68 85 119 136 153 119 136 153 51 68 85 51 68 85 119 136 153 119 136 153 51 68 85 51 68 85 119 136 153 119 136 153 51 68 85 51 68 85 34 34 51 34 34 51 51 68 85 51 68 85 85 102 119 85 102 119 85 102 119 85 102 119 85 102 119 85 102 119 85 102 119 85 102 119 85 102 119 85 102 119 51 68 85 51 68 85 34 34 51 34 34 51 51 68 85 51 68 85 51 68 85 51 68 85 51 68 85 51 68 85 51 68 85 51 68 85 51 68 85 51 68 85 51 68 85 51 68 85 51 68 85 51 68 85 34 34 51 34 34 51 51 68 85 51 68 85 51 68 85 51 68 85 51 68 85 0 51 102 0 170 221 0 170 221 0 51 102 51 68 85 51 68 85 51 68 85 51 68 85 51 68 85 34 34 51 34 34 51 51 68 85 51 68 85 51 68 85 51 68 85 51 68 85 51 68 85 51 68 85 51 68 85 51 68 85 51 68 85 51 68 85 51 68 85 51 68 85 51 68 85 34 34 51 34 34 51 51 68 85 51 68 85 17 17 34 34 34 51 34 34 51 34 34 51 34 34 51 34 34 51 34 34 51 34 34 51 34 34 51 17 17 34 51 68 85 51 68 85 34 34 51
34 34 51 51 68 85 51 68 85 85 102 119 85 102 119 85 102 119 85 102 119 85 102 119 85 102 119 85 102 119 85 102 119 85 102 119 85 102 119 51 68 85 51 68 85 34 34 51 34 34 51 51 68 85 51 68 85 51 68 85 51 68 85 51 68 85 51 68 85 51 68 85 51 68 85 51 68 85 51 68 85 51 68 85 51 68 85 51 68 85 51 68 85 34 34 51 34 34 51 51 68 85 51 68 85 51 68 85 51 68 85 51 68 85 0 51 102 0 170 221 0 170 221 0 51 102 51 68 85 51 68 85 51 68 85 51 68 85 51 68 85 34 34 51 34 34 51 51 68 85 51 68 85 51 68 85 51 68 85 51 68 85 0 51 102 0 51 102 0 51 102 0 51 102 51 68 85 51 68 85 51 68 85 51 68 85 51 68 85 34 34 51 34 34 51 51 68 85 51 68 85 51 68 85 51 68 85 51 68 85 51 68 85 51 68 85 51 68 85 51 68 85 51 68 85 51 68 85 51 68 85 51 68 85 51 68 85 34 34 51 34 34 51 51 68 85 51 68 85 51 68 85 51 68 85 51 68 85 0 51 102 0 170 221 0 170 221 0 51 102 51 68 85 51 68 85 51 68 85 51 68 85 51 68 85 34 34 51 34 34 51 51 68 85 51 68 85 119 136 153 119 136 153 51 68 85 51 68 85 119 136 153 119 136 153 51 68 85 51 68 85 119 136 153 119 136 153 51 68 85 51 68 85 34 34 51 34 34 51 51 68 85 51 68 85 85 102 119 85 102 119 85 102 119 85 102 119 85 102 119 85 102 119 85 102 119 85 102 119 85 102 119 85 102 119 51 68 85 51 68 85 34 34 51 34 34 51 51 68 85 51 68 85 51 68 85 51 68 85 51 68 85 51 68 85 51 68 85 51 68 85 51 68 85 51 68 85 51 68 85 51 68 85 51 68 85 51 68 85 34 34 51 34 34 51 51 68 85 51 68 85 51 68 85 51 68 85 51 68 85 0 51 102 0 170 221 0 170 221 0 51 102 51 68 85 51 68 85 51 68 85 51 68 85 51 68 85 34 34 51 255 221 68 255 221 68 255 221 68 255 221 68 255 221 68 255 221 68 255 221 68 255 221 68 255 221 68 255 221 68 255 221 68 255 221 68 255 221 68 255 221 68 255 221 68 255 221 68 34 34 51 51 68 85 51 68 85 17 17 34 34 34 51 34 34 51 34 34 51 34 34 51 34 34 51 34 34 51 34 34 51 34 34 51 17 17 34 51 68 85 51 68 85 34 34 51
34 34 51 51 68 85 51 68 85 85 102 119 85 102 119 85 102 119 85 102 119 85 102 119 85 102 119 85 102 119 85 102 119 85 102 119 85 102 119 51 68 85 51 68 85 34 34 51 34 34 51 51 68 85 51 68 85 51 68 85 51 68 85 51 68 85 51 68 85 51 68 85 51 68 85 51 68 85 51 68 85 51 68 85 51 68 85 51 68 85 51 68 85 34 34 51 34 34 51 51 68 85 51 68 85 51 68 85 51 68 85 51 68 85 0 51 102 0 170 221 0 170 221 0 51 102 51 68 85 51 68 85 51 68 85 51 68 85 51 68 85 34 34 51 34 34 51 51 68 85 51 68 85 51 68 85 51 68 85 51 68 85 0 51 102 0 51 102 0 51 102 0 51 102 51 68 85 51 68 85 51 68 85 51 68 85 51 68 85 34 34 51 34 34 51 51 68 85 51 68 85 51 68 85 51 68 85 51 68 85 51 68 85 51 68 85 51 68 85 51 68 85 51 68 85 51 68 85 51 68 85 51 68 85 51 68 85 34 34 51 34 34 51 51 68 85 51 68 85 51 68 85 51 68 85 51 68 85 0 51 102 0 170 221 0 170 221 0 51 102 51 68 85 51 68 85 51 68 85 51 68 85 51 68 85 34 34 51 34 34 51 51 68 85 51 68 85 119 136 153 119 136 153 51 68 85 51 68 85 119 136 153 119 136 153 51 68 85 51 68 85 119 136 153 119 136 153 51 68 85 51 68 85 34 34 51 34 34 51 51 68 85 51 68 85 85 102 119 85 102 119 85 102 119 85 102 119 85 102 119 85 102 119 85 102 119 85 102 119 85 102 119 85 102 119 51 68 85 51 68 85 34 34 51 34 34 51 51 68 85 51 68 85 51 68 85 51 68 85 51 68 85 51 68 85 51 68 85 51 68 85 51 68 85 51 68 85 51 68 85 51 68 85 51 68 85 51 68 85 34 34 51 34 34 51 51 68 85 51 68 85 51 68 85 51 68 85 51 68 85 0 51 102 0 170 221 0 170 221 0 51 102 51 68 85 51 68 85 51 68 85 51 68 85 51 68 85 34 34 51 255 170 34 255 170 34 255 170 34 255 170 34 255 170 34 255 170 34 255 170 34 255 170 34 255 170 34 255 170 34 255 170 34 255 170 34 255 170 34 255 170 34 255 170 34 255 170 34 34 34 51 51 68 85 51 68 85 17 17 34 17 17 34 17 17 34 17 17 34 17 17 34 17 17 34 17 17 34 17 17 34 17 17 34 17 17 34 51 68 85 51 68 85 34 34 51
34 34 51 51 68 85 51 68 85 51 68 85 51 68 85 51 68 85 51 68 85 51 68 85 51 68 85 51 68 85 51 68 85 51 68 85 51 68 85 51 68 85 51 68 85 34 34 51 34 34 51 51 68 85 51 68 85 51 68 85 51 68 85 51 68 85 51 68 85 51 68 85 51 68 85 51 68 85 51 68 85 51 68 85 51 68 85 51 68 85 51 68 85 34 34 51 34 34 51 51 68 85 51 68 85 51 68 85 51 68 85 51 68 85 0 51 102 0 170 221 0 170 221 0 51 102 51 68 85 51 68 85 51 68 85 51 68 85 51 68 85 34 34 51 34 34 51 51 68 85 51 68 85 51 68 85 51 68 85 51 68 85 0 51 102 0 51 102 0 51 102 0 51 102 51 68 85 51 68 85 51 68 85 51 68 85 51 68 85 34 34 51 34 34 51 51 68 85 51 68 85 51 68 85 51 68 85 51 68 85 51 68 85 51 68 85 51 68 85 51 68 85 51 68 85 51 68 85 51 68 85 51 68 85 51 68 85 34 34 51 34 34 51 51 68 85 51 68 85 51 68 85 51 68 85 51 68 85 0 51 102 0 170 221 0 170 221 0 51 102 51 68 85 51 68 85 51 68 85 51 68 85 51 68 85 34 34 51 34 34 51 51 68 85 51 68 85 51 68 85 51 68 85 51 68 85 51 68 85 51 68 85 51 68 85 51 68 85 51 68 85 51 68 85 51 68 85 51 68 85 51 68 85 34 34 51 34 34 51 51 68 85 51 68 85 51 68 85 51 68 85 51 68 85 51 68 85 51 68 85 51 68 85 51 68 85 51 68 85 51 68 85 51 68 85 51 68 85 51 68 85 34 34 51 34 34 51 51 68 85 51 68 85 51 68 85 51 68 85 51 68 85 51 68 85 51 68 85 51 68 85 51 68 85 51 68 85 51 68 85 51 68 85 51 68 85 51 68 85 34 34 51 34 34 51 51 68 85 51 68 85 51 68 85 51 68 85 51 68 85 0 51 102 0 170 221 0 170 221 0 51 102 51 68 85 51 68 85 51 68 85 51 68 85 51 68 85 34 34 51 255 170 34 255 170 34 255 170 34 255 170 34 255 170 34 255 170 34 255 170 34 255 170 34 255 170 34 255 170 34 255 170 34 255 170 34 255 170 34 255 170 34 255 170 34 255 170 34 34 34 51 51 68 85 51 68 85 51 68 85 51 68 85 51 68 85 51 68 85 51 68 85 51 68 85 51 68 85 51 68 85 51 68 85 51 68 85 51 68 85 51 68 85 34 34 51
34 34 51 51 68 85 51 68 85 51 68 85 51 68 85 51 68 85 51 68 85 51 68 85 51 68 85 51 68 85 51 68 85 51 68 85 51 68 85 51 68 85 51 68 85 34 34 51 34 34 51 51 68 85 51 68 85 51 68 85 51 68 85 51 68 85 51 68 85 51 68 85 51 68 85 51 68 85 51 68 85 51 68 85 51 68 85 51 68 85 51 68 85 34 34 51 34 34 51 51 68 85 51 68 85 51 68 85 51 68 85 51 68 85 0 51 102 0 170 221 0 170 221 0 51 102 51 68 85 51 68 85 51 68 85 51 68 85 51 68 85 34 34 51 34 34 51 51 68 85 51 68 85 51 68 85 51 68 85 51 68 85 0 51 102 0 51 102 0 51 102 0 51 102 51 68 85 51 68 85 51 68 85 51 68 85 51 68 85 34 34 51 34 34 51 51 68 85 51 68 85 51 68 85 51 68 85 51 68 85 51 68 85 51 68 85 51 68 85 51 68 85 51 68 85 51 68 85 51 68 85 51 68 85 51 68 85 34 34 51 34 34 51 51 68 85 51 68 85 51 68 85 51 68 85 51 68 85 0 51 102 0 170 221 0 170 221 0 51 102 51 68 85 51 68 85 51 68 85 51 68 85 51 68 85 34 34 51 34 34 51 51 68 85 51 68 85 51 68 85 51 68 85 51 68 85 51 68 85 51 68 85 51 68 85 51 68 85 51 68 85 51 68 85 51 68 85 51 68 85 51 68 85 34 34 51 34 34 51 51 68 85 51 68 85 51 68 85 51 68 85 51 68 85 51 68 85 51 68 85 51 68 85 51 68 85 51 68 85 51 68 85 51 68 85 51 68 85 51 68 85 34 34 51 34 34 51 51 68 85 51 68 85 51 68 85 51 68 85 51 68 85 51 68 85 51 68 85 51 68 85 51 68 85 51 68 85 51 68 85 51 68 85 51 68 85 51 68 85 34 34 51 34 34 51 51 68 85 51 68 85 51 68 85 51 68 85 51 68 85 0 51 102 0 170 221 0 170 221 0 51 102 51 68 85 51 68 85 51 68 85 51 68 85 51 68 85 34 34 51 255 170 34 255 170 34 255 170 34 255 170 34 255 170 34 255 170 34 255 170 34 255 170 34 255 170 34 255 170 34 255 170 34 255 170 34 255 170 34 255 170 34 255 170 34 255 170 34 34 34 51 51 68 85 51 68 85 51 68 85 51 68 85 51 68 85 51 68 85 51 68 85 51 68 85 51 68 85 51 68 85 51 68 85 51 68 85 51 68 85 51 68 85 34 34 51
34 34 51 34 34 51 34 34 51 34 34 51 34 34 51 34 34 51 34 34 51 34 34 51 34 34 51 34 34 51 34 34 51 34 34 51 34 34 51 34 34 51 34 34 51 34 34 51 34 34 51 34 34 51 34 34 51 34 34 51 34 34 51 34 34 51 34 34 51 34 34 51 34 34 51 34 34 51 34 34 51 34 34 51 34 34 51 34 34 51 34 34 51 34 34 51 34 34 51 34 34 51 34 34 51 34 34 51 34 34 51 34 34 51 0 51 102 0 170 221 0 170 221 0 51 102 34 34 51 34 34 51 34 34 51 34 34 51 34 34 51 34 34 51 34 34 51 34 34 51 34 34 51 34 34 51 34 34 51 34 34 51 0 51 102 0 51 102 0 51 102 0 51 102 34 34 51 34 34 51 34 34 51 34 34 51 34 34 51 34 34 51 34 34 51 34 34 51 34 34 51 34 34 51 34 34 51 34 34 51 34 34 51 34 34 51 34 34 51 34 34 51 34 34 51 34 34 51 34 34 51 34 34 51 34 34 51 34 34 51 34 34 51 34 34 51 34 34 51 34 34 51 34 34 51 34 34 51 0 51 102 0 170 221 0 170 221 0 51 102 34 34 51 34 34 51 34 34 51 34 34 51 34 34 51 34 34 51 34 34 51 34 34 51 34 34 51 34 34 51 34 34 51 34 34 51 34 34 51 34 34 51 34 34 51 34 34 51 34 34 51 34 34 51 34 34 51 34 34 51 34 34 51 34 34 51 34 34 51 34 34 51 34 34 51 34 34 51 34 34 51 34 34 51 34 34 51 34 34 51 34 34 51 34 34 51 34 34 51 34 34 51 34 34 51 34 34 51 34 34 51 34 34 51 34 34 51 34 34 51 34 34 51 34 34 51 34 34 51 34 34 51 34 34 51 34 34 51 34 34 51 34 34 51 34 34 51 34 34 51 34 34 51 34 34 51 34 34 51 34 34 51 34 34 51 34 34 51 34 34 51 34 34 51 34 34 51 34 34 51 0 51 102 0 170 221 0 170 221 0 51 102 34 34 51 34 34 51 34 34 51 34 34 51 34 34 51 34 34 51 255 170 34 255 170 34 255 170 34 255 170 34 255 170 34 255 170 34 255 170 34 255 170 34 255 170 34 255 170 34 255 170 34 255 170 34 255 170 34 255 170 34 255 170 34 255 170 34 34 34 51 34 34 51 34 34 51 34 34 51 34 34 51 34 34 51 34 34 51 34 34 51 34 34 51 34 34 51 34 34 51 34 34 51 34 34 51 34 34 51 34 34 51 34 34 51
