P3
8 12
255
0 0 0 0 0 0 0 0 0 0 0 0 0 0 0 0 0 0 0 0 0 0 0 0
0 0 0 0 0 0 0 0 0 221 238 255 221 238 255 0 0 0 0 0 0 0 0 0
0 0 0 0 0 0 0 0 0 221 238 255 221 238 255 0 0 0 0 0 0 0 0 0
0 0 0 0 0 0 0 170 221 0 170 221 0 170 221 0 170 221 0 0 0 0 0 0
0 0 0 0 0 0 0 170 221 0 170 221 0 170 221 0 170 221 0 0 0 0 0 0
0 0 0 0 0 0 0 170 221 0 170 221 0 170 221 0 170 221 0 0 0 0 0 0
0 0 0 0 0 0 0 170 221 0 170 221 0 170 221 0 170 221 0 0 0 0 0 0
0 0 0 0 0 0 0 170 221 0 170 221 0 170 221 0 170 221 0 0 0 0 0 0
0 0 0 0 0 0 0 0 0 221 238 255 221 238 255 0 0 0 0 0 0 0 0 0
0 0 0 0 0 0 0 0 0 221 238 255 221 238 255 0 0 0 0 0 0 0 0 0
0 0 0 0 0 0 0 0 0 0 0 0 0 0 0 0 0 0 0 0 0 0 0 0
0 0 0 0 0 0 0 0 0 0 0 0 0 0 0 0 0 0 0 0 0 0 0 0
