P3
320 256
255
34 34 51 34 34 51 34 34 51 34 34 51 34 34 51 34 34 51 34 34 51 34 34 51 34 34 51 34 34 51 34 34 51 34 34 51 34 34 51 34 34 51 34 34 51 34 34 51 34 34 51 34 34 51 34 34 51 34 34 51 34 34 51 34 34 51 34 34 51 34 34 51 34 34 51 34 34 51 34 34 51 34 34 51 34 34 51 34 34 51 34 34 51 34 34 51 34 34 51 34 34 51 34 34 51 34 34 51 34 34 51 34 34 51 34 34 51 34 34 51 34 34 51 34 34 51 34 34 51 34 34 51 34 34 51 34 34 51 34 34 51 34 34 51 34 34 51 34 34 51 34 34 51 34 34 51 34 34 51 34 34 51 34 34 51 34 34 51 34 34 51 34 34 51 34 34 51 34 34 51 34 34 51 34 34 51 34 34 51 34 34 51 34 34 51 34 34 51 34 34 51 34 34 51 34 34 51 34 34 51 34 34 51 34 34 51 34 34 51 34 34 51 34 34 51 34 34 51 34 34 51 34 34 51 34 34 51 34 34 51 34 34 51 34 34 51 34 34 51 34 34 51 34 34 51 34 34 51 34 34 51 34 34 51 34 34 51 34 34 51 34 34 51 34 34 51 34 34 51 34 34 51 34 34 51 34 34 51 34 34 51 34 34 51 34 34 51 34 34 51 34 34 51 34 34 51 34 34 51 34 34 51 34 34 51 34 34 51 34 34 51 34 34 51 34 34 51 34 34 51 34 34 51 34 34 51 34 34 51 34 34 51 34 34 51 34 34 51 34 34 51 34 34 51 34 34 51 34 34 51 34 34 51 34 34 51 34 34 51 34 34 51 34 34 51 34 34 51 34 34 51 34 34 51 34 34 51 34 34 51 34 34 51 34 34 51 34 34 51 34 34 51 34 34 51 34 34 51 34 34 51 34 34 51 34 34 51 34 34 51 34 34 51 34 34 51 34 34 51 34 34 51 34 34 51 34 34 51 34 34 51 34 34 51 34 34 51 34 34 51 34 34 51 34 34 51 34 34 51 34 34 51 34 34 51 34 34 51 34 34 51 34 34 51 34 34 51 34 34 51 34 34 51 34 34 51 34 34 51 34 34 51 34 34 51 34 34 51 34 34 51 34 34 51 34 34 51 34 34 51 34 34 51 34 34 51 34 34 51 34 34 51 34 34 51 34 34 51 34 34 51 34 34 51 34 34 51 34 34 51 34 34 51 34 34 51 34 34 51 34 34 51 34 34 51 34 34 51 34 34 51 34 34 51 34 34 51 34 34 51 34 34 51 34 34 51 34 34 51 34 34 51 34 34 51 34 34 51 34 34 51 34 34 51 34 34 51 34 34 51 34 34 51 34 34 51 34 34 51 34 34 51 34 34 51 34 34 51 34 34 51 34 34 51 34 34 51 34 34 51 34 34 51 34 34 51 34 34 51 34 34 51 34 34 51 34 34 51 34 34 51 34 34 51 34 34 51 34 34 51 34 34 51 34 34 51 34 34 51 34 34 51 34 34 51 34 34 51 34 34 51 34 34 51 34 34 51 34 34 51 34 34 51 34 34 51 34 34 51 34 34 51 34 34 51 34 34 51 34 34 51 34 34 51 34 34 51 34 34 51 34 34 51 34 34 51 34 34 51 34 34 51 34 34 51 34 34 51 34 34 51 34 34 51 34 34 51 34 34 51 34 34 51 34 34 51 34 34 51 34 34 51 34 34 51 34 34 51 34 34 51 34 34 51 34 34 51 34 34 51 34 34 51 34 34 51 34 34 51 34 34 51 34 34 51 34 34 51 34 34 51 34 34 51 34 34 51 34 34 51 34 34 51 34 34 51 34 34 51 34 34 51 34 34 51 34 34 51 34 34 51 34 34 51 34 34 51 34 34 51 34 34 51 34 34 51 34 34 51 34 34 51 34 34 51 34 34 51 34 34 51 34 34 51 34 34 51 34 34 51 34 34 51 34 34 51 34 34 51 34 34 51 34 34 51 34 34 51 34 34 51 34 34 51 34 34 51 34 34 51 34 34 51 34 34 51 34 34 51 34 34 51 34 34 51 34 34 51 34 34 51 34 34 51 34 34 51 34 34 51 34 34 51 34 34 51 34 34 51 34 34 51 34 34 51 34 34 51 34 34 51 34 34 51 34 34 51 34 34 51
34 34 51 34 34 51 34 34 51 34 34 51 34 34 51 34 34 51 34 34 51 34 34 51 34 34 51 34 34 51 34 34 51 34 34 51 34 34 51 34 34 51 34 34 51 34 34 51 34 34 51 34 34 51 34 34 51 34 34 51 34 34 51 34 34 51 34 34 51 34 34 51 34 34 51 34 34 51 34 34 51 34 34 51 34 34 51 34 34 51 34 34 51 34 34 51 34 34 51 34 34 51 34 34 51 34 34 51 34 34 51 34 34 51 34 34 51 34 34 51 34 34 51 34 34 51 34 34 51 34 34 51 34 34 51 34 34 51 34 34 51 34 34 51 34 34 51 34 34 51 34 34 51 34 34 51 34 34 51 34 34 51 34 34 51 34 34 51 34 34 51 34 34 51 34 34 51 34 34 51 34 34 51 34 34 51 34 34 51 34 34 51 34 34 51 34 34 51 34 34 51 34 34 51 34 34 51 34 34 51 34 34 51 34 34 51 34 34 51 34 34 51 34 34 51 34 34 51 34 34 51 34 34 51 34 34 51 34 34 51 34 34 51 34 34 51 34 34 51 34 34 51 34 34 51 34 34 51 34 34 51 34 34 51 34 34 51 34 34 51 34 34 51 34 34 51 34 34 51 34 34 51 34 34 51 34 34 51 34 34 51 34 34 51 34 34 51 34 34 51 34 34 51 34 34 51 34 34 51 34 34 51 34 34 51 34 34 51 34 34 51 34 34 51 34 34 51 34 34 51 34 34 51 34 34 51 34 34 51 34 34 51 34 34 51 34 34 51 34 34 51 34 34 51 34 34 51 34 34 51 34 34 51 34 34 51 34 34 51 34 34 51 34 34 51 34 34 51 34 34 51 34 34 51 34 34 51 34 34 51 34 34 51 34 34 51 34 34 51 34 34 51 34 34 51 34 34 51 34 34 51 34 34 51 34 34 51 34 34 51 34 34 51 34 34 51 34 34 51 34 34 51 34 34 51 34 34 51 34 34 51 34 34 51 34 34 51 34 34 51 34 34 51 34 34 51 34 34 51 34 34 51 34 34 51 34 34 51 34 34 51 34 34 51 34 34 51 34 34 51 34 34 51 34 34 51 34 34 51 34 34 51 34 34 51 34 34 51 34 34 51 34 34 51 34 34 51 34 34 51 34 34 51 34 34 51 34 34 51 34 34 51 34 34 51 34 34 51 34 34 51 34 34 51 34 34 51 34 34 51 34 34 51 34 34 51 34 34 51 34 34 51 34 34 51 34 34 51 34 34 51 34 34 51 34 34 51 34 34 51 34 34 51 34 34 51 34 34 51 34 34 51 34 34 51 34 34 51 34 34 51 34 34 51 34 34 51 34 34 51 34 34 51 34 34 51 34 34 51 34 34 51 34 34 51 34 34 51 34 34 51 34 34 51 34 34 51 34 34 51 34 34 51 34 34 51 34 34 51 34 34 51 34 34 51 34 34 51 34 34 51 34 34 51 34 34 51 34 34 51 34 34 51 34 34 51 34 34 51 34 34 51 34 34 51 34 34 51 34 34 51 34 34 51 34 34 51 34 34 51 34 34 51 34 34 51 34 34 51 34 34 51 34 34 51 34 34 51 34 34 51 34 34 51 34 34 51 34 34 51 34 34 51 34 34 51 34 34 51 34 34 51 34 34 51 34 34 51 34 34 51 34 34 51 34 34 51 34 34 51 34 34 51 34 34 51 34 34 51 34 34 51 34 34 51 34 34 51 34 34 51 34 34 51 34 34 51 34 34 51 34 34 51 34 34 51 34 34 51 34 34 51 34 34 51 34 34 51 34 34 51 34 34 51 34 34 51 34 34 51 34 34 51 34 34 51 34 34 51 34 34 51 34 34 51 34 34 51 34 34 51 34 34 51 34 34 51 34 34 51 34 34 51 34 34 51 34 34 51 34 34 51 34 34 51 34 34 51 34 34 51 34 34 51 34 34 51 34 34 51 34 34 51 34 34 51 34 34 51 34 34 51 34 34 51 34 34 51 34 34 51 34 34 51 34 34 51 34 34 51 34 34 51 34 34 51 34 34 51 34 34 51 34 34 51 34 34 51 34 34 51 34 34 51 34 34 51 34 34 51 34 34 51 34 34 51 34 34 51 34 34 51 34 34 51 34 34 51 34 34 51 34 34 51 34 34 51 34 34 51
34 34 51 34 34 51 34 34 51 34 34 51 34 34 51 34 34 51 34 34 51 34 34 51 34 34 51 34 34 51 34 34 51 34 34 51 34 34 51 34 34 51 34 34 51 34 34 51 34 34 51 34 34 51 34 34 51 34 34 51 34 34 51 34 34 51 34 34 51 34 34 51 34 34 51 34 34 51 34 34 51 34 34 51 34 34 51 34 34 51 34 34 51 34 34 51 34 34 51 34 34 51 34 34 51 34 34 51 34 34 51 34 34 51 34 34 51 34 34 51 34 34 51 34 34 51 34 34 51 34 34 51 34 34 51 34 34 51 34 34 51 34 34 51 34 34 51 34 34 51 34 34 51 34 34 51 34 34 51 34 34 51 34 34 51 34 34 51 34 34 51 34 34 51 34 34 51 34 34 51 34 34 51 34 34 51 34 34 51 34 34 51 34 34 51 34 34 51 34 34 51 34 34 51 34 34 51 34 34 51 34 34 51 34 34 51 34 34 51 34 34 51 34 34 51 34 34 51 34 34 51 34 34 51 34 34 51 34 34 51 34 34 51 34 34 51 34 34 51 34 34 51 34 34 51 34 34 51 34 34 51 34 34 51 34 34 51 34 34 51 34 34 51 34 34 51 34 34 51 34 34 51 34 34 51 34 34 51 34 34 51 34 34 51 34 34 51 34 34 51 34 34 51 34 34 51 34 34 51 34 34 51 34 34 51 34 34 51 34 34 51 34 34 51 34 34 51 34 34 51 34 34 51 34 34 51 34 34 51 34 34 51 34 34 51 34 34 51 34 34 51 34 34 51 34 34 51 34 34 51 34 34 51 34 34 51 34 34 51 34 34 51 34 34 51 34 34 51 34 34 51 34 34 51 34 34 51 34 34 51 34 34 51 34 34 51 34 34 51 34 34 51 34 34 51 34 34 51 34 34 51 34 34 51 34 34 51 34 34 51 34 34 51 34 34 51 34 34 51 34 34 51 34 34 51 34 34 51 34 34 51 34 34 51 34 34 51 34 34 51 34 34 51 34 34 51 34 34 51 34 34 51 34 34 51 34 34 51 34 34 51 34 34 51 34 34 51 34 34 51 34 34 51 34 34 51 34 34 51 34 34 51 34 34 51 34 34 51 34 34 51 34 34 51 34 34 51 34 34 51 34 34 51 34 34 51 34 34 51 34 34 51 34 34 51 34 34 51 34 34 51 34 34 51 34 34 51 34 34 51 34 34 51 34 34 51 34 34 51 34 34 51 34 34 51 34 34 51 34 34 51 34 34 51 34 34 51 34 34 51 34 34 51 34 34 51 34 34 51 34 34 51 34 34 51 34 34 51 34 34 51 34 34 51 34 34 51 34 34 51 34 34 51 34 34 51 34 34 51 34 34 51 34 34 51 34 34 51 34 34 51 34 34 51 34 34 51 34 34 51 34 34 51 34 34 51 34 34 51 34 34 51 34 34 51 34 34 51 34 34 51 34 34 51 34 34 51 34 34 51 34 34 51 34 34 51 34 34 51 34 34 51 34 34 51 34 34 51 34 34 51 34 34 51 34 34 51 34 34 51 34 34 51 34 34 51 34 34 51 34 34 51 34 34 51 34 34 51 34 34 51 34 34 51 34 34 51 34 34 51 34 34 51 34 34 51 34 34 51 34 34 51 34 34 51 34 34 51 34 34 51 34 34 51 34 34 51 34 34 51 34 34 51 34 34 51 34 34 51 34 34 51 34 34 51 34 34 51 34 34 51 34 34 51 34 34 51 34 34 51 34 34 51 34 34 51 34 34 51 34 34 51 34 34 51 34 34 51 34 34 51 34 34 51 34 34 51 34 34 51 34 34 51 34 34 51 34 34 51 34 34 51 34 34 51 34 34 51 34 34 51 34 34 51 34 34 51 34 34 51 34 34 51 34 34 51 34 34 51 34 34 51 34 34 51 34 34 51 34 34 51 34 34 51 34 34 51 34 34 51 34 34 51 34 34 51 34 34 51 34 34 51 34 34 51 34 34 51 34 34 51 34 34 51 34 34 51 34 34 51 34 34 51 34 34 51 34 34 51 34 34 51 34 34 51 34 34 51 34 34 51 34 34 51 34 34 51 34 34 51 34 34 51 34 34 51 34 34 51 34 34 51 34 34 51 34 34 51 34 34 51 34 34 51 34 34 51 34 34 51
34 34 51 34 34 51 34 34 51 34 34 51 34 34 51 34 34 51 34 34 51 34 34 51 34 34 51 34 34 51 34 34 51 34 34 51 34 34 51 34 34 51 34 34 51 34 34 51 34 34 51 34 34 51 34 34 51 34 34 51 34 34 51 34 34 51 34 34 51 34 34 51 34 34 51 34 34 51 34 34 51 34 34 51 34 34 51 34 34 51 34 34 51 34 34 51 34 34 51 34 34 51 34 34 51 34 34 51 34 34 51 34 34 51 34 34 51 34 34 51 34 34 51 34 34 51 34 34 51 34 34 51 34 34 51 34 34 51 34 34 51 34 34 51 34 34 51 34 34 51 34 34 51 34 34 51 34 34 51 34 34 51 34 34 51 34 34 51 34 34 51 34 34 51 34 34 51 34 34 51 34 34 51 34 34 51 34 34 51 34 34 51 34 34 51 34 34 51 34 34 51 34 34 51 34 34 51 34 34 51 34 34 51 34 34 51 34 34 51 34 34 51 34 34 51 34 34 51 34 34 51 34 34 51 34 34 51 34 34 51 34 34 51 34 34 51 34 34 51 34 34 51 34 34 51 34 34 51 34 34 51 34 34 51 34 34 51 34 34 51 34 34 51 34 34 51 34 34 51 34 34 51 34 34 51 34 34 51 34 34 51 34 34 51 34 34 51 34 34 51 34 34 51 34 34 51 34 34 51 34 34 51 34 34 51 34 34 51 34 34 51 34 34 51 34 34 51 34 34 51 34 34 51 34 34 51 34 34 51 34 34 51 34 34 51 34 34 51 34 34 51 34 34 51 34 34 51 34 34 51 34 34 51 34 34 51 34 34 51 34 34 51 34 34 51 34 34 51 34 34 51 34 34 51 34 34 51 34 34 51 34 34 51 34 34 51 34 34 51 34 34 51 34 34 51 34 34 51 34 34 51 34 34 51 34 34 51 34 34 51 34 34 51 34 34 51 34 34 51 34 34 51 34 34 51 34 34 51 34 34 51 34 34 51 34 34 51 34 34 51 34 34 51 34 34 51 34 34 51 34 34 51 34 34 51 34 34 51 34 34 51 34 34 51 34 34 51 34 34 51 34 34 51 34 34 51 34 34 51 34 34 51 34 34 51 34 34 51 34 34 51 34 34 51 34 34 51 34 34 51 34 34 51 34 34 51 34 34 51 34 34 51 34 34 51 34 34 51 34 34 51 34 34 51 34 34 51 34 34 51 34 34 51 34 34 51 34 34 51 34 34 51 34 34 51 34 34 51 34 34 51 34 34 51 34 34 51 34 34 51 34 34 51 34 34 51 34 34 51 34 34 51 34 34 51 34 34 51 34 34 51 34 34 51 34 34 51 34 34 51 34 34 51 34 34 51 34 34 51 34 34 51 34 34 51 34 34 51 34 34 51 34 34 51 34 34 51 34 34 51 34 34 51 34 34 51 34 34 51 34 34 51 34 34 51 34 34 51 34 34 51 34 34 51 34 34 51 34 34 51 34 34 51 34 34 51 34 34 51 34 34 51 34 34 51 34 34 51 34 34 51 34 34 51 34 34 51 34 34 51 34 34 51 34 34 51 34 34 51 34 34 51 34 34 51 34 34 51 34 34 51 34 34 51 34 34 51 34 34 51 34 34 51 34 34 51 34 34 51 34 34 51 34 34 51 34 34 51 34 34 51 34 34 51 34 34 51 34 34 51 34 34 51 34 34 51 34 34 51 34 34 51 34 34 51 34 34 51 34 34 51 34 34 51 34 34 51 34 34 51 34 34 51 34 34 51 34 34 51 34 34 51 34 34 51 34 34 51 34 34 51 34 34 51 34 34 51 34 34 51 34 34 51 34 34 51 34 34 51 34 34 51 34 34 51 34 34 51 34 34 51 34 34 51 34 34 51 34 34 51 34 34 51 34 34 51 34 34 51 34 34 51 34 34 51 34 34 51 34 34 51 34 34 51 34 34 51 34 34 51 34 34 51 34 34 51 34 34 51 34 34 51 34 34 51 34 34 51 34 34 51 34 34 51 34 34 51 34 34 51 34 34 51 34 34 51 34 34 51 34 34 51 34 34 51 34 34 51 34 34 51 34 34 51 34 34 51 34 34 51 34 34 51 34 34 51 34 34 51 34 34 51 34 34 51 34 34 51 34 34 51 34 34 51 34 34 51 34 34 51
34 34 51 34 34 51 34 34 51 34 34 51 34 34 51 34 34 51 34 34 51 34 34 51 34 34 51 34 34 51 34 34 51 34 34 51 34 34 51 34 34 51 34 34 51 34 34 51 34 34 51 34 34 51 34 34 51 34 34 51 34 34 51 34 34 51 34 34 51 34 34 51 34 34 51 34 34 51 34 34 51 34 34 51 34 34 51 34 34 51 34 34 51 34 34 51 34 34 51 34 34 51 34 34 51 34 34 51 34 34 51 34 34 51 34 34 51 34 34 51 34 34 51 34 34 51 34 34 51 34 34 51 34 34 51 34 34 51 34 34 51 34 34 51 34 34 51 34 34 51 34 34 51 34 34 51 34 34 51 34 34 51 34 34 51 34 34 51 34 34 51 34 34 51 34 34 51 34 34 51 34 34 51 34 34 51 34 34 51 34 34 51 34 34 51 34 34 51 34 34 51 34 34 51 34 34 51 34 34 51 34 34 51 34 34 51 34 34 51 34 34 51 34 34 51 34 34 51 34 34 51 34 34 51 34 34 51 34 34 51 34 34 51 34 34 51 34 34 51 34 34 51 34 34 51 34 34 51 34 34 51 34 34 51 34 34 51 34 34 51 34 34 51 34 34 51 34 34 51 34 34 51 34 34 51 34 34 51 34 34 51 34 34 51 34 34 51 34 34 51 221 238 255 221 238 255 34 34 51 34 34 51 34 34 51 34 34 51 34 34 51 34 34 51 221 238 255 221 238 255 34 34 51 34 34 51 34 34 51 34 34 51 221 238 255 221 238 255 221 238 255 221 238 255 221 238 255 221 238 255 34 34 51 34 34 51 34 34 51 34 34 51 221 238 255 221 238 255 221 238 255 221 238 255 221 238 255 221 238 255 221 238 255 221 238 255 221 238 255 221 238 255 34 34 51 34 34 51 221 238 255 221 238 255 221 238 255 221 238 255 221 238 255 221 238 255 221 238 255 221 238 255 34 34 51 34 34 51 34 34 51 34 34 51 34 34 51 34 34 51 170 187 204 170 187 204 170 187 204 170 187 204 170 187 204 170 187 204 170 187 204 170 187 204 34 34 51 34 34 51 170 187 204 170 187 204 170 187 204 170 187 204 170 187 204 170 187 204 170 187 204 170 187 204 170 187 204 170 187 204 34 34 51 34 34 51 170 187 204 170 187 204 170 187 204 170 187 204 170 187 204 170 187 204 170 187 204 170 187 204 34 34 51 34 34 51 34 34 51 34 34 51 221 238 255 221 238 255 221 238 255 221 238 255 221 238 255 221 238 255 221 238 255 221 238 255 221 238 255 221 238 255 34 34 51 34 34 51 170 187 204 170 187 204 34 34 51 34 34 51 34 34 51 34 34 51 34 34 51 34 34 51 170 187 204 170 187 204 34 34 51 34 34 51 170 187 204 170 187 204 170 187 204 170 187 204 170 187 204 170 187 204 170 187 204 170 187 204 170 187 204 170 187 204 34 34 51 34 34 51 34 34 51 34 34 51 34 34 51 34 34 51 34 34 51 34 34 51 34 34 51 34 34 51 34 34 51 34 34 51 34 34 51 34 34 51 34 34 51 34 34 51 34 34 51 34 34 51 34 34 51 34 34 51 34 34 51 34 34 51 34 34 51 34 34 51 34 34 51 34 34 51 34 34 51 34 34 51 34 34 51 34 34 51 34 34 51 34 34 51 34 34 51 34 34 51 34 34 51 34 34 51 34 34 51 34 34 51 34 34 51 34 34 51 34 34 51 34 34 51 34 34 51 34 34 51 34 34 51 34 34 51 34 34 51 34 34 51 34 34 51 34 34 51 34 34 51 34 34 51 34 34 51 34 34 51 34 34 51 34 34 51 34 34 51 34 34 51 34 34 51 34 34 51 34 34 51 34 34 51 34 34 51 34 34 51 34 34 51 34 34 51 34 34 51 34 34 51 34 34 51 34 34 51 34 34 51 34 34 51 34 34 51 34 34 51 34 34 51 34 34 51 34 34 51 34 34 51 34 34 51 34 34 51 34 34 51 34 34 51 34 34 51 34 34 51 34 34 51 34 34 51 34 34 51 34 34 51 34 34 51 34 34 51 34 34 51 34 34 51 34 34 51 34 34 51 34 34 51 34 34 51 34 34 51 34 34 51 34 34 51 34 34 51 34 34 51 34 34 51
34 34 51 34 34 51 34 34 51 34 34 51 34 34 51 34 34 51 34 34 51 34 34 51 34 34 51 34 34 51 34 34 51 34 34 51 34 34 51 34 34 51 34 34 51 34 34 51 34 34 51 34 34 51 34 34 51 34 34 51 34 34 51 34 34 51 34 34 51 34 34 51 34 34 51 34 34 51 34 34 51 34 34 51 34 34 51 34 34 51 34 34 51 34 34 51 34 34 51 34 34 51 34 34 51 34 34 51 34 34 51 34 34 51 34 34 51 34 34 51 34 34 51 34 34 51 34 34 51 34 34 51 34 34 51 34 34 51 34 34 51 34 34 51 34 34 51 34 34 51 34 34 51 34 34 51 34 34 51 34 34 51 34 34 51 34 34 51 34 34 51 34 34 51 34 34 51 34 34 51 34 34 51 34 34 51 34 34 51 34 34 51 34 34 51 34 34 51 34 34 51 34 34 51 34 34 51 34 34 51 34 34 51 34 34 51 34 34 51 34 34 51 34 34 51 34 34 51 34 34 51 34 34 51 34 34 51 34 34 51 34 34 51 34 34 51 34 34 51 34 34 51 34 34 51 34 34 51 34 34 51 34 34 51 34 34 51 34 34 51 34 34 51 34 34 51 34 34 51 34 34 51 34 34 51 34 34 51 34 34 51 34 34 51 34 34 51 34 34 51 221 238 255 221 238 255 34 34 51 34 34 51 34 34 51 34 34 51 34 34 51 34 34 51 221 238 255 221 238 255 34 34 51 34 34 51 34 34 51 34 34 51 221 238 255 221 238 255 221 238 255 221 238 255 221 238 255 221 238 255 34 34 51 34 34 51 34 34 51 34 34 51 221 238 255 221 238 255 221 238 255 221 238 255 221 238 255 221 238 255 221 238 255 221 238 255 221 238 255 221 238 255 34 34 51 34 34 51 221 238 255 221 238 255 221 238 255 221 238 255 221 238 255 221 238 255 221 238 255 221 238 255 34 34 51 34 34 51 34 34 51 34 34 51 34 34 51 34 34 51 170 187 204 170 187 204 170 187 204 170 187 204 170 187 204 170 187 204 170 187 204 170 187 204 34 34 51 34 34 51 170 187 204 170 187 204 170 187 204 170 187 204 170 187 204 170 187 204 170 187 204 170 187 204 170 187 204 170 187 204 34 34 51 34 34 51 170 187 204 170 187 204 170 187 204 170 187 204 170 187 204 170 187 204 170 187 204 170 187 204 34 34 51 34 34 51 34 34 51 34 34 51 221 238 255 221 238 255 221 238 255 221 238 255 221 238 255 221 238 255 221 238 255 221 238 255 221 238 255 221 238 255 34 34 51 34 34 51 170 187 204 170 187 204 34 34 51 34 34 51 34 34 51 34 34 51 34 34 51 34 34 51 170 187 204 170 187 204 34 34 51 34 34 51 170 187 204 170 187 204 170 187 204 170 187 204 170 187 204 170 187 204 170 187 204 170 187 204 170 187 204 170 187 204 34 34 51 34 34 51 34 34 51 34 34 51 34 34 51 34 34 51 34 34 51 34 34 51 34 34 51 34 34 51 34 34 51 34 34 51 34 34 51 34 34 51 34 34 51 34 34 51 34 34 51 34 34 51 34 34 51 34 34 51 34 34 51 34 34 51 34 34 51 34 34 51 34 34 51 34 34 51 34 34 51 34 34 51 34 34 51 34 34 51 34 34 51 34 34 51 34 34 51 34 34 51 34 34 51 34 34 51 34 34 51 34 34 51 34 34 51 34 34 51 34 34 51 34 34 51 34 34 51 34 34 51 34 34 51 34 34 51 34 34 51 34 34 51 34 34 51 34 34 51 34 34 51 34 34 51 34 34 51 34 34 51 34 34 51 34 34 51 34 34 51 34 34 51 34 34 51 34 34 51 34 34 51 34 34 51 34 34 51 34 34 51 34 34 51 34 34 51 34 34 51 34 34 51 34 34 51 34 34 51 34 34 51 34 34 51 34 34 51 34 34 51 34 34 51 34 34 51 34 34 51 34 34 51 34 34 51 34 34 51 34 34 51 34 34 51 34 34 51 34 34 51 34 34 51 34 34 51 34 34 51 34 34 51 34 34 51 34 34 51 34 34 51 34 34 51 34 34 51 34 34 51 34 34 51 34 34 51 34 34 51 34 34 51 34 34 51 34 34 51 34 34 51 34 34 51
34 34 51 34 34 51 34 34 51 34 34 51 34 34 51 34 34 51 34 34 51 34 34 51 170 187 204 170 187 204 170 187 204 170 187 204 170 187 204 170 187 204 170 187 204 170 187 204 170 187 204 170 187 204 170 187 204 170 187 204 170 187 204 170 187 204 170 187 204 170 187 204 170 187 204 170 187 204 170 187 204 170 187 204 170 187 204 170 187 204 170 187 204 170 187 204 170 187 204 170 187 204 170 187 204 170 187 204 170 187 204 170 187 204 170 187 204 170 187 204 170 187 204 170 187 204 170 187 204 170 187 204 170 187 204 170 187 204 170 187 204 170 187 204 170 187 204 170 187 204 170 187 204 170 187 204 170 187 204 170 187 204 170 187 204 170 187 204 170 187 204 170 187 204 170 187 204 170 187 204 170 187 204 170 187 204 34 34 51 34 34 51 34 34 51 34 34 51 34 34 51 34 34 51 34 34 51 34 34 51 34 34 51 34 34 51 34 34 51 34 34 51 34 34 51 34 34 51 34 34 51 34 34 51 34 34 51 34 34 51 34 34 51 34 34 51 34 34 51 34 34 51 34 34 51 34 34 51 34 34 51 34 34 51 34 34 51 34 34 51 34 34 51 34 34 51 34 34 51 34 34 51 34 34 51 34 34 51 34 34 51 34 34 51 34 34 51 34 34 51 221 238 255 221 238 255 34 34 51 34 34 51 34 34 51 34 34 51 34 34 51 34 34 51 221 238 255 221 238 255 34 34 51 34 34 51 221 238 255 221 238 255 34 34 51 34 34 51 34 34 51 34 34 51 34 34 51 34 34 51 221 238 255 221 238 255 34 34 51 34 34 51 34 34 51 34 34 51 34 34 51 34 34 51 221 238 255 221 238 255 34 34 51 34 34 51 34 34 51 34 34 51 34 34 51 34 34 51 221 238 255 221 238 255 34 34 51 34 34 51 34 34 51 34 34 51 34 34 51 34 34 51 221 238 255 221 238 255 34 34 51 34 34 51 170 187 204 170 187 204 34 34 51 34 34 51 34 34 51 34 34 51 34 34 51 34 34 51 34 34 51 34 34 51 34 34 51 34 34 51 34 34 51 34 34 51 34 34 51 34 34 51 170 187 204 170 187 204 34 34 51 34 34 51 34 34 51 34 34 51 34 34 51 34 34 51 170 187 204 170 187 204 34 34 51 34 34 51 34 34 51 34 34 51 34 34 51 34 34 51 170 187 204 170 187 204 34 34 51 34 34 51 34 34 51 34 34 51 34 34 51 34 34 51 221 238 255 221 238 255 34 34 51 34 34 51 34 34 51 34 34 51 34 34 51 34 34 51 170 187 204 170 187 204 34 34 51 34 34 51 34 34 51 34 34 51 170 187 204 170 187 204 34 34 51 34 34 51 34 34 51 34 34 51 170 187 204 170 187 204 34 34 51 34 34 51 34 34 51 34 34 51 34 34 51 34 34 51 34 34 51 34 34 51 34 34 51 34 34 51 34 34 51 34 34 51 34 34 51 34 34 51 34 34 51 34 34 51 34 34 51 34 34 51 34 34 51 34 34 51 34 34 51 34 34 51 34 34 51 34 34 51 34 34 51 34 34 51 34 34 51 34 34 51 34 34 51 34 34 51 34 34 51 34 34 51 34 34 51 34 34 51 34 34 51 34 34 51 34 34 51 34 34 51 34 34 51 34 34 51 34 34 51 34 34 51 34 34 51 34 34 51 34 34 51 34 34 51 34 34 51 34 34 51 34 34 51 34 34 51 34 34 51 34 34 51 34 34 51 34 34 51 34 34 51 34 34 51 170 187 204 170 187 204 170 187 204 170 187 204 170 187 204 170 187 204 170 187 204 170 187 204 170 187 204 170 187 204 170 187 204 170 187 204 170 187 204 170 187 204 170 187 204 170 187 204 170 187 204 170 187 204 170 187 204 170 187 204 170 187 204 170 187 204 170 187 204 170 187 204 170 187 204 170 187 204 170 187 204 170 187 204 170 187 204 170 187 204 170 187 204 170 187 204 170 187 204 170 187 204 170 187 204 170 187 204 170 187 204 170 187 204 34 34 51 34 34 51 34 34 51 34 34 51 34 34 51 34 34 51 34 34 51 34 34 51 34 34 51 34 34 51 34 34 51 34 34 51 34 34 51 34 34 51 34 34 51 34 34 51
34 34 51 34 34 51 34 34 51 34 34 51 34 34 51 34 34 51 34 34 51 34 34 51 170 187 204 170 187 204 170 187 204 170 187 204 170 187 204 170 187 204 170 187 204 170 187 204 170 187 204 170 187 204 170 187 204 170 187 204 170 187 204 170 187 204 170 187 204 170 187 204 170 187 204 170 187 204 170 187 204 170 187 204 170 187 204 170 187 204 170 187 204 170 187 204 170 187 204 170 187 204 170 187 204 170 187 204 170 187 204 170 187 204 170 187 204 170 187 204 170 187 204 170 187 204 170 187 204 170 187 204 170 187 204 170 187 204 170 187 204 170 187 204 170 187 204 170 187 204 170 187 204 170 187 204 170 187 204 170 187 204 170 187 204 170 187 204 170 187 204 170 187 204 170 187 204 170 187 204 170 187 204 170 187 204 34 34 51 34 34 51 34 34 51 34 34 51 34 34 51 34 34 51 34 34 51 34 34 51 34 34 51 34 34 51 34 34 51 34 34 51 34 34 51 34 34 51 34 34 51 34 34 51 34 34 51 34 34 51 34 34 51 34 34 51 34 34 51 34 34 51 34 34 51 34 34 51 34 34 51 34 34 51 34 34 51 34 34 51 34 34 51 34 34 51 34 34 51 34 34 51 34 34 51 34 34 51 34 34 51 34 34 51 34 34 51 34 34 51 221 238 255 221 238 255 34 34 51 34 34 51 34 34 51 34 34 51 34 34 51 34 34 51 221 238 255 221 238 255 34 34 51 34 34 51 221 238 255 221 238 255 34 34 51 34 34 51 34 34 51 34 34 51 34 34 51 34 34 51 221 238 255 221 238 255 34 34 51 34 34 51 34 34 51 34 34 51 34 34 51 34 34 51 221 238 255 221 238 255 34 34 51 34 34 51 34 34 51 34 34 51 34 34 51 34 34 51 221 238 255 221 238 255 34 34 51 34 34 51 34 34 51 34 34 51 34 34 51 34 34 51 221 238 255 221 238 255 34 34 51 34 34 51 170 187 204 170 187 204 34 34 51 34 34 51 34 34 51 34 34 51 34 34 51 34 34 51 34 34 51 34 34 51 34 34 51 34 34 51 34 34 51 34 34 51 34 34 51 34 34 51 170 187 204 170 187 204 34 34 51 34 34 51 34 34 51 34 34 51 34 34 51 34 34 51 170 187 204 170 187 204 34 34 51 34 34 51 34 34 51 34 34 51 34 34 51 34 34 51 170 187 204 170 187 204 34 34 51 34 34 51 34 34 51 34 34 51 34 34 51 34 34 51 221 238 255 221 238 255 34 34 51 34 34 51 34 34 51 34 34 51 34 34 51 34 34 51 170 187 204 170 187 204 34 34 51 34 34 51 34 34 51 34 34 51 170 187 204 170 187 204 34 34 51 34 34 51 34 34 51 34 34 51 170 187 204 170 187 204 34 34 51 34 34 51 34 34 51 34 34 51 34 34 51 34 34 51 34 34 51 34 34 51 34 34 51 34 34 51 34 34 51 34 34 51 34 34 51 34 34 51 34 34 51 34 34 51 34 34 51 34 34 51 34 34 51 34 34 51 34 34 51 34 34 51 34 34 51 34 34 51 34 34 51 34 34 51 34 34 51 34 34 51 34 34 51 34 34 51 34 34 51 34 34 51 34 34 51 34 34 51 34 34 51 34 34 51 34 34 51 34 34 51 34 34 51 34 34 51 34 34 51 34 34 51 34 34 51 34 34 51 34 34 51 34 34 51 34 34 51 34 34 51 34 34 51 34 34 51 34 34 51 34 34 51 34 34 51 34 34 51 34 34 51 34 34 51 170 187 204 170 187 204 170 187 204 170 187 204 170 187 204 170 187 204 170 187 204 170 187 204 170 187 204 170 187 204 170 187 204 170 187 204 170 187 204 170 187 204 170 187 204 170 187 204 170 187 204 170 187 204 170 187 204 170 187 204 170 187 204 170 187 204 170 187 204 170 187 204 170 187 204 170 187 204 170 187 204 170 187 204 170 187 204 170 187 204 170 187 204 170 187 204 170 187 204 170 187 204 170 187 204 170 187 204 170 187 204 170 187 204 34 34 51 34 34 51 34 34 51 34 34 51 34 34 51 34 34 51 34 34 51 34 34 51 34 34 51 34 34 51 34 34 51 34 34 51 34 34 51 34 34 51 34 34 51 34 34 51
34 34 51 34 34 51 34 34 51 34 34 51 34 34 51 34 34 51 34 34 51 34 34 51 170 187 204 170 187 204 170 187 204 170 187 204 170 187 204 170 187 204 170 187 204 170 187 204 170 187 204 170 187 204 170 187 204 170 187 204 170 187 204 170 187 204 170 187 204 170 187 204 170 187 204 170 187 204 170 187 204 170 187 204 170 187 204 170 187 204 170 187 204 170 187 204 170 187 204 170 187 204 170 187 204 170 187 204 170 187 204 170 187 204 170 187 204 170 187 204 170 187 204 170 187 204 170 187 204 170 187 204 170 187 204 170 187 204 170 187 204 170 187 204 170 187 204 170 187 204 170 187 204 170 187 204 170 187 204 170 187 204 170 187 204 170 187 204 170 187 204 170 187 204 170 187 204 170 187 204 170 187 204 170 187 204 34 34 51 34 34 51 34 34 51 34 34 51 34 34 51 34 34 51 34 34 51 34 34 51 34 34 51 34 34 51 34 34 51 34 34 51 34 34 51 34 34 51 34 34 51 34 34 51 34 34 51 34 34 51 34 34 51 34 34 51 34 34 51 34 34 51 34 34 51 34 34 51 34 34 51 34 34 51 34 34 51 34 34 51 34 34 51 34 34 51 34 34 51 34 34 51 34 34 51 34 34 51 34 34 51 34 34 51 34 34 51 34 34 51 34 34 51 34 34 51 221 238 255 221 238 255 34 34 51 34 34 51 221 238 255 221 238 255 34 34 51 34 34 51 34 34 51 34 34 51 221 238 255 221 238 255 34 34 51 34 34 51 34 34 51 34 34 51 34 34 51 34 34 51 221 238 255 221 238 255 34 34 51 34 34 51 34 34 51 34 34 51 34 34 51 34 34 51 221 238 255 221 238 255 34 34 51 34 34 51 34 34 51 34 34 51 34 34 51 34 34 51 221 238 255 221 238 255 34 34 51 34 34 51 34 34 51 34 34 51 34 34 51 34 34 51 221 238 255 221 238 255 34 34 51 34 34 51 34 34 51 34 34 51 170 187 204 170 187 204 170 187 204 170 187 204 170 187 204 170 187 204 34 34 51 34 34 51 34 34 51 34 34 51 34 34 51 34 34 51 34 34 51 34 34 51 170 187 204 170 187 204 34 34 51 34 34 51 34 34 51 34 34 51 34 34 51 34 34 51 170 187 204 170 187 204 170 187 204 170 187 204 170 187 204 170 187 204 170 187 204 170 187 204 34 34 51 34 34 51 34 34 51 34 34 51 34 34 51 34 34 51 34 34 51 34 34 51 221 238 255 221 238 255 34 34 51 34 34 51 34 34 51 34 34 51 34 34 51 34 34 51 170 187 204 170 187 204 170 187 204 170 187 204 170 187 204 170 187 204 34 34 51 34 34 51 34 34 51 34 34 51 34 34 51 34 34 51 170 187 204 170 187 204 170 187 204 170 187 204 170 187 204 170 187 204 170 187 204 170 187 204 34 34 51 34 34 51 34 34 51 34 34 51 34 34 51 34 34 51 34 34 51 34 34 51 34 34 51 34 34 51 34 34 51 34 34 51 34 34 51 34 34 51 34 34 51 34 34 51 34 34 51 34 34 51 34 34 51 34 34 51 34 34 51 34 34 51 34 34 51 34 34 51 34 34 51 34 34 51 34 34 51 34 34 51 34 34 51 34 34 51 34 34 51 34 34 51 34 34 51 34 34 51 34 34 51 34 34 51 34 34 51 34 34 51 34 34 51 34 34 51 34 34 51 34 34 51 34 34 51 34 34 51 34 34 51 34 34 51 34 34 51 34 34 51 34 34 51 34 34 51 170 187 204 170 187 204 170 187 204 170 187 204 170 187 204 170 187 204 170 187 204 170 187 204 170 187 204 170 187 204 170 187 204 170 187 204 170 187 204 170 187 204 170 187 204 170 187 204 170 187 204 170 187 204 170 187 204 170 187 204 170 187 204 170 187 204 170 187 204 170 187 204 170 187 204 170 187 204 170 187 204 170 187 204 170 187 204 170 187 204 170 187 204 170 187 204 170 187 204 170 187 204 170 187 204 170 187 204 170 187 204 170 187 204 34 34 51 34 34 51 34 34 51 34 34 51 34 34 51 34 34 51 34 34 51 34 34 51 34 34 51 34 34 51 34 34 51 34 34 51 34 34 51 34 34 51 34 34 51 34 34 51
34 34 51 34 34 51 34 34 51 34 34 51 34 34 51 34 34 51 34 34 51 34 34 51 170 187 204 170 187 204 170 187 204 170 187 204 170 187 204 170 187 204 170 187 204 170 187 204 170 187 204 170 187 204 170 187 204 170 187 204 170 187 204 170 187 204 170 187 204 170 187 204 170 187 204 170 187 204 170 187 204 170 187 204 170 187 204 170 187 204 170 187 204 170 187 204 170 187 204 170 187 204 170 187 204 170 187 204 170 187 204 170 187 204 170 187 204 170 187 204 170 187 204 170 187 204 170 187 204 170 187 204 170 187 204 170 187 204 170 187 204 170 187 204 170 187 204 170 187 204 170 187 204 170 187 204 170 187 204 170 187 204 170 187 204 170 187 204 170 187 204 170 187 204 170 187 204 170 187 204 170 187 204 170 187 204 34 34 51 34 34 51 34 34 51 34 34 51 34 34 51 34 34 51 34 34 51 34 34 51 34 34 51 34 34 51 34 34 51 34 34 51 34 34 51 34 34 51 34 34 51 34 34 51 34 34 51 34 34 51 34 34 51 34 34 51 34 34 51 34 34 51 34 34 51 34 34 51 34 34 51 34 34 51 34 34 51 34 34 51 34 34 51 34 34 51 34 34 51 34 34 51 34 34 51 34 34 51 34 34 51 34 34 51 34 34 51 34 34 51 34 34 51 34 34 51 221 238 255 221 238 255 34 34 51 34 34 51 221 238 255 221 238 255 34 34 51 34 34 51 34 34 51 34 34 51 221 238 255 221 238 255 34 34 51 34 34 51 34 34 51 34 34 51 34 34 51 34 34 51 221 238 255 221 238 255 34 34 51 34 34 51 34 34 51 34 34 51 34 34 51 34 34 51 221 238 255 221 238 255 34 34 51 34 34 51 34 34 51 34 34 51 34 34 51 34 34 51 221 238 255 221 238 255 34 34 51 34 34 51 34 34 51 34 34 51 34 34 51 34 34 51 221 238 255 221 238 255 34 34 51 34 34 51 34 34 51 34 34 51 170 187 204 170 187 204 170 187 204 170 187 204 170 187 204 170 187 204 34 34 51 34 34 51 34 34 51 34 34 51 34 34 51 34 34 51 34 34 51 34 34 51 170 187 204 170 187 204 34 34 51 34 34 51 34 34 51 34 34 51 34 34 51 34 34 51 170 187 204 170 187 204 170 187 204 170 187 204 170 187 204 170 187 204 170 187 204 170 187 204 34 34 51 34 34 51 34 34 51 34 34 51 34 34 51 34 34 51 34 34 51 34 34 51 221 238 255 221 238 255 34 34 51 34 34 51 34 34 51 34 34 51 34 34 51 34 34 51 170 187 204 170 187 204 170 187 204 170 187 204 170 187 204 170 187 204 34 34 51 34 34 51 34 34 51 34 34 51 34 34 51 34 34 51 170 187 204 170 187 204 170 187 204 170 187 204 170 187 204 170 187 204 170 187 204 170 187 204 34 34 51 34 34 51 34 34 51 34 34 51 34 34 51 34 34 51 34 34 51 34 34 51 34 34 51 34 34 51 34 34 51 34 34 51 34 34 51 34 34 51 34 34 51 34 34 51 34 34 51 34 34 51 34 34 51 34 34 51 34 34 51 34 34 51 34 34 51 34 34 51 34 34 51 34 34 51 34 34 51 34 34 51 34 34 51 34 34 51 34 34 51 34 34 51 34 34 51 34 34 51 34 34 51 34 34 51 34 34 51 34 34 51 34 34 51 34 34 51 34 34 51 34 34 51 34 34 51 34 34 51 34 34 51 34 34 51 34 34 51 34 34 51 34 34 51 34 34 51 170 187 204 170 187 204 170 187 204 170 187 204 170 187 204 170 187 204 170 187 204 170 187 204 170 187 204 170 187 204 170 187 204 170 187 204 170 187 204 170 187 204 170 187 204 170 187 204 170 187 204 170 187 204 170 187 204 170 187 204 170 187 204 170 187 204 170 187 204 170 187 204 170 187 204 170 187 204 170 187 204 170 187 204 170 187 204 170 187 204 170 187 204 170 187 204 170 187 204 170 187 204 170 187 204 170 187 204 170 187 204 170 187 204 34 34 51 34 34 51 34 34 51 34 34 51 34 34 51 34 34 51 34 34 51 34 34 51 34 34 51 34 34 51 34 34 51 34 34 51 34 34 51 34 34 51 34 34 51 34 34 51
34 34 51 34 34 51 34 34 51 34 34 51 34 34 51 34 34 51 34 34 51 34 34 51 34 34 51 34 34 51 34 34 51 34 34 51 34 34 51 34 34 51 34 34 51 34 34 51 34 34 51 34 34 51 34 34 51 34 34 51 34 34 51 34 34 51 34 34 51 34 34 51 34 34 51 34 34 51 34 34 51 34 34 51 34 34 51 34 34 51 34 34 51 34 34 51 34 34 51 34 34 51 34 34 51 34 34 51 34 34 51 34 34 51 34 34 51 34 34 51 34 34 51 34 34 51 34 34 51 34 34 51 34 34 51 34 34 51 34 34 51 34 34 51 34 34 51 34 34 51 34 34 51 34 34 51 34 34 51 34 34 51 34 34 51 34 34 51 34 34 51 34 34 51 34 34 51 34 34 51 34 34 51 34 34 51 34 34 51 34 34 51 34 34 51 34 34 51 34 34 51 34 34 51 34 34 51 34 34 51 34 34 51 34 34 51 34 34 51 34 34 51 34 34 51 34 34 51 34 34 51 34 34 51 34 34 51 34 34 51 34 34 51 34 34 51 34 34 51 34 34 51 34 34 51 34 34 51 34 34 51 34 34 51 34 34 51 34 34 51 34 34 51 34 34 51 34 34 51 34 34 51 34 34 51 34 34 51 34 34 51 34 34 51 34 34 51 34 34 51 34 34 51 34 34 51 221 238 255 221 238 255 34 34 51 34 34 51 221 238 255 221 238 255 34 34 51 34 34 51 34 34 51 34 34 51 221 238 255 221 238 255 34 34 51 34 34 51 34 34 51 34 34 51 34 34 51 34 34 51 221 238 255 221 238 255 34 34 51 34 34 51 34 34 51 34 34 51 34 34 51 34 34 51 221 238 255 221 238 255 34 34 51 34 34 51 34 34 51 34 34 51 34 34 51 34 34 51 221 238 255 221 238 255 34 34 51 34 34 51 34 34 51 34 34 51 34 34 51 34 34 51 221 238 255 221 238 255 34 34 51 34 34 51 34 34 51 34 34 51 34 34 51 34 34 51 34 34 51 34 34 51 34 34 51 34 34 51 170 187 204 170 187 204 34 34 51 34 34 51 34 34 51 34 34 51 34 34 51 34 34 51 170 187 204 170 187 204 34 34 51 34 34 51 34 34 51 34 34 51 34 34 51 34 34 51 170 187 204 170 187 204 34 34 51 34 34 51 170 187 204 170 187 204 34 34 51 34 34 51 34 34 51 34 34 51 34 34 51 34 34 51 34 34 51 34 34 51 34 34 51 34 34 51 221 238 255 221 238 255 34 34 51 34 34 51 34 34 51 34 34 51 34 34 51 34 34 51 170 187 204 170 187 204 34 34 51 34 34 51 34 34 51 34 34 51 170 187 204 170 187 204 34 34 51 34 34 51 34 34 51 34 34 51 170 187 204 170 187 204 34 34 51 34 34 51 34 34 51 34 34 51 34 34 51 34 34 51 34 34 51 34 34 51 34 34 51 34 34 51 34 34 51 34 34 51 34 34 51 34 34 51 34 34 51 34 34 51 34 34 51 34 34 51 34 34 51 34 34 51 34 34 51 34 34 51 34 34 51 34 34 51 34 34 51 34 34 51 34 34 51 34 34 51 34 34 51 34 34 51 34 34 51 34 34 51 34 34 51 34 34 51 34 34 51 34 34 51 34 34 51 34 34 51 34 34 51 34 34 51 34 34 51 34 34 51 34 34 51 34 34 51 34 34 51 34 34 51 34 34 51 34 34 51 34 34 51 34 34 51 34 34 51 34 34 51 34 34 51 34 34 51 34 34 51 34 34 51 34 34 51 34 34 51 34 34 51 34 34 51 34 34 51 34 34 51 34 34 51 34 34 51 34 34 51 34 34 51 34 34 51 34 34 51 34 34 51 34 34 51 34 34 51 34 34 51 34 34 51 34 34 51 34 34 51 34 34 51 34 34 51 34 34 51 34 34 51 34 34 51 34 34 51 34 34 51 34 34 51 34 34 51 34 34 51 34 34 51 34 34 51 34 34 51 34 34 51 34 34 51 34 34 51 34 34 51 34 34 51 34 34 51 34 34 51 34 34 51 34 34 51 34 34 51 34 34 51 34 34 51 34 34 51 34 34 51 34 34 51 34 34 51 34 34 51 34 34 51 34 34 51 34 34 51 34 34 51 34 34 51
34 34 51 34 34 51 34 34 51 34 34 51 34 34 51 34 34 51 34 34 51 34 34 51 34 34 51 34 34 51 34 34 51 34 34 51 34 34 51 34 34 51 34 34 51 34 34 51 34 34 51 34 34 51 34 34 51 34 34 51 34 34 51 34 34 51 34 34 51 34 34 51 34 34 51 34 34 51 34 34 51 34 34 51 34 34 51 34 34 51 34 34 51 34 34 51 34 34 51 34 34 51 34 34 51 34 34 51 34 34 51 34 34 51 34 34 51 34 34 51 34 34 51 34 34 51 34 34 51 34 34 51 34 34 51 34 34 51 34 34 51 34 34 51 34 34 51 34 34 51 34 34 51 34 34 51 34 34 51 34 34 51 34 34 51 34 34 51 34 34 51 34 34 51 34 34 51 34 34 51 34 34 51 34 34 51 34 34 51 34 34 51 34 34 51 34 34 51 34 34 51 34 34 51 34 34 51 34 34 51 34 34 51 34 34 51 34 34 51 34 34 51 34 34 51 34 34 51 34 34 51 34 34 51 34 34 51 34 34 51 34 34 51 34 34 51 34 34 51 34 34 51 34 34 51 34 34 51 34 34 51 34 34 51 34 34 51 34 34 51 34 34 51 34 34 51 34 34 51 34 34 51 34 34 51 34 34 51 34 34 51 34 34 51 34 34 51 34 34 51 34 34 51 34 34 51 221 238 255 221 238 255 34 34 51 34 34 51 221 238 255 221 238 255 34 34 51 34 34 51 34 34 51 34 34 51 221 238 255 221 238 255 34 34 51 34 34 51 34 34 51 34 34 51 34 34 51 34 34 51 221 238 255 221 238 255 34 34 51 34 34 51 34 34 51 34 34 51 34 34 51 34 34 51 221 238 255 221 238 255 34 34 51 34 34 51 34 34 51 34 34 51 34 34 51 34 34 51 221 238 255 221 238 255 34 34 51 34 34 51 34 34 51 34 34 51 34 34 51 34 34 51 221 238 255 221 238 255 34 34 51 34 34 51 34 34 51 34 34 51 34 34 51 34 34 51 34 34 51 34 34 51 34 34 51 34 34 51 170 187 204 170 187 204 34 34 51 34 34 51 34 34 51 34 34 51 34 34 51 34 34 51 170 187 204 170 187 204 34 34 51 34 34 51 34 34 51 34 34 51 34 34 51 34 34 51 170 187 204 170 187 204 34 34 51 34 34 51 170 187 204 170 187 204 34 34 51 34 34 51 34 34 51 34 34 51 34 34 51 34 34 51 34 34 51 34 34 51 34 34 51 34 34 51 221 238 255 221 238 255 34 34 51 34 34 51 34 34 51 34 34 51 34 34 51 34 34 51 170 187 204 170 187 204 34 34 51 34 34 51 34 34 51 34 34 51 170 187 204 170 187 204 34 34 51 34 34 51 34 34 51 34 34 51 170 187 204 170 187 204 34 34 51 34 34 51 34 34 51 34 34 51 34 34 51 34 34 51 34 34 51 34 34 51 34 34 51 34 34 51 34 34 51 34 34 51 34 34 51 34 34 51 34 34 51 34 34 51 34 34 51 34 34 51 34 34 51 34 34 51 34 34 51 34 34 51 34 34 51 34 34 51 34 34 51 34 34 51 34 34 51 34 34 51 34 34 51 34 34 51 34 34 51 34 34 51 34 34 51 34 34 51 34 34 51 34 34 51 34 34 51 34 34 51 34 34 51 34 34 51 34 34 51 34 34 51 34 34 51 34 34 51 34 34 51 34 34 51 34 34 51 34 34 51 34 34 51 34 34 51 34 34 51 34 34 51 34 34 51 34 34 51 34 34 51 34 34 51 34 34 51 34 34 51 34 34 51 34 34 51 34 34 51 34 34 51 34 34 51 34 34 51 34 34 51 34 34 51 34 34 51 34 34 51 34 34 51 34 34 51 34 34 51 34 34 51 34 34 51 34 34 51 34 34 51 34 34 51 34 34 51 34 34 51 34 34 51 34 34 51 34 34 51 34 34 51 34 34 51 34 34 51 34 34 51 34 34 51 34 34 51 34 34 51 34 34 51 34 34 51 34 34 51 34 34 51 34 34 51 34 34 51 34 34 51 34 34 51 34 34 51 34 34 51 34 34 51 34 34 51 34 34 51 34 34 51 34 34 51 34 34 51 34 34 51 34 34 51 34 34 51 34 34 51 34 34 51 34 34 51
34 34 51 34 34 51 34 34 51 34 34 51 34 34 51 34 34 51 34 34 51 34 34 51 34 34 51 34 34 51 34 34 51 34 34 51 34 34 51 34 34 51 34 34 51 34 34 51 34 34 51 34 34 51 34 34 51 34 34 51 34 34 51 34 34 51 34 34 51 34 34 51 34 34 51 34 34 51 34 34 51 34 34 51 34 34 51 34 34 51 34 34 51 34 34 51 34 34 51 34 34 51 34 34 51 34 34 51 34 34 51 34 34 51 34 34 51 34 34 51 34 34 51 34 34 51 34 34 51 34 34 51 34 34 51 34 34 51 34 34 51 34 34 51 34 34 51 34 34 51 34 34 51 34 34 51 34 34 51 34 34 51 34 34 51 34 34 51 34 34 51 34 34 51 34 34 51 34 34 51 34 34 51 34 34 51 34 34 51 34 34 51 34 34 51 34 34 51 34 34 51 34 34 51 34 34 51 34 34 51 34 34 51 34 34 51 34 34 51 34 34 51 34 34 51 34 34 51 34 34 51 34 34 51 34 34 51 34 34 51 34 34 51 34 34 51 34 34 51 34 34 51 34 34 51 34 34 51 34 34 51 34 34 51 34 34 51 34 34 51 34 34 51 34 34 51 34 34 51 34 34 51 34 34 51 34 34 51 34 34 51 34 34 51 34 34 51 34 34 51 34 34 51 34 34 51 34 34 51 34 34 51 221 238 255 221 238 255 34 34 51 34 34 51 34 34 51 34 34 51 34 34 51 34 34 51 34 34 51 34 34 51 221 238 255 221 238 255 221 238 255 221 238 255 221 238 255 221 238 255 34 34 51 34 34 51 34 34 51 34 34 51 221 238 255 221 238 255 221 238 255 221 238 255 221 238 255 221 238 255 221 238 255 221 238 255 221 238 255 221 238 255 34 34 51 34 34 51 221 238 255 221 238 255 221 238 255 221 238 255 221 238 255 221 238 255 221 238 255 221 238 255 34 34 51 34 34 51 34 34 51 34 34 51 170 187 204 170 187 204 170 187 204 170 187 204 170 187 204 170 187 204 170 187 204 170 187 204 34 34 51 34 34 51 34 34 51 34 34 51 34 34 51 34 34 51 34 34 51 34 34 51 170 187 204 170 187 204 34 34 51 34 34 51 34 34 51 34 34 51 34 34 51 34 34 51 170 187 204 170 187 204 34 34 51 34 34 51 34 34 51 34 34 51 170 187 204 170 187 204 34 34 51 34 34 51 34 34 51 34 34 51 221 238 255 221 238 255 221 238 255 221 238 255 221 238 255 221 238 255 221 238 255 221 238 255 221 238 255 221 238 255 34 34 51 34 34 51 170 187 204 170 187 204 34 34 51 34 34 51 34 34 51 34 34 51 34 34 51 34 34 51 170 187 204 170 187 204 34 34 51 34 34 51 170 187 204 170 187 204 170 187 204 170 187 204 170 187 204 170 187 204 170 187 204 170 187 204 170 187 204 170 187 204 34 34 51 34 34 51 34 34 51 34 34 51 34 34 51 34 34 51 34 34 51 34 34 51 34 34 51 34 34 51 34 34 51 34 34 51 34 34 51 34 34 51 34 34 51 34 34 51 34 34 51 34 34 51 34 34 51 34 34 51 34 34 51 34 34 51 34 34 51 34 34 51 34 34 51 34 34 51 34 34 51 34 34 51 34 34 51 34 34 51 34 34 51 34 34 51 34 34 51 34 34 51 34 34 51 34 34 51 34 34 51 34 34 51 34 34 51 34 34 51 34 34 51 34 34 51 34 34 51 34 34 51 34 34 51 34 34 51 34 34 51 34 34 51 34 34 51 34 34 51 34 34 51 34 34 51 34 34 51 34 34 51 34 34 51 34 34 51 34 34 51 34 34 51 34 34 51 34 34 51 34 34 51 34 34 51 34 34 51 34 34 51 34 34 51 34 34 51 34 34 51 34 34 51 34 34 51 34 34 51 34 34 51 34 34 51 34 34 51 34 34 51 34 34 51 34 34 51 34 34 51 34 34 51 34 34 51 34 34 51 34 34 51 34 34 51 34 34 51 34 34 51 34 34 51 34 34 51 34 34 51 34 34 51 34 34 51 34 34 51 34 34 51 34 34 51 34 34 51 34 34 51 34 34 51 34 34 51 34 34 51 34 34 51 34 34 51 34 34 51 34 34 51 34 34 51
34 34 51 34 34 51 34 34 51 34 34 51 34 34 51 34 34 51 34 34 51 34 34 51 34 34 51 34 34 51 34 34 51 34 34 51 34 34 51 34 34 51 34 34 51 34 34 51 34 34 51 34 34 51 34 34 51 34 34 51 34 34 51 34 34 51 34 34 51 34 34 51 34 34 51 34 34 51 34 34 51 34 34 51 34 34 51 34 34 51 34 34 51 34 34 51 34 34 51 34 34 51 34 34 51 34 34 51 34 34 51 34 34 51 34 34 51 34 34 51 34 34 51 34 34 51 34 34 51 34 34 51 34 34 51 34 34 51 34 34 51 34 34 51 34 34 51 34 34 51 34 34 51 34 34 51 34 34 51 34 34 51 34 34 51 34 34 51 34 34 51 34 34 51 34 34 51 34 34 51 34 34 51 34 34 51 34 34 51 34 34 51 34 34 51 34 34 51 34 34 51 34 34 51 34 34 51 34 34 51 34 34 51 34 34 51 34 34 51 34 34 51 34 34 51 34 34 51 34 34 51 34 34 51 34 34 51 34 34 51 34 34 51 34 34 51 34 34 51 34 34 51 34 34 51 34 34 51 34 34 51 34 34 51 34 34 51 34 34 51 34 34 51 34 34 51 34 34 51 34 34 51 34 34 51 34 34 51 34 34 51 34 34 51 34 34 51 34 34 51 34 34 51 34 34 51 34 34 51 34 34 51 221 238 255 221 238 255 34 34 51 34 34 51 34 34 51 34 34 51 34 34 51 34 34 51 34 34 51 34 34 51 221 238 255 221 238 255 221 238 255 221 238 255 221 238 255 221 238 255 34 34 51 34 34 51 34 34 51 34 34 51 221 238 255 221 238 255 221 238 255 221 238 255 221 238 255 221 238 255 221 238 255 221 238 255 221 238 255 221 238 255 34 34 51 34 34 51 221 238 255 221 238 255 221 238 255 221 238 255 221 238 255 221 238 255 221 238 255 221 238 255 34 34 51 34 34 51 34 34 51 34 34 51 170 187 204 170 187 204 170 187 204 170 187 204 170 187 204 170 187 204 170 187 204 170 187 204 34 34 51 34 34 51 34 34 51 34 34 51 34 34 51 34 34 51 34 34 51 34 34 51 170 187 204 170 187 204 34 34 51 34 34 51 34 34 51 34 34 51 34 34 51 34 34 51 170 187 204 170 187 204 34 34 51 34 34 51 34 34 51 34 34 51 170 187 204 170 187 204 34 34 51 34 34 51 34 34 51 34 34 51 221 238 255 221 238 255 221 238 255 221 238 255 221 238 255 221 238 255 221 238 255 221 238 255 221 238 255 221 238 255 34 34 51 34 34 51 170 187 204 170 187 204 34 34 51 34 34 51 34 34 51 34 34 51 34 34 51 34 34 51 170 187 204 170 187 204 34 34 51 34 34 51 170 187 204 170 187 204 170 187 204 170 187 204 170 187 204 170 187 204 170 187 204 170 187 204 170 187 204 170 187 204 34 34 51 34 34 51 34 34 51 34 34 51 34 34 51 34 34 51 34 34 51 34 34 51 34 34 51 34 34 51 34 34 51 34 34 51 34 34 51 34 34 51 34 34 51 34 34 51 34 34 51 34 34 51 34 34 51 34 34 51 34 34 51 34 34 51 34 34 51 34 34 51 34 34 51 34 34 51 34 34 51 34 34 51 34 34 51 34 34 51 34 34 51 34 34 51 34 34 51 34 34 51 34 34 51 34 34 51 34 34 51 34 34 51 34 34 51 34 34 51 34 34 51 34 34 51 34 34 51 34 34 51 34 34 51 34 34 51 34 34 51 34 34 51 34 34 51 34 34 51 34 34 51 34 34 51 34 34 51 34 34 51 34 34 51 34 34 51 34 34 51 34 34 51 34 34 51 34 34 51 34 34 51 34 34 51 34 34 51 34 34 51 34 34 51 34 34 51 34 34 51 34 34 51 34 34 51 34 34 51 34 34 51 34 34 51 34 34 51 34 34 51 34 34 51 34 34 51 34 34 51 34 34 51 34 34 51 34 34 51 34 34 51 34 34 51 34 34 51 34 34 51 34 34 51 34 34 51 34 34 51 34 34 51 34 34 51 34 34 51 34 34 51 34 34 51 34 34 51 34 34 51 34 34 51 34 34 51 34 34 51 34 34 51 34 34 51 34 34 51 34 34 51 34 34 51
34 34 51 34 34 51 34 34 51 34 34 51 34 34 51 34 34 51 34 34 51 34 34 51 34 34 51 34 34 51 34 34 51 34 34 51 34 34 51 34 34 51 34 34 51 34 34 51 34 34 51 34 34 51 34 34 51 34 34 51 34 34 51 34 34 51 34 34 51 34 34 51 34 34 51 34 34 51 34 34 51 34 34 51 34 34 51 34 34 51 34 34 51 34 34 51 34 34 51 34 34 51 34 34 51 34 34 51 34 34 51 34 34 51 34 34 51 34 34 51 34 34 51 34 34 51 34 34 51 34 34 51 34 34 51 34 34 51 34 34 51 34 34 51 34 34 51 34 34 51 34 34 51 34 34 51 34 34 51 34 34 51 34 34 51 34 34 51 34 34 51 34 34 51 34 34 51 34 34 51 34 34 51 34 34 51 34 34 51 34 34 51 34 34 51 34 34 51 34 34 51 34 34 51 34 34 51 34 34 51 34 34 51 34 34 51 34 34 51 34 34 51 34 34 51 34 34 51 34 34 51 34 34 51 34 34 51 34 34 51 34 34 51 34 34 51 34 34 51 34 34 51 34 34 51 34 34 51 34 34 51 34 34 51 34 34 51 34 34 51 34 34 51 34 34 51 34 34 51 34 34 51 34 34 51 34 34 51 34 34 51 34 34 51 34 34 51 34 34 51 34 34 51 34 34 51 34 34 51 34 34 51 34 34 51 34 34 51 34 34 51 34 34 51 34 34 51 34 34 51 34 34 51 34 34 51 34 34 51 34 34 51 34 34 51 34 34 51 34 34 51 34 34 51 34 34 51 34 34 51 34 34 51 34 34 51 34 34 51 34 34 51 34 34 51 34 34 51 34 34 51 34 34 51 34 34 51 34 34 51 34 34 51 34 34 51 34 34 51 34 34 51 34 34 51 34 34 51 34 34 51 34 34 51 34 34 51 34 34 51 34 34 51 34 34 51 34 34 51 34 34 51 34 34 51 34 34 51 34 34 51 34 34 51 34 34 51 34 34 51 34 34 51 34 34 51 34 34 51 34 34 51 34 34 51 34 34 51 34 34 51 34 34 51 34 34 51 34 34 51 34 34 51 34 34 51 34 34 51 34 34 51 34 34 51 34 34 51 34 34 51 34 34 51 34 34 51 34 34 51 34 34 51 34 34 51 34 34 51 34 34 51 34 34 51 34 34 51 34 34 51 34 34 51 34 34 51 34 34 51 34 34 51 34 34 51 34 34 51 34 34 51 34 34 51 34 34 51 34 34 51 34 34 51 34 34 51 34 34 51 34 34 51 34 34 51 34 34 51 34 34 51 34 34 51 34 34 51 34 34 51 34 34 51 34 34 51 34 34 51 34 34 51 34 34 51 34 34 51 34 34 51 34 34 51 34 34 51 34 34 51 34 34 51 34 34 51 34 34 51 34 34 51 34 34 51 34 34 51 34 34 51 34 34 51 34 34 51 34 34 51 34 34 51 34 34 51 34 34 51 34 34 51 34 34 51 34 34 51 34 34 51 34 34 51 34 34 51 34 34 51 34 34 51 34 34 51 34 34 51 34 34 51 34 34 51 34 34 51 34 34 51 34 34 51 34 34 51 34 34 51 34 34 51 34 34 51 34 34 51 34 34 51 34 34 51 34 34 51 34 34 51 34 34 51 34 34 51 34 34 51 34 34 51 34 34 51 34 34 51 34 34 51 34 34 51 34 34 51 34 34 51 34 34 51 34 34 51 34 34 51 34 34 51 34 34 51 34 34 51 34 34 51 34 34 51 34 34 51 34 34 51 34 34 51 34 34 51 34 34 51 34 34 51 34 34 51 34 34 51 34 34 51 34 34 51 34 34 51 34 34 51 34 34 51 34 34 51 34 34 51 34 34 51 34 34 51 34 34 51 34 34 51 34 34 51 34 34 51 34 34 51 34 34 51 34 34 51 34 34 51 34 34 51 34 34 51 34 34 51 34 34 51 34 34 51 34 34 51 34 34 51 34 34 51 34 34 51 34 34 51 34 34 51 34 34 51 34 34 51 34 34 51 34 34 51 34 34 51 34 34 51 34 34 51 34 34 51 34 34 51 34 34 51 34 34 51 34 34 51 34 34 51 34 34 51 34 34 51 34 34 51 34 34 51 34 34 51 34 34 51 34 34 51 34 34 51 34 34 51
34 34 51 34 34 51 34 34 51 34 34 51 34 34 51 34 34 51 34 34 51 34 34 51 34 34 51 34 34 51 34 34 51 34 34 51 34 34 51 34 34 51 34 34 51 34 34 51 34 34 51 34 34 51 34 34 51 34 34 51 34 34 51 34 34 51 34 34 51 34 34 51 34 34 51 34 34 51 34 34 51 34 34 51 34 34 51 34 34 51 34 34 51 34 34 51 34 34 51 34 34 51 34 34 51 34 34 51 34 34 51 34 34 51 34 34 51 34 34 51 34 34 51 34 34 51 34 34 51 34 34 51 34 34 51 34 34 51 34 34 51 34 34 51 34 34 51 34 34 51 34 34 51 34 34 51 34 34 51 34 34 51 34 34 51 34 34 51 34 34 51 34 34 51 34 34 51 34 34 51 34 34 51 34 34 51 34 34 51 34 34 51 34 34 51 34 34 51 34 34 51 34 34 51 34 34 51 34 34 51 34 34 51 34 34 51 34 34 51 34 34 51 34 34 51 34 34 51 34 34 51 34 34 51 34 34 51 34 34 51 34 34 51 34 34 51 34 34 51 34 34 51 34 34 51 34 34 51 34 34 51 34 34 51 34 34 51 34 34 51 34 34 51 34 34 51 34 34 51 34 34 51 34 34 51 34 34 51 34 34 51 34 34 51 34 34 51 34 34 51 34 34 51 34 34 51 34 34 51 34 34 51 34 34 51 34 34 51 34 34 51 34 34 51 34 34 51 34 34 51 34 34 51 34 34 51 34 34 51 34 34 51 34 34 51 34 34 51 34 34 51 34 34 51 34 34 51 34 34 51 34 34 51 34 34 51 34 34 51 34 34 51 34 34 51 34 34 51 34 34 51 34 34 51 34 34 51 34 34 51 34 34 51 34 34 51 34 34 51 34 34 51 34 34 51 34 34 51 34 34 51 34 34 51 34 34 51 34 34 51 34 34 51 34 34 51 34 34 51 34 34 51 34 34 51 34 34 51 34 34 51 34 34 51 34 34 51 34 34 51 34 34 51 34 34 51 34 34 51 34 34 51 34 34 51 34 34 51 34 34 51 34 34 51 34 34 51 34 34 51 34 34 51 34 34 51 34 34 51 34 34 51 34 34 51 34 34 51 34 34 51 34 34 51 34 34 51 34 34 51 34 34 51 34 34 51 34 34 51 34 34 51 34 34 51 34 34 51 34 34 51 34 34 51 34 34 51 34 34 51 34 34 51 34 34 51 34 34 51 34 34 51 34 34 51 34 34 51 34 34 51 34 34 51 34 34 51 34 34 51 34 34 51 34 34 51 34 34 51 34 34 51 34 34 51 34 34 51 34 34 51 34 34 51 34 34 51 34 34 51 34 34 51 34 34 51 34 34 51 34 34 51 34 34 51 34 34 51 34 34 51 34 34 51 34 34 51 34 34 51 34 34 51 34 34 51 34 34 51 34 34 51 34 34 51 34 34 51 34 34 51 34 34 51 34 34 51 34 34 51 34 34 51 34 34 51 34 34 51 34 34 51 34 34 51 34 34 51 34 34 51 34 34 51 34 34 51 34 34 51 34 34 51 34 34 51 34 34 51 34 34 51 34 34 51 34 34 51 34 34 51 34 34 51 34 34 51 34 34 51 34 34 51 34 34 51 34 34 51 34 34 51 34 34 51 34 34 51 34 34 51 34 34 51 34 34 51 34 34 51 34 34 51 34 34 51 34 34 51 34 34 51 34 34 51 34 34 51 34 34 51 34 34 51 34 34 51 34 34 51 34 34 51 34 34 51 34 34 51 34 34 51 34 34 51 34 34 51 34 34 51 34 34 51 34 34 51 34 34 51 34 34 51 34 34 51 34 34 51 34 34 51 34 34 51 34 34 51 34 34 51 34 34 51 34 34 51 34 34 51 34 34 51 34 34 51 34 34 51 34 34 51 34 34 51 34 34 51 34 34 51 34 34 51 34 34 51 34 34 51 34 34 51 34 34 51 34 34 51 34 34 51 34 34 51 34 34 51 34 34 51 34 34 51 34 34 51 34 34 51 34 34 51 34 34 51 34 34 51 34 34 51 34 34 51 34 34 51 34 34 51 34 34 51 34 34 51 34 34 51 34 34 51 34 34 51 34 34 51 34 34 51 34 34 51 34 34 51 34 34 51 34 34 51 34 34 51 34 34 51
34 34 51 34 34 51 34 34 51 34 34 51 34 34 51 34 34 51 34 34 51 34 34 51 34 34 51 34 34 51 34 34 51 34 34 51 34 34 51 34 34 51 34 34 51 34 34 51 34 34 51 34 34 51 34 34 51 34 34 51 34 34 51 34 34 51 34 34 51 34 34 51 34 34 51 34 34 51 34 34 51 34 34 51 34 34 51 34 34 51 34 34 51 34 34 51 34 34 51 34 34 51 34 34 51 34 34 51 34 34 51 34 34 51 34 34 51 34 34 51 34 34 51 34 34 51 34 34 51 34 34 51 34 34 51 34 34 51 34 34 51 34 34 51 34 34 51 34 34 51 34 34 51 34 34 51 34 34 51 34 34 51 34 34 51 34 34 51 34 34 51 34 34 51 34 34 51 34 34 51 34 34 51 34 34 51 34 34 51 34 34 51 34 34 51 34 34 51 34 34 51 34 34 51 34 34 51 34 34 51 34 34 51 34 34 51 34 34 51 34 34 51 34 34 51 34 34 51 34 34 51 34 34 51 34 34 51 34 34 51 34 34 51 34 34 51 34 34 51 34 34 51 34 34 51 34 34 51 34 34 51 34 34 51 34 34 51 34 34 51 34 34 51 34 34 51 34 34 51 34 34 51 34 34 51 34 34 51 34 34 51 34 34 51 34 34 51 34 34 51 34 34 51 34 34 51 34 34 51 34 34 51 34 34 51 34 34 51 34 34 51 34 34 51 34 34 51 34 34 51 34 34 51 34 34 51 34 34 51 34 34 51 34 34 51 34 34 51 34 34 51 34 34 51 34 34 51 34 34 51 34 34 51 34 34 51 34 34 51 34 34 51 34 34 51 34 34 51 34 34 51 34 34 51 34 34 51 34 34 51 34 34 51 34 34 51 34 34 51 34 34 51 34 34 51 34 34 51 34 34 51 34 34 51 34 34 51 34 34 51 34 34 51 34 34 51 34 34 51 34 34 51 34 34 51 34 34 51 34 34 51 34 34 51 34 34 51 34 34 51 34 34 51 34 34 51 34 34 51 34 34 51 34 34 51 34 34 51 34 34 51 34 34 51 34 34 51 34 34 51 34 34 51 34 34 51 34 34 51 34 34 51 34 34 51 34 34 51 34 34 51 34 34 51 34 34 51 34 34 51 34 34 51 34 34 51 34 34 51 34 34 51 34 34 51 34 34 51 34 34 51 34 34 51 34 34 51 34 34 51 34 34 51 34 34 51 34 34 51 34 34 51 34 34 51 34 34 51 34 34 51 34 34 51 34 34 51 34 34 51 34 34 51 34 34 51 34 34 51 34 34 51 34 34 51 34 34 51 34 34 51 34 34 51 34 34 51 34 34 51 34 34 51 34 34 51 34 34 51 34 34 51 34 34 51 34 34 51 34 34 51 34 34 51 34 34 51 34 34 51 34 34 51 34 34 51 34 34 51 34 34 51 34 34 51 34 34 51 34 34 51 34 34 51 34 34 51 34 34 51 34 34 51 34 34 51 34 34 51 34 34 51 34 34 51 34 34 51 34 34 51 34 34 51 34 34 51 34 34 51 34 34 51 34 34 51 34 34 51 34 34 51 34 34 51 34 34 51 34 34 51 34 34 51 34 34 51 34 34 51 34 34 51 34 34 51 34 34 51 34 34 51 34 34 51 34 34 51 34 34 51 34 34 51 34 34 51 34 34 51 34 34 51 34 34 51 34 34 51 34 34 51 34 34 51 34 34 51 34 34 51 34 34 51 34 34 51 34 34 51 34 34 51 34 34 51 34 34 51 34 34 51 34 34 51 34 34 51 34 34 51 34 34 51 34 34 51 34 34 51 34 34 51 34 34 51 34 34 51 34 34 51 34 34 51 34 34 51 34 34 51 34 34 51 34 34 51 34 34 51 34 34 51 34 34 51 34 34 51 34 34 51 34 34 51 34 34 51 34 34 51 34 34 51 34 34 51 34 34 51 34 34 51 34 34 51 34 34 51 34 34 51 34 34 51 34 34 51 34 34 51 34 34 51 34 34 51 34 34 51 34 34 51 34 34 51 34 34 51 34 34 51 34 34 51 34 34 51 34 34 51 34 34 51 34 34 51 34 34 51 34 34 51 34 34 51 34 34 51 34 34 51 34 34 51 34 34 51 34 34 51 34 34 51 34 34 51 34 34 51
34 34 51 34 34 51 34 34 51 34 34 51 34 34 51 34 34 51 34 34 51 34 34 51 34 34 51 34 34 51 34 34 51 34 34 51 34 34 51 34 34 51 34 34 51 34 34 51 34 34 51 34 34 51 34 34 51 34 34 51 34 34 51 34 34 51 34 34 51 34 34 51 34 34 51 34 34 51 34 34 51 34 34 51 34 34 51 34 34 51 34 34 51 34 34 51 34 34 51 34 34 51 34 34 51 34 34 51 34 34 51 34 34 51 34 34 51 34 34 51 34 34 51 34 34 51 34 34 51 34 34 51 34 34 51 34 34 51 34 34 51 34 34 51 34 34 51 34 34 51 34 34 51 34 34 51 34 34 51 34 34 51 34 34 51 34 34 51 34 34 51 34 34 51 34 34 51 34 34 51 34 34 51 34 34 51 34 34 51 34 34 51 34 34 51 34 34 51 34 34 51 34 34 51 34 34 51 34 34 51 34 34 51 34 34 51 34 34 51 34 34 51 34 34 51 34 34 51 34 34 51 34 34 51 34 34 51 34 34 51 34 34 51 34 34 51 34 34 51 34 34 51 34 34 51 34 34 51 34 34 51 34 34 51 34 34 51 34 34 51 34 34 51 34 34 51 34 34 51 34 34 51 34 34 51 34 34 51 34 34 51 34 34 51 34 34 51 34 34 51 34 34 51 34 34 51 34 34 51 34 34 51 34 34 51 34 34 51 34 34 51 34 34 51 34 34 51 34 34 51 34 34 51 34 34 51 34 34 51 34 34 51 34 34 51 34 34 51 34 34 51 34 34 51 34 34 51 34 34 51 34 34 51 34 34 51 34 34 51 34 34 51 34 34 51 34 34 51 34 34 51 34 34 51 34 34 51 34 34 51 34 34 51 34 34 51 34 34 51 34 34 51 34 34 51 34 34 51 34 34 51 34 34 51 34 34 51 34 34 51 34 34 51 34 34 51 34 34 51 34 34 51 34 34 51 34 34 51 34 34 51 34 34 51 34 34 51 34 34 51 34 34 51 34 34 51 34 34 51 34 34 51 34 34 51 34 34 51 34 34 51 34 34 51 34 34 51 34 34 51 34 34 51 34 34 51 34 34 51 34 34 51 34 34 51 34 34 51 34 34 51 34 34 51 34 34 51 34 34 51 34 34 51 34 34 51 34 34 51 34 34 51 34 34 51 34 34 51 34 34 51 34 34 51 34 34 51 34 34 51 34 34 51 34 34 51 34 34 51 34 34 51 34 34 51 34 34 51 34 34 51 34 34 51 34 34 51 34 34 51 34 34 51 34 34 51 34 34 51 34 34 51 34 34 51 34 34 51 34 34 51 34 34 51 34 34 51 34 34 51 34 34 51 34 34 51 34 34 51 34 34 51 34 34 51 34 34 51 34 34 51 34 34 51 34 34 51 34 34 51 34 34 51 34 34 51 34 34 51 34 34 51 34 34 51 34 34 51 34 34 51 34 34 51 34 34 51 34 34 51 34 34 51 34 34 51 34 34 51 34 34 51 34 34 51 34 34 51 34 34 51 34 34 51 34 34 51 34 34 51 34 34 51 34 34 51 34 34 51 34 34 51 34 34 51 34 34 51 34 34 51 34 34 51 34 34 51 34 34 51 34 34 51 34 34 51 34 34 51 34 34 51 34 34 51 34 34 51 34 34 51 34 34 51 34 34 51 34 34 51 34 34 51 34 34 51 34 34 51 34 34 51 34 34 51 34 34 51 34 34 51 34 34 51 34 34 51 34 34 51 34 34 51 34 34 51 34 34 51 34 34 51 34 34 51 34 34 51 34 34 51 34 34 51 34 34 51 34 34 51 34 34 51 34 34 51 34 34 51 34 34 51 34 34 51 34 34 51 34 34 51 34 34 51 34 34 51 34 34 51 34 34 51 34 34 51 34 34 51 34 34 51 34 34 51 34 34 51 34 34 51 34 34 51 34 34 51 34 34 51 34 34 51 34 34 51 34 34 51 34 34 51 34 34 51 34 34 51 34 34 51 34 34 51 34 34 51 34 34 51 34 34 51 34 34 51 34 34 51 34 34 51 34 34 51 34 34 51 34 34 51 34 34 51 34 34 51 34 34 51 34 34 51 34 34 51 34 34 51 34 34 51 34 34 51 34 34 51 34 34 51 34 34 51 34 34 51 34 34 51
17 17 34 17 17 34 17 17 34 17 17 34 17 17 34 17 17 34 17 17 34 17 17 34 17 17 34 17 17 34 17 17 34 17 17 34 17 17 34 17 17 34 17 17 34 17 17 34 17 17 34 17 17 34 17 17 34 17 17 34 17 17 34 17 17 34 17 17 34 17 17 34 17 17 34 17 17 34 17 17 34 17 17 34 17 17 34 17 17 34 17 17 34 17 17 34 17 17 34 17 17 34 17 17 34 17 17 34 17 17 34 17 17 34 17 17 34 17 17 34 17 17 34 17 17 34 17 17 34 17 17 34 17 17 34 17 17 34 17 17 34 17 17 34 17 17 34 17 17 34 17 17 34 17 17 34 17 17 34 17 17 34 17 17 34 17 17 34 17 17 34 17 17 34 17 17 34 17 17 34 17 17 34 17 17 34 17 17 34 17 17 34 17 17 34 17 17 34 17 17 34 17 17 34 17 17 34 17 17 34 17 17 34 17 17 34 17 17 34 17 17 34 17 17 34 17 17 34 17 17 34 17 17 34 17 17 34 17 17 34 17 17 34 17 17 34 17 17 34 17 17 34 17 17 34 17 17 34 17 17 34 17 17 34 17 17 34 17 17 34 17 17 34 17 17 34 17 17 34 17 17 34 17 17 34 17 17 34 17 17 34 17 17 34 17 17 34 17 17 34 17 17 34 17 17 34 17 17 34 17 17 34 17 17 34 17 17 34 17 17 34 17 17 34 17 17 34 17 17 34 17 17 34 17 17 34 17 17 34 17 17 34 17 17 34 17 17 34 17 17 34 17 17 34 17 17 34 17 17 34 17 17 34 17 17 34 17 17 34 17 17 34 17 17 34 17 17 34 17 17 34 17 17 34 17 17 34 17 17 34 17 17 34 17 17 34 17 17 34 17 17 34 17 17 34 17 17 34 17 17 34 17 17 34 17 17 34 17 17 34 17 17 34 17 17 34 17 17 34 17 17 34 17 17 34 17 17 34 17 17 34 17 17 34 119 136 153 119 136 153 119 136 153 119 136 153 119 136 153 119 136 153 119 136 153 119 136 153 119 136 153 119 136 153 119 136 153 119 136 153 119 136 153 119 136 153 119 136 153 119 136 153 119 136 153 119 136 153 119 136 153 119 136 153 119 136 153 119 136 153 119 136 153 119 136 153 17 17 34 17 17 34 17 17 34 17 17 34 17 17 34 17 17 34 17 17 34 17 17 34 17 17 34 17 17 34 17 17 34 17 17 34 17 17 34 17 17 34 17 17 34 17 17 34 17 17 34 17 17 34 17 17 34 17 17 34 17 17 34 17 17 34 17 17 34 17 17 34 17 17 34 17 17 34 17 17 34 17 17 34 17 17 34 17 17 34 17 17 34 17 17 34 17 17 34 17 17 34 17 17 34 17 17 34 17 17 34 17 17 34 17 17 34 17 17 34 17 17 34 17 17 34 17 17 34 17 17 34 17 17 34 17 17 34 17 17 34 17 17 34 17 17 34 17 17 34 17 17 34 17 17 34 17 17 34 17 17 34 17 17 34 17 17 34 17 17 34 17 17 34 17 17 34 17 17 34 17 17 34 17 17 34 17 17 34 17 17 34 17 17 34 17 17 34 17 17 34 17 17 34 17 17 34 17 17 34 17 17 34 17 17 34 17 17 34 17 17 34 17 17 34 17 17 34 17 17 34 17 17 34 17 17 34 17 17 34 17 17 34 17 17 34 17 17 34 17 17 34 17 17 34 17 17 34 17 17 34 17 17 34 17 17 34 17 17 34 17 17 34 17 17 34 17 17 34 17 17 34 17 17 34 17 17 34 17 17 34 17 17 34 17 17 34 17 17 34 17 17 34 17 17 34 17 17 34 17 17 34 17 17 34 17 17 34 17 17 34 17 17 34 17 17 34 17 17 34 17 17 34 17 17 34 17 17 34 17 17 34 17 17 34 17 17 34 17 17 34 17 17 34 17 17 34 17 17 34 17 17 34 17 17 34 17 17 34 17 17 34 17 17 34 17 17 34 17 17 34 17 17 34 17 17 34 17 17 34 17 17 34 17 17 34 17 17 34 17 17 34 17 17 34 17 17 34 17 17 34 17 17 34 17 17 34 17 17 34 17 17 34 17 17 34 17 17 34 17 17 34 17 17 34 17 17 34 17 17 34 17 17 34
17 17 34 17 17 34 17 17 34 17 17 34 17 17 34 17 17 34 17 17 34 17 17 34 17 17 34 17 17 34 17 17 34 17 17 34 17 17 34 17 17 34 17 17 34 17 17 34 17 17 34 17 17 34 17 17 34 17 17 34 17 17 34 17 17 34 17 17 34 17 17 34 17 17 34 17 17 34 17 17 34 17 17 34 17 17 34 17 17 34 17 17 34 17 17 34 17 17 34 17 17 34 17 17 34 17 17 34 17 17 34 17 17 34 17 17 34 17 17 34 17 17 34 17 17 34 17 17 34 17 17 34 17 17 34 17 17 34 17 17 34 17 17 34 17 17 34 17 17 34 17 17 34 17 17 34 17 17 34 17 17 34 17 17 34 17 17 34 17 17 34 17 17 34 17 17 34 17 17 34 17 17 34 17 17 34 17 17 34 17 17 34 17 17 34 17 17 34 17 17 34 17 17 34 17 17 34 17 17 34 17 17 34 17 17 34 17 17 34 17 17 34 17 17 34 17 17 34 17 17 34 17 17 34 17 17 34 17 17 34 17 17 34 17 17 34 17 17 34 17 17 34 17 17 34 17 17 34 17 17 34 17 17 34 17 17 34 17 17 34 17 17 34 17 17 34 17 17 34 17 17 34 17 17 34 17 17 34 17 17 34 17 17 34 17 17 34 17 17 34 17 17 34 17 17 34 17 17 34 17 17 34 17 17 34 17 17 34 17 17 34 17 17 34 17 17 34 17 17 34 17 17 34 17 17 34 17 17 34 17 17 34 17 17 34 17 17 34 17 17 34 17 17 34 17 17 34 17 17 34 17 17 34 17 17 34 17 17 34 17 17 34 17 17 34 17 17 34 17 17 34 17 17 34 17 17 34 17 17 34 17 17 34 17 17 34 17 17 34 17 17 34 17 17 34 17 17 34 17 17 34 17 17 34 17 17 34 17 17 34 17 17 34 17 17 34 17 17 34 17 17 34 17 17 34 17 17 34 17 17 34 17 17 34 119 136 153 119 136 153 119 136 153 119 136 153 119 136 153 119 136 153 119 136 153 119 136 153 119 136 153 119 136 153 119 136 153 119 136 153 119 136 153 119 136 153 119 136 153 119 136 153 119 136 153 119 136 153 119 136 153 119 136 153 119 136 153 119 136 153 119 136 153 119 136 153 17 17 34 17 17 34 17 17 34 17 17 34 17 17 34 17 17 34 17 17 34 17 17 34 17 17 34 17 17 34 17 17 34 17 17 34 17 17 34 17 17 34 17 17 34 17 17 34 17 17 34 17 17 34 17 17 34 17 17 34 17 17 34 17 17 34 17 17 34 17 17 34 17 17 34 17 17 34 17 17 34 17 17 34 17 17 34 17 17 34 17 17 34 17 17 34 17 17 34 17 17 34 17 17 34 17 17 34 17 17 34 17 17 34 17 17 34 17 17 34 17 17 34 17 17 34 17 17 34 17 17 34 17 17 34 17 17 34 17 17 34 17 17 34 17 17 34 17 17 34 17 17 34 17 17 34 17 17 34 17 17 34 17 17 34 17 17 34 17 17 34 17 17 34 17 17 34 17 17 34 17 17 34 17 17 34 17 17 34 17 17 34 17 17 34 17 17 34 17 17 34 17 17 34 17 17 34 17 17 34 17 17 34 17 17 34 17 17 34 17 17 34 17 17 34 17 17 34 17 17 34 17 17 34 17 17 34 17 17 34 17 17 34 17 17 34 17 17 34 17 17 34 17 17 34 17 17 34 17 17 34 17 17 34 17 17 34 17 17 34 17 17 34 17 17 34 17 17 34 17 17 34 17 17 34 17 17 34 17 17 34 17 17 34 17 17 34 17 17 34 17 17 34 17 17 34 17 17 34 17 17 34 17 17 34 17 17 34 17 17 34 17 17 34 17 17 34 17 17 34 17 17 34 17 17 34 17 17 34 17 17 34 17 17 34 17 17 34 17 17 34 17 17 34 17 17 34 17 17 34 17 17 34 17 17 34 17 17 34 17 17 34 17 17 34 17 17 34 17 17 34 17 17 34 17 17 34 17 17 34 17 17 34 17 17 34 17 17 34 17 17 34 17 17 34 17 17 34 17 17 34 17 17 34 17 17 34 17 17 34 17 17 34 17 17 34 17 17 34 17 17 34 17 17 34 17 17 34 17 17 34 17 17 34
17 17 34 17 17 34 17 17 34 17 17 34 17 17 34 17 17 34 17 17 34 17 17 34 17 17 34 17 17 34 17 17 34 17 17 34 17 17 34 17 17 34 17 17 34 17 17 34 17 17 34 17 17 34 17 17 34 17 17 34 17 17 34 17 17 34 17 17 34 17 17 34 17 17 34 17 17 34 17 17 34 17 17 34 17 17 34 17 17 34 17 17 34 17 17 34 17 17 34 17 17 34 17 17 34 17 17 34 17 17 34 17 17 34 17 17 34 17 17 34 17 17 34 17 17 34 17 17 34 17 17 34 17 17 34 17 17 34 17 17 34 17 17 34 17 17 34 17 17 34 17 17 34 17 17 34 17 17 34 17 17 34 17 17 34 17 17 34 17 17 34 17 17 34 17 17 34 17 17 34 17 17 34 17 17 34 17 17 34 17 17 34 17 17 34 17 17 34 17 17 34 17 17 34 17 17 34 17 17 34 17 17 34 17 17 34 17 17 34 17 17 34 17 17 34 17 17 34 17 17 34 17 17 34 17 17 34 17 17 34 17 17 34 17 17 34 17 17 34 17 17 34 17 17 34 17 17 34 17 17 34 17 17 34 17 17 34 17 17 34 17 17 34 17 17 34 17 17 34 17 17 34 17 17 34 17 17 34 17 17 34 17 17 34 17 17 34 17 17 34 17 17 34 17 17 34 17 17 34 17 17 34 17 17 34 17 17 34 17 17 34 17 17 34 17 17 34 17 17 34 17 17 34 17 17 34 17 17 34 17 17 34 17 17 34 17 17 34 17 17 34 17 17 34 17 17 34 17 17 34 17 17 34 17 17 34 17 17 34 17 17 34 17 17 34 17 17 34 17 17 34 17 17 34 17 17 34 17 17 34 17 17 34 17 17 34 17 17 34 17 17 34 17 17 34 17 17 34 17 17 34 17 17 34 17 17 34 17 17 34 17 17 34 17 17 34 17 17 34 17 17 34 17 17 34 17 17 34 17 17 34 17 17 34 119 136 153 119 136 153 119 136 153 119 136 153 119 136 153 119 136 153 119 136 153 119 136 153 119 136 153 119 136 153 119 136 153 119 136 153 119 136 153 119 136 153 119 136 153 119 136 153 119 136 153 119 136 153 119 136 153 119 136 153 119 136 153 119 136 153 119 136 153 119 136 153 17 17 34 17 17 34 17 17 34 17 17 34 51 68 85 51 68 85 51 68 85 51 68 85 51 68 85 51 68 85 51 68 85 51 68 85 51 68 85 51 68 85 51 68 85 51 68 85 51 68 85 51 68 85 51 68 85 51 68 85 51 68 85 51 68 85 51 68 85 51 68 85 51 68 85 51 68 85 51 68 85 51 68 85 51 68 85 51 68 85 51 68 85 51 68 85 17 17 34 17 17 34 17 17 34 17 17 34 17 17 34 17 17 34 17 17 34 17 17 34 17 17 34 17 17 34 17 17 34 17 17 34 17 17 34 17 17 34 17 17 34 17 17 34 17 17 34 17 17 34 17 17 34 17 17 34 17 17 34 17 17 34 17 17 34 17 17 34 17 17 34 17 17 34 17 17 34 17 17 34 17 17 34 17 17 34 17 17 34 17 17 34 17 17 34 17 17 34 17 17 34 17 17 34 17 17 34 17 17 34 17 17 34 17 17 34 17 17 34 17 17 34 17 17 34 17 17 34 17 17 34 17 17 34 17 17 34 17 17 34 17 17 34 17 17 34 17 17 34 17 17 34 17 17 34 17 17 34 17 17 34 17 17 34 17 17 34 17 17 34 17 17 34 17 17 34 17 17 34 17 17 34 17 17 34 17 17 34 17 17 34 17 17 34 17 17 34 17 17 34 17 17 34 17 17 34 17 17 34 17 17 34 17 17 34 17 17 34 17 17 34 17 17 34 17 17 34 17 17 34 17 17 34 17 17 34 17 17 34 17 17 34 17 17 34 17 17 34 17 17 34 17 17 34 17 17 34 17 17 34 17 17 34 17 17 34 17 17 34 17 17 34 17 17 34 17 17 34 17 17 34 17 17 34 17 17 34 17 17 34 17 17 34 17 17 34 17 17 34 17 17 34 17 17 34 17 17 34 17 17 34 17 17 34 17 17 34 17 17 34 17 17 34 17 17 34 17 17 34 17 17 34 17 17 34 17 17 34 17 17 34 17 17 34
17 17 34 17 17 34 17 17 34 17 17 34 17 17 34 17 17 34 17 17 34 17 17 34 17 17 34 17 17 34 17 17 34 17 17 34 17 17 34 17 17 34 17 17 34 17 17 34 17 17 34 17 17 34 17 17 34 17 17 34 17 17 34 17 17 34 17 17 34 17 17 34 17 17 34 17 17 34 17 17 34 17 17 34 17 17 34 17 17 34 17 17 34 17 17 34 17 17 34 17 17 34 17 17 34 17 17 34 17 17 34 17 17 34 17 17 34 17 17 34 17 17 34 17 17 34 17 17 34 17 17 34 17 17 34 17 17 34 17 17 34 17 17 34 17 17 34 17 17 34 17 17 34 17 17 34 17 17 34 17 17 34 17 17 34 17 17 34 17 17 34 17 17 34 17 17 34 17 17 34 17 17 34 17 17 34 17 17 34 17 17 34 17 17 34 17 17 34 17 17 34 17 17 34 17 17 34 17 17 34 17 17 34 17 17 34 17 17 34 17 17 34 17 17 34 17 17 34 17 17 34 17 17 34 17 17 34 17 17 34 17 17 34 17 17 34 17 17 34 17 17 34 17 17 34 17 17 34 17 17 34 17 17 34 17 17 34 17 17 34 17 17 34 17 17 34 17 17 34 17 17 34 17 17 34 17 17 34 17 17 34 17 17 34 17 17 34 17 17 34 17 17 34 17 17 34 17 17 34 17 17 34 17 17 34 17 17 34 17 17 34 17 17 34 17 17 34 17 17 34 17 17 34 17 17 34 17 17 34 17 17 34 17 17 34 17 17 34 17 17 34 17 17 34 17 17 34 17 17 34 17 17 34 17 17 34 17 17 34 17 17 34 17 17 34 17 17 34 17 17 34 17 17 34 17 17 34 17 17 34 17 17 34 17 17 34 17 17 34 17 17 34 17 17 34 17 17 34 17 17 34 17 17 34 17 17 34 17 17 34 17 17 34 17 17 34 17 17 34 17 17 34 17 17 34 17 17 34 17 17 34 17 17 34 119 136 153 119 136 153 119 136 153 119 136 153 119 136 153 119 136 153 119 136 153 119 136 153 119 136 153 119 136 153 119 136 153 119 136 153 119 136 153 119 136 153 119 136 153 119 136 153 119 136 153 119 136 153 119 136 153 119 136 153 119 136 153 119 136 153 119 136 153 119 136 153 17 17 34 17 17 34 17 17 34 17 17 34 51 68 85 51 68 85 51 68 85 51 68 85 51 68 85 51 68 85 51 68 85 51 68 85 51 68 85 51 68 85 51 68 85 51 68 85 51 68 85 51 68 85 51 68 85 51 68 85 51 68 85 51 68 85 51 68 85 51 68 85 51 68 85 51 68 85 51 68 85 51 68 85 51 68 85 51 68 85 51 68 85 51 68 85 17 17 34 17 17 34 17 17 34 17 17 34 17 17 34 17 17 34 17 17 34 17 17 34 17 17 34 17 17 34 17 17 34 17 17 34 17 17 34 17 17 34 17 17 34 17 17 34 17 17 34 17 17 34 17 17 34 17 17 34 17 17 34 17 17 34 17 17 34 17 17 34 17 17 34 17 17 34 17 17 34 17 17 34 17 17 34 17 17 34 17 17 34 17 17 34 17 17 34 17 17 34 17 17 34 17 17 34 17 17 34 17 17 34 17 17 34 17 17 34 17 17 34 17 17 34 17 17 34 17 17 34 17 17 34 17 17 34 17 17 34 17 17 34 17 17 34 17 17 34 17 17 34 17 17 34 17 17 34 17 17 34 17 17 34 17 17 34 17 17 34 17 17 34 17 17 34 17 17 34 17 17 34 17 17 34 17 17 34 17 17 34 17 17 34 17 17 34 17 17 34 17 17 34 17 17 34 17 17 34 17 17 34 17 17 34 17 17 34 17 17 34 17 17 34 17 17 34 17 17 34 17 17 34 17 17 34 17 17 34 17 17 34 17 17 34 17 17 34 17 17 34 17 17 34 17 17 34 17 17 34 17 17 34 17 17 34 17 17 34 17 17 34 17 17 34 17 17 34 17 17 34 17 17 34 17 17 34 17 17 34 17 17 34 17 17 34 17 17 34 17 17 34 17 17 34 17 17 34 17 17 34 17 17 34 17 17 34 17 17 34 17 17 34 17 17 34 17 17 34 17 17 34 17 17 34 17 17 34 17 17 34 17 17 34 17 17 34
17 17 34 17 17 34 17 17 34 17 17 34 17 17 34 17 17 34 17 17 34 17 17 34 17 17 34 17 17 34 17 17 34 17 17 34 17 17 34 17 17 34 17 17 34 17 17 34 17 17 34 17 17 34 17 17 34 17 17 34 17 17 34 17 17 34 17 17 34 17 17 34 17 17 34 17 17 34 17 17 34 17 17 34 17 17 34 17 17 34 17 17 34 17 17 34 17 17 34 17 17 34 17 17 34 17 17 34 17 17 34 17 17 34 17 17 34 17 17 34 17 17 34 17 17 34 17 17 34 17 17 34 17 17 34 17 17 34 17 17 34 17 17 34 17 17 34 17 17 34 17 17 34 17 17 34 17 17 34 17 17 34 17 17 34 17 17 34 17 17 34 17 17 34 17 17 34 17 17 34 17 17 34 17 17 34 17 17 34 17 17 34 17 17 34 17 17 34 17 17 34 17 17 34 17 17 34 17 17 34 17 17 34 17 17 34 17 17 34 17 17 34 17 17 34 17 17 34 17 17 34 17 17 34 17 17 34 17 17 34 17 17 34 17 17 34 17 17 34 17 17 34 17 17 34 17 17 34 17 17 34 17 17 34 17 17 34 17 17 34 17 17 34 17 17 34 17 17 34 17 17 34 17 17 34 17 17 34 17 17 34 17 17 34 17 17 34 17 17 34 17 17 34 17 17 34 17 17 34 17 17 34 17 17 34 17 17 34 17 17 34 17 17 34 17 17 34 17 17 34 17 17 34 17 17 34 17 17 34 17 17 34 17 17 34 17 17 34 51 68 85 51 68 85 51 68 85 51 68 85 51 68 85 51 68 85 51 68 85 51 68 85 51 68 85 51 68 85 51 68 85 51 68 85 51 68 85 51 68 85 51 68 85 51 68 85 51 68 85 51 68 85 51 68 85 51 68 85 51 68 85 51 68 85 51 68 85 51 68 85 51 68 85 51 68 85 51 68 85 51 68 85 17 17 34 17 17 34 17 17 34 17 17 34 119 136 153 119 136 153 119 136 153 119 136 153 119 136 153 119 136 153 119 136 153 119 136 153 119 136 153 119 136 153 119 136 153 119 136 153 119 136 153 119 136 153 119 136 153 119 136 153 119 136 153 119 136 153 119 136 153 119 136 153 119 136 153 119 136 153 119 136 153 119 136 153 17 17 34 17 17 34 17 17 34 17 17 34 51 68 85 51 68 85 51 68 85 51 68 85 51 68 85 51 68 85 51 68 85 51 68 85 51 68 85 51 68 85 51 68 85 51 68 85 51 68 85 51 68 85 51 68 85 51 68 85 51 68 85 51 68 85 51 68 85 51 68 85 51 68 85 51 68 85 51 68 85 51 68 85 51 68 85 51 68 85 51 68 85 51 68 85 17 17 34 17 17 34 17 17 34 17 17 34 17 17 34 17 17 34 17 17 34 17 17 34 17 17 34 17 17 34 17 17 34 17 17 34 17 17 34 17 17 34 17 17 34 17 17 34 17 17 34 17 17 34 17 17 34 17 17 34 17 17 34 17 17 34 17 17 34 17 17 34 17 17 34 17 17 34 17 17 34 17 17 34 17 17 34 17 17 34 17 17 34 17 17 34 17 17 34 17 17 34 17 17 34 17 17 34 17 17 34 17 17 34 17 17 34 17 17 34 17 17 34 17 17 34 17 17 34 17 17 34 17 17 34 17 17 34 17 17 34 17 17 34 17 17 34 17 17 34 17 17 34 17 17 34 17 17 34 17 17 34 17 17 34 17 17 34 17 17 34 17 17 34 17 17 34 17 17 34 17 17 34 17 17 34 17 17 34 17 17 34 17 17 34 17 17 34 17 17 34 17 17 34 17 17 34 17 17 34 17 17 34 17 17 34 17 17 34 17 17 34 17 17 34 17 17 34 17 17 34 17 17 34 17 17 34 17 17 34 17 17 34 17 17 34 17 17 34 17 17 34 17 17 34 17 17 34 17 17 34 17 17 34 17 17 34 17 17 34 17 17 34 17 17 34 17 17 34 17 17 34 17 17 34 17 17 34 17 17 34 17 17 34 17 17 34 17 17 34 17 17 34 17 17 34 17 17 34 17 17 34 17 17 34 17 17 34 17 17 34 17 17 34 17 17 34 17 17 34 17 17 34 17 17 34 17 17 34 17 17 34 17 17 34 17 17 34
17 17 34 17 17 34 17 17 34 17 17 34 17 17 34 17 17 34 17 17 34 17 17 34 17 17 34 17 17 34 17 17 34 17 17 34 17 17 34 17 17 34 17 17 34 17 17 34 17 17 34 17 17 34 17 17 34 17 17 34 17 17 34 17 17 34 17 17 34 17 17 34 17 17 34 17 17 34 17 17 34 17 17 34 17 17 34 17 17 34 17 17 34 17 17 34 17 17 34 17 17 34 17 17 34 17 17 34 17 17 34 17 17 34 17 17 34 17 17 34 17 17 34 17 17 34 17 17 34 17 17 34 17 17 34 17 17 34 17 17 34 17 17 34 17 17 34 17 17 34 17 17 34 17 17 34 17 17 34 17 17 34 17 17 34 17 17 34 17 17 34 17 17 34 17 17 34 17 17 34 17 17 34 17 17 34 17 17 34 17 17 34 17 17 34 17 17 34 17 17 34 17 17 34 17 17 34 17 17 34 17 17 34 17 17 34 17 17 34 17 17 34 17 17 34 17 17 34 17 17 34 17 17 34 17 17 34 17 17 34 17 17 34 17 17 34 17 17 34 17 17 34 17 17 34 17 17 34 17 17 34 17 17 34 17 17 34 17 17 34 17 17 34 17 17 34 17 17 34 17 17 34 17 17 34 17 17 34 17 17 34 17 17 34 17 17 34 17 17 34 17 17 34 17 17 34 17 17 34 17 17 34 17 17 34 17 17 34 17 17 34 17 17 34 17 17 34 17 17 34 17 17 34 17 17 34 17 17 34 17 17 34 17 17 34 17 17 34 51 68 85 51 68 85 51 68 85 51 68 85 51 68 85 51 68 85 51 68 85 51 68 85 51 68 85 51 68 85 51 68 85 51 68 85 51 68 85 51 68 85 51 68 85 51 68 85 51 68 85 51 68 85 51 68 85 51 68 85 51 68 85 51 68 85 51 68 85 51 68 85 51 68 85 51 68 85 51 68 85 51 68 85 17 17 34 17 17 34 17 17 34 17 17 34 119 136 153 119 136 153 119 136 153 119 136 153 119 136 153 119 136 153 119 136 153 119 136 153 119 136 153 119 136 153 119 136 153 119 136 153 119 136 153 119 136 153 119 136 153 119 136 153 119 136 153 119 136 153 119 136 153 119 136 153 119 136 153 119 136 153 119 136 153 119 136 153 17 17 34 17 17 34 17 17 34 17 17 34 51 68 85 51 68 85 51 68 85 51 68 85 51 68 85 51 68 85 51 68 85 51 68 85 51 68 85 51 68 85 51 68 85 51 68 85 51 68 85 51 68 85 51 68 85 51 68 85 51 68 85 51 68 85 51 68 85 51 68 85 51 68 85 51 68 85 51 68 85 51 68 85 51 68 85 51 68 85 51 68 85 51 68 85 17 17 34 17 17 34 17 17 34 17 17 34 17 17 34 17 17 34 17 17 34 17 17 34 17 17 34 17 17 34 17 17 34 17 17 34 17 17 34 17 17 34 17 17 34 17 17 34 17 17 34 17 17 34 17 17 34 17 17 34 17 17 34 17 17 34 17 17 34 17 17 34 17 17 34 17 17 34 17 17 34 17 17 34 17 17 34 17 17 34 17 17 34 17 17 34 17 17 34 17 17 34 17 17 34 17 17 34 17 17 34 17 17 34 17 17 34 17 17 34 17 17 34 17 17 34 17 17 34 17 17 34 17 17 34 17 17 34 17 17 34 17 17 34 17 17 34 17 17 34 17 17 34 17 17 34 17 17 34 17 17 34 17 17 34 17 17 34 17 17 34 17 17 34 17 17 34 17 17 34 17 17 34 17 17 34 17 17 34 17 17 34 17 17 34 17 17 34 17 17 34 17 17 34 17 17 34 17 17 34 17 17 34 17 17 34 17 17 34 17 17 34 17 17 34 17 17 34 17 17 34 17 17 34 17 17 34 17 17 34 17 17 34 17 17 34 17 17 34 17 17 34 17 17 34 17 17 34 17 17 34 17 17 34 17 17 34 17 17 34 17 17 34 17 17 34 17 17 34 17 17 34 17 17 34 17 17 34 17 17 34 17 17 34 17 17 34 17 17 34 17 17 34 17 17 34 17 17 34 17 17 34 17 17 34 17 17 34 17 17 34 17 17 34 17 17 34 17 17 34 17 17 34 17 17 34 17 17 34 17 17 34 17 17 34 17 17 34
51 68 85 51 68 85 51 68 85 51 68 85 51 68 85 51 68 85 51 68 85 51 68 85 51 68 85 51 68 85 51 68 85 51 68 85 51 68 85 51 68 85 51 68 85 51 68 85 51 68 85 51 68 85 51 68 85 51 68 85 51 68 85 51 68 85 51 68 85 51 68 85 51 68 85 51 68 85 51 68 85 51 68 85 51 68 85 51 68 85 51 68 85 51 68 85 51 68 85 51 68 85 51 68 85 51 68 85 51 68 85 51 68 85 51 68 85 51 68 85 51 68 85 51 68 85 51 68 85 51 68 85 51 68 85 51 68 85 51 68 85 51 68 85 51 68 85 51 68 85 51 68 85 51 68 85 51 68 85 51 68 85 51 68 85 51 68 85 51 68 85 51 68 85 51 68 85 51 68 85 51 68 85 51 68 85 51 68 85 51 68 85 51 68 85 51 68 85 51 68 85 51 68 85 51 68 85 51 68 85 51 68 85 51 68 85 51 68 85 51 68 85 51 68 85 51 68 85 51 68 85 51 68 85 51 68 85 51 68 85 51 68 85 51 68 85 17 17 34 17 17 34 17 17 34 17 17 34 17 17 34 17 17 34 17 17 34 17 17 34 17 17 34 17 17 34 17 17 34 17 17 34 17 17 34 17 17 34 17 17 34 17 17 34 17 17 34 17 17 34 17 17 34 17 17 34 17 17 34 17 17 34 17 17 34 17 17 34 17 17 34 17 17 34 17 17 34 17 17 34 17 17 34 17 17 34 17 17 34 17 17 34 17 17 34 17 17 34 51 68 85 51 68 85 51 68 85 51 68 85 51 68 85 51 68 85 51 68 85 51 68 85 51 68 85 51 68 85 51 68 85 51 68 85 51 68 85 51 68 85 51 68 85 51 68 85 51 68 85 51 68 85 51 68 85 51 68 85 51 68 85 51 68 85 51 68 85 51 68 85 51 68 85 51 68 85 51 68 85 51 68 85 17 17 34 17 17 34 17 17 34 17 17 34 119 136 153 119 136 153 119 136 153 119 136 153 119 136 153 119 136 153 119 136 153 119 136 153 119 136 153 119 136 153 119 136 153 119 136 153 119 136 153 119 136 153 119 136 153 119 136 153 119 136 153 119 136 153 119 136 153 119 136 153 119 136 153 119 136 153 119 136 153 119 136 153 17 17 34 17 17 34 17 17 34 17 17 34 51 68 85 51 68 85 51 68 85 51 68 85 51 68 85 51 68 85 51 68 85 51 68 85 51 68 85 51 68 85 51 68 85 51 68 85 51 68 85 51 68 85 51 68 85 51 68 85 51 68 85 51 68 85 51 68 85 51 68 85 51 68 85 51 68 85 51 68 85 51 68 85 51 68 85 51 68 85 51 68 85 51 68 85 17 17 34 17 17 34 17 17 34 17 17 34 17 17 34 17 17 34 17 17 34 17 17 34 17 17 34 17 17 34 17 17 34 17 17 34 17 17 34 17 17 34 17 17 34 17 17 34 17 17 34 17 17 34 17 17 34 17 17 34 17 17 34 17 17 34 17 17 34 17 17 34 17 17 34 17 17 34 17 17 34 17 17 34 17 17 34 17 17 34 17 17 34 17 17 34 17 17 34 17 17 34 17 17 34 17 17 34 17 17 34 17 17 34 17 17 34 17 17 34 17 17 34 17 17 34 17 17 34 17 17 34 17 17 34 17 17 34 17 17 34 17 17 34 17 17 34 17 17 34 17 17 34 17 17 34 17 17 34 17 17 34 17 17 34 17 17 34 17 17 34 17 17 34 17 17 34 17 17 34 17 17 34 17 17 34 17 17 34 17 17 34 17 17 34 17 17 34 17 17 34 17 17 34 17 17 34 17 17 34 17 17 34 17 17 34 17 17 34 17 17 34 17 17 34 17 17 34 17 17 34 17 17 34 17 17 34 17 17 34 17 17 34 17 17 34 17 17 34 17 17 34 17 17 34 17 17 34 17 17 34 17 17 34 17 17 34 17 17 34 17 17 34 17 17 34 17 17 34 17 17 34 17 17 34 17 17 34 17 17 34 17 17 34 17 17 34 17 17 34 17 17 34 17 17 34 17 17 34 17 17 34 17 17 34 17 17 34 17 17 34 17 17 34 17 17 34 17 17 34 17 17 34 17 17 34 17 17 34 17 17 34 17 17 34 17 17 34
51 68 85 51 68 85 51 68 85 51 68 85 51 68 85 51 68 85 51 68 85 51 68 85 51 68 85 51 68 85 51 68 85 51 68 85 51 68 85 51 68 85 51 68 85 51 68 85 51 68 85 51 68 85 51 68 85 51 68 85 51 68 85 51 68 85 51 68 85 51 68 85 51 68 85 51 68 85 51 68 85 51 68 85 51 68 85 51 68 85 51 68 85 51 68 85 51 68 85 51 68 85 51 68 85 51 68 85 51 68 85 51 68 85 51 68 85 51 68 85 51 68 85 51 68 85 51 68 85 51 68 85 51 68 85 51 68 85 51 68 85 51 68 85 51 68 85 51 68 85 51 68 85 51 68 85 51 68 85 51 68 85 51 68 85 51 68 85 51 68 85 51 68 85 51 68 85 51 68 85 51 68 85 51 68 85 51 68 85 51 68 85 51 68 85 51 68 85 51 68 85 51 68 85 51 68 85 51 68 85 51 68 85 51 68 85 51 68 85 51 68 85 51 68 85 51 68 85 51 68 85 51 68 85 51 68 85 51 68 85 51 68 85 51 68 85 17 17 34 17 17 34 17 17 34 17 17 34 17 17 34 17 17 34 17 17 34 17 17 34 17 17 34 17 17 34 17 17 34 17 17 34 17 17 34 17 17 34 17 17 34 17 17 34 17 17 34 17 17 34 17 17 34 17 17 34 17 17 34 17 17 34 17 17 34 17 17 34 17 17 34 17 17 34 17 17 34 17 17 34 17 17 34 17 17 34 17 17 34 17 17 34 17 17 34 17 17 34 51 68 85 51 68 85 51 68 85 51 68 85 51 68 85 51 68 85 51 68 85 51 68 85 51 68 85 51 68 85 51 68 85 51 68 85 51 68 85 51 68 85 51 68 85 51 68 85 51 68 85 51 68 85 51 68 85 51 68 85 51 68 85 51 68 85 51 68 85 51 68 85 51 68 85 51 68 85 51 68 85 51 68 85 17 17 34 17 17 34 17 17 34 17 17 34 119 136 153 119 136 153 119 136 153 119 136 153 119 136 153 119 136 153 119 136 153 119 136 153 119 136 153 119 136 153 119 136 153 119 136 153 119 136 153 119 136 153 119 136 153 119 136 153 119 136 153 119 136 153 119 136 153 119 136 153 119 136 153 119 136 153 119 136 153 119 136 153 17 17 34 17 17 34 17 17 34 17 17 34 51 68 85 51 68 85 51 68 85 51 68 85 51 68 85 51 68 85 51 68 85 51 68 85 51 68 85 51 68 85 51 68 85 51 68 85 51 68 85 51 68 85 51 68 85 51 68 85 51 68 85 51 68 85 51 68 85 51 68 85 51 68 85 51 68 85 51 68 85 51 68 85 51 68 85 51 68 85 51 68 85 51 68 85 17 17 34 17 17 34 17 17 34 17 17 34 17 17 34 17 17 34 17 17 34 17 17 34 17 17 34 17 17 34 17 17 34 17 17 34 17 17 34 17 17 34 17 17 34 17 17 34 17 17 34 17 17 34 17 17 34 17 17 34 17 17 34 17 17 34 17 17 34 17 17 34 17 17 34 17 17 34 17 17 34 17 17 34 17 17 34 17 17 34 17 17 34 17 17 34 17 17 34 17 17 34 17 17 34 17 17 34 17 17 34 17 17 34 17 17 34 17 17 34 17 17 34 17 17 34 17 17 34 17 17 34 17 17 34 17 17 34 17 17 34 17 17 34 17 17 34 17 17 34 17 17 34 17 17 34 17 17 34 17 17 34 17 17 34 17 17 34 17 17 34 17 17 34 17 17 34 17 17 34 17 17 34 17 17 34 17 17 34 17 17 34 17 17 34 17 17 34 17 17 34 17 17 34 17 17 34 17 17 34 17 17 34 17 17 34 17 17 34 17 17 34 17 17 34 17 17 34 17 17 34 17 17 34 17 17 34 17 17 34 17 17 34 17 17 34 17 17 34 17 17 34 17 17 34 17 17 34 17 17 34 17 17 34 17 17 34 17 17 34 17 17 34 17 17 34 17 17 34 17 17 34 17 17 34 17 17 34 17 17 34 17 17 34 17 17 34 17 17 34 17 17 34 17 17 34 17 17 34 17 17 34 17 17 34 17 17 34 17 17 34 17 17 34 17 17 34 17 17 34 17 17 34 17 17 34 17 17 34 17 17 34 17 17 34 17 17 34
51 68 85 51 68 85 51 68 85 51 68 85 51 68 85 51 68 85 51 68 85 51 68 85 51 68 85 51 68 85 51 68 85 51 68 85 51 68 85 51 68 85 51 68 85 51 68 85 51 68 85 51 68 85 51 68 85 51 68 85 51 68 85 51 68 85 51 68 85 51 68 85 51 68 85 51 68 85 51 68 85 51 68 85 51 68 85 51 68 85 51 68 85 51 68 85 51 68 85 51 68 85 51 68 85 51 68 85 51 68 85 51 68 85 51 68 85 51 68 85 51 68 85 51 68 85 51 68 85 51 68 85 51 68 85 51 68 85 51 68 85 51 68 85 51 68 85 51 68 85 51 68 85 51 68 85 51 68 85 51 68 85 51 68 85 51 68 85 51 68 85 51 68 85 51 68 85 51 68 85 51 68 85 51 68 85 51 68 85 51 68 85 51 68 85 51 68 85 51 68 85 51 68 85 51 68 85 51 68 85 51 68 85 51 68 85 51 68 85 51 68 85 51 68 85 51 68 85 51 68 85 51 68 85 51 68 85 51 68 85 51 68 85 51 68 85 17 17 34 17 17 34 17 17 34 17 17 34 17 17 34 17 17 34 17 17 34 17 17 34 17 17 34 17 17 34 17 17 34 17 17 34 17 17 34 17 17 34 17 17 34 17 17 34 17 17 34 17 17 34 17 17 34 17 17 34 17 17 34 17 17 34 17 17 34 17 17 34 17 17 34 17 17 34 34 34 51 34 34 51 34 34 51 34 34 51 34 34 51 34 34 51 34 34 51 34 34 51 51 68 85 51 68 85 51 68 85 51 68 85 51 68 85 51 68 85 51 68 85 51 68 85 51 68 85 51 68 85 51 68 85 51 68 85 51 68 85 51 68 85 51 68 85 51 68 85 51 68 85 51 68 85 51 68 85 51 68 85 51 68 85 51 68 85 51 68 85 51 68 85 51 68 85 51 68 85 51 68 85 51 68 85 34 34 51 34 34 51 34 34 51 34 34 51 119 136 153 119 136 153 119 136 153 119 136 153 119 136 153 119 136 153 119 136 153 119 136 153 119 136 153 119 136 153 119 136 153 119 136 153 119 136 153 119 136 153 119 136 153 119 136 153 119 136 153 119 136 153 119 136 153 119 136 153 119 136 153 119 136 153 119 136 153 119 136 153 34 34 51 34 34 51 34 34 51 34 34 51 51 68 85 51 68 85 51 68 85 51 68 85 51 68 85 51 68 85 51 68 85 51 68 85 51 68 85 51 68 85 51 68 85 51 68 85 51 68 85 51 68 85 51 68 85 51 68 85 51 68 85 51 68 85 51 68 85 51 68 85 51 68 85 51 68 85 51 68 85 51 68 85 51 68 85 51 68 85 51 68 85 51 68 85 34 34 51 34 34 51 34 34 51 34 34 51 34 34 51 34 34 51 34 34 51 34 34 51 17 17 34 17 17 34 17 17 34 17 17 34 17 17 34 17 17 34 17 17 34 17 17 34 17 17 34 17 17 34 17 17 34 17 17 34 17 17 34 17 17 34 17 17 34 17 17 34 17 17 34 17 17 34 17 17 34 17 17 34 17 17 34 17 17 34 17 17 34 17 17 34 17 17 34 17 17 34 17 17 34 17 17 34 17 17 34 17 17 34 17 17 34 17 17 34 17 17 34 17 17 34 17 17 34 17 17 34 17 17 34 17 17 34 17 17 34 17 17 34 17 17 34 17 17 34 17 17 34 17 17 34 17 17 34 17 17 34 17 17 34 17 17 34 17 17 34 17 17 34 17 17 34 17 17 34 17 17 34 17 17 34 17 17 34 17 17 34 17 17 34 17 17 34 17 17 34 17 17 34 17 17 34 17 17 34 17 17 34 17 17 34 17 17 34 17 17 34 17 17 34 17 17 34 17 17 34 17 17 34 17 17 34 17 17 34 17 17 34 17 17 34 17 17 34 17 17 34 17 17 34 17 17 34 17 17 34 17 17 34 17 17 34 17 17 34 17 17 34 17 17 34 17 17 34 17 17 34 17 17 34 17 17 34 17 17 34 17 17 34 17 17 34 17 17 34 17 17 34 17 17 34 17 17 34 17 17 34 17 17 34 17 17 34 17 17 34 17 17 34 17 17 34 17 17 34 17 17 34 17 17 34 17 17 34 17 17 34 17 17 34 17 17 34
51 68 85 51 68 85 51 68 85 51 68 85 51 68 85 51 68 85 51 68 85 51 68 85 51 68 85 51 68 85 51 68 85 51 68 85 51 68 85 51 68 85 51 68 85 51 68 85 51 68 85 51 68 85 51 68 85 51 68 85 51 68 85 51 68 85 51 68 85 51 68 85 51 68 85 51 68 85 51 68 85 51 68 85 51 68 85 51 68 85 51 68 85 51 68 85 51 68 85 51 68 85 51 68 85 51 68 85 51 68 85 51 68 85 51 68 85 51 68 85 51 68 85 51 68 85 51 68 85 51 68 85 51 68 85 51 68 85 51 68 85 51 68 85 51 68 85 51 68 85 51 68 85 51 68 85 51 68 85 51 68 85 51 68 85 51 68 85 51 68 85 51 68 85 51 68 85 51 68 85 51 68 85 51 68 85 51 68 85 51 68 85 51 68 85 51 68 85 51 68 85 51 68 85 51 68 85 51 68 85 51 68 85 51 68 85 51 68 85 51 68 85 51 68 85 51 68 85 51 68 85 51 68 85 51 68 85 51 68 85 51 68 85 51 68 85 17 17 34 17 17 34 17 17 34 17 17 34 17 17 34 17 17 34 17 17 34 17 17 34 17 17 34 17 17 34 17 17 34 17 17 34 17 17 34 17 17 34 17 17 34 17 17 34 17 17 34 17 17 34 17 17 34 17 17 34 17 17 34 17 17 34 17 17 34 17 17 34 17 17 34 17 17 34 34 34 51 34 34 51 34 34 51 34 34 51 34 34 51 34 34 51 34 34 51 34 34 51 51 68 85 51 68 85 51 68 85 51 68 85 51 68 85 51 68 85 51 68 85 51 68 85 51 68 85 51 68 85 51 68 85 51 68 85 51 68 85 51 68 85 51 68 85 51 68 85 51 68 85 51 68 85 51 68 85 51 68 85 51 68 85 51 68 85 51 68 85 51 68 85 51 68 85 51 68 85 51 68 85 51 68 85 34 34 51 34 34 51 34 34 51 34 34 51 119 136 153 119 136 153 119 136 153 119 136 153 119 136 153 119 136 153 119 136 153 119 136 153 119 136 153 119 136 153 119 136 153 119 136 153 119 136 153 119 136 153 119 136 153 119 136 153 119 136 153 119 136 153 119 136 153 119 136 153 119 136 153 119 136 153 119 136 153 119 136 153 34 34 51 34 34 51 34 34 51 34 34 51 51 68 85 51 68 85 51 68 85 51 68 85 51 68 85 51 68 85 51 68 85 51 68 85 51 68 85 51 68 85 51 68 85 51 68 85 51 68 85 51 68 85 51 68 85 51 68 85 51 68 85 51 68 85 51 68 85 51 68 85 51 68 85 51 68 85 51 68 85 51 68 85 51 68 85 51 68 85 51 68 85 51 68 85 34 34 51 34 34 51 34 34 51 34 34 51 34 34 51 34 34 51 34 34 51 34 34 51 17 17 34 17 17 34 17 17 34 17 17 34 17 17 34 17 17 34 17 17 34 17 17 34 17 17 34 17 17 34 17 17 34 17 17 34 17 17 34 17 17 34 17 17 34 17 17 34 17 17 34 17 17 34 17 17 34 17 17 34 17 17 34 17 17 34 17 17 34 17 17 34 17 17 34 17 17 34 17 17 34 17 17 34 17 17 34 17 17 34 17 17 34 17 17 34 17 17 34 17 17 34 17 17 34 17 17 34 17 17 34 17 17 34 17 17 34 17 17 34 17 17 34 17 17 34 17 17 34 17 17 34 17 17 34 17 17 34 17 17 34 17 17 34 17 17 34 17 17 34 17 17 34 17 17 34 17 17 34 17 17 34 17 17 34 17 17 34 17 17 34 17 17 34 17 17 34 17 17 34 17 17 34 17 17 34 17 17 34 17 17 34 17 17 34 17 17 34 17 17 34 17 17 34 17 17 34 17 17 34 17 17 34 17 17 34 17 17 34 17 17 34 17 17 34 17 17 34 17 17 34 17 17 34 17 17 34 17 17 34 17 17 34 17 17 34 17 17 34 17 17 34 17 17 34 17 17 34 17 17 34 17 17 34 17 17 34 17 17 34 17 17 34 17 17 34 17 17 34 17 17 34 17 17 34 17 17 34 17 17 34 17 17 34 17 17 34 17 17 34 17 17 34 17 17 34 17 17 34 17 17 34 17 17 34 17 17 34 17 17 34 17 17 34
51 68 85 51 68 85 51 68 85 51 68 85 85 102 119 85 102 119 85 102 119 85 102 119 85 102 119 85 102 119 85 102 119 85 102 119 85 102 119 85 102 119 85 102 119 85 102 119 85 102 119 85 102 119 85 102 119 85 102 119 85 102 119 85 102 119 85 102 119 85 102 119 85 102 119 85 102 119 85 102 119 85 102 119 85 102 119 85 102 119 85 102 119 85 102 119 85 102 119 85 102 119 85 102 119 85 102 119 85 102 119 85 102 119 85 102 119 85 102 119 85 102 119 85 102 119 85 102 119 85 102 119 85 102 119 85 102 119 85 102 119 85 102 119 85 102 119 85 102 119 85 102 119 85 102 119 85 102 119 85 102 119 85 102 119 85 102 119 85 102 119 85 102 119 85 102 119 85 102 119 85 102 119 85 102 119 85 102 119 85 102 119 85 102 119 85 102 119 85 102 119 85 102 119 85 102 119 85 102 119 85 102 119 85 102 119 85 102 119 85 102 119 51 68 85 51 68 85 51 68 85 51 68 85 51 68 85 51 68 85 51 68 85 51 68 85 17 17 34 17 17 34 17 17 34 17 17 34 17 17 34 17 17 34 17 17 34 17 17 34 17 17 34 17 17 34 17 17 34 17 17 34 17 17 34 17 17 34 17 17 34 17 17 34 17 17 34 17 17 34 17 17 34 17 17 34 17 17 34 17 17 34 17 17 34 17 17 34 17 17 34 17 17 34 34 34 51 34 34 51 34 34 51 34 34 51 34 34 51 34 34 51 34 34 51 34 34 51 51 68 85 51 68 85 51 68 85 51 68 85 51 68 85 51 68 85 51 68 85 51 68 85 51 68 85 51 68 85 51 68 85 51 68 85 51 68 85 51 68 85 51 68 85 51 68 85 51 68 85 51 68 85 51 68 85 51 68 85 51 68 85 51 68 85 51 68 85 51 68 85 51 68 85 51 68 85 51 68 85 51 68 85 34 34 51 34 34 51 34 34 51 34 34 51 119 136 153 119 136 153 119 136 153 119 136 153 119 136 153 119 136 153 119 136 153 119 136 153 0 170 221 0 170 221 0 170 221 0 170 221 0 170 221 0 170 221 0 170 221 0 170 221 119 136 153 119 136 153 119 136 153 119 136 153 119 136 153 119 136 153 119 136 153 119 136 153 34 34 51 34 34 51 34 34 51 34 34 51 51 68 85 51 68 85 51 68 85 51 68 85 51 68 85 51 68 85 51 68 85 51 68 85 51 68 85 51 68 85 51 68 85 51 68 85 51 68 85 51 68 85 51 68 85 51 68 85 51 68 85 51 68 85 51 68 85 51 68 85 51 68 85 51 68 85 51 68 85 51 68 85 51 68 85 51 68 85 51 68 85 51 68 85 34 34 51 34 34 51 34 34 51 34 34 51 34 34 51 34 34 51 34 34 51 34 34 51 17 17 34 17 17 34 17 17 34 17 17 34 17 17 34 17 17 34 17 17 34 17 17 34 17 17 34 17 17 34 17 17 34 17 17 34 17 17 34 17 17 34 17 17 34 17 17 34 17 17 34 17 17 34 17 17 34 17 17 34 17 17 34 17 17 34 17 17 34 17 17 34 17 17 34 17 17 34 17 17 34 17 17 34 17 17 34 17 17 34 17 17 34 17 17 34 17 17 34 17 17 34 17 17 34 17 17 34 17 17 34 17 17 34 17 17 34 17 17 34 17 17 34 17 17 34 17 17 34 17 17 34 17 17 34 17 17 34 17 17 34 17 17 34 17 17 34 17 17 34 17 17 34 17 17 34 17 17 34 17 17 34 17 17 34 17 17 34 17 17 34 17 17 34 17 17 34 17 17 34 17 17 34 17 17 34 17 17 34 17 17 34 17 17 34 17 17 34 17 17 34 17 17 34 17 17 34 17 17 34 17 17 34 17 17 34 17 17 34 17 17 34 17 17 34 17 17 34 17 17 34 17 17 34 17 17 34 17 17 34 17 17 34 17 17 34 17 17 34 17 17 34 17 17 34 17 17 34 17 17 34 17 17 34 17 17 34 17 17 34 17 17 34 17 17 34 17 17 34 17 17 34 17 17 34 17 17 34 17 17 34 17 17 34 17 17 34 17 17 34 17 17 34 17 17 34 17 17 34 17 17 34 17 17 34 17 17 34 17 17 34 17 17 34
51 68 85 51 68 85 51 68 85 51 68 85 85 102 119 85 102 119 85 102 119 85 102 119 85 102 119 85 102 119 85 102 119 85 102 119 85 102 119 85 102 119 85 102 119 85 102 119 85 102 119 85 102 119 85 102 119 85 102 119 85 102 119 85 102 119 85 102 119 85 102 119 85 102 119 85 102 119 85 102 119 85 102 119 85 102 119 85 102 119 85 102 119 85 102 119 85 102 119 85 102 119 85 102 119 85 102 119 85 102 119 85 102 119 85 102 119 85 102 119 85 102 119 85 102 119 85 102 119 85 102 119 85 102 119 85 102 119 85 102 119 85 102 119 85 102 119 85 102 119 85 102 119 85 102 119 85 102 119 85 102 119 85 102 119 85 102 119 85 102 119 85 102 119 85 102 119 85 102 119 85 102 119 85 102 119 85 102 119 85 102 119 85 102 119 85 102 119 85 102 119 85 102 119 85 102 119 85 102 119 85 102 119 85 102 119 85 102 119 85 102 119 51 68 85 51 68 85 51 68 85 51 68 85 51 68 85 51 68 85 51 68 85 51 68 85 17 17 34 17 17 34 17 17 34 17 17 34 17 17 34 17 17 34 17 17 34 17 17 34 17 17 34 17 17 34 17 17 34 17 17 34 17 17 34 17 17 34 17 17 34 17 17 34 17 17 34 17 17 34 17 17 34 17 17 34 17 17 34 17 17 34 17 17 34 17 17 34 17 17 34 17 17 34 34 34 51 34 34 51 34 34 51 34 34 51 34 34 51 34 34 51 34 34 51 34 34 51 51 68 85 51 68 85 51 68 85 51 68 85 51 68 85 51 68 85 51 68 85 51 68 85 51 68 85 51 68 85 51 68 85 51 68 85 51 68 85 51 68 85 51 68 85 51 68 85 51 68 85 51 68 85 51 68 85 51 68 85 51 68 85 51 68 85 51 68 85 51 68 85 51 68 85 51 68 85 51 68 85 51 68 85 34 34 51 34 34 51 34 34 51 34 34 51 119 136 153 119 136 153 119 136 153 119 136 153 119 136 153 119 136 153 119 136 153 119 136 153 0 170 221 0 170 221 0 170 221 0 170 221 0 170 221 0 170 221 0 170 221 0 170 221 119 136 153 119 136 153 119 136 153 119 136 153 119 136 153 119 136 153 119 136 153 119 136 153 34 34 51 34 34 51 34 34 51 34 34 51 51 68 85 51 68 85 51 68 85 51 68 85 51 68 85 51 68 85 51 68 85 51 68 85 51 68 85 51 68 85 51 68 85 51 68 85 51 68 85 51 68 85 51 68 85 51 68 85 51 68 85 51 68 85 51 68 85 51 68 85 51 68 85 51 68 85 51 68 85 51 68 85 51 68 85 51 68 85 51 68 85 51 68 85 34 34 51 34 34 51 34 34 51 34 34 51 34 34 51 34 34 51 34 34 51 34 34 51 17 17 34 17 17 34 17 17 34 17 17 34 17 17 34 17 17 34 17 17 34 17 17 34 17 17 34 17 17 34 17 17 34 17 17 34 17 17 34 17 17 34 17 17 34 17 17 34 17 17 34 17 17 34 17 17 34 17 17 34 17 17 34 17 17 34 17 17 34 17 17 34 17 17 34 17 17 34 17 17 34 17 17 34 17 17 34 17 17 34 17 17 34 17 17 34 17 17 34 17 17 34 17 17 34 17 17 34 17 17 34 17 17 34 17 17 34 17 17 34 17 17 34 17 17 34 17 17 34 17 17 34 17 17 34 17 17 34 17 17 34 17 17 34 17 17 34 17 17 34 17 17 34 17 17 34 17 17 34 17 17 34 17 17 34 17 17 34 17 17 34 17 17 34 17 17 34 17 17 34 17 17 34 17 17 34 17 17 34 17 17 34 17 17 34 17 17 34 17 17 34 17 17 34 17 17 34 17 17 34 17 17 34 17 17 34 17 17 34 17 17 34 17 17 34 17 17 34 17 17 34 17 17 34 17 17 34 17 17 34 17 17 34 17 17 34 17 17 34 17 17 34 17 17 34 17 17 34 17 17 34 17 17 34 17 17 34 17 17 34 17 17 34 17 17 34 17 17 34 17 17 34 17 17 34 17 17 34 17 17 34 17 17 34 17 17 34 17 17 34 17 17 34 17 17 34 17 17 34 17 17 34 17 17 34 17 17 34 17 17 34 17 17 34
51 68 85 51 68 85 51 68 85 51 68 85 85 102 119 85 102 119 85 102 119 85 102 119 85 102 119 85 102 119 85 102 119 85 102 119 85 102 119 85 102 119 85 102 119 85 102 119 85 102 119 85 102 119 85 102 119 85 102 119 85 102 119 85 102 119 85 102 119 85 102 119 85 102 119 85 102 119 85 102 119 85 102 119 85 102 119 85 102 119 85 102 119 85 102 119 85 102 119 85 102 119 85 102 119 85 102 119 85 102 119 85 102 119 85 102 119 85 102 119 85 102 119 85 102 119 85 102 119 85 102 119 85 102 119 85 102 119 85 102 119 85 102 119 85 102 119 85 102 119 85 102 119 85 102 119 85 102 119 85 102 119 85 102 119 85 102 119 85 102 119 85 102 119 85 102 119 85 102 119 85 102 119 85 102 119 85 102 119 85 102 119 85 102 119 85 102 119 85 102 119 85 102 119 85 102 119 85 102 119 85 102 119 85 102 119 85 102 119 85 102 119 51 68 85 51 68 85 51 68 85 51 68 85 51 68 85 51 68 85 51 68 85 51 68 85 17 17 34 17 17 34 17 17 34 17 17 34 17 17 34 17 17 34 17 17 34 17 17 34 17 17 34 17 17 34 17 17 34 17 17 34 17 17 34 17 17 34 17 17 34 17 17 34 17 17 34 17 17 34 17 17 34 17 17 34 17 17 34 17 17 34 17 17 34 17 17 34 17 17 34 17 17 34 34 34 51 34 34 51 34 34 51 34 34 51 34 34 51 34 34 51 34 34 51 34 34 51 51 68 85 51 68 85 51 68 85 51 68 85 51 68 85 51 68 85 51 68 85 51 68 85 51 68 85 51 68 85 51 68 85 51 68 85 51 68 85 51 68 85 51 68 85 51 68 85 51 68 85 51 68 85 51 68 85 51 68 85 51 68 85 51 68 85 51 68 85 51 68 85 51 68 85 51 68 85 51 68 85 51 68 85 34 34 51 34 34 51 34 34 51 34 34 51 119 136 153 119 136 153 119 136 153 119 136 153 119 136 153 119 136 153 119 136 153 119 136 153 0 170 221 0 170 221 0 170 221 0 170 221 0 170 221 0 170 221 0 170 221 0 170 221 119 136 153 119 136 153 119 136 153 119 136 153 119 136 153 119 136 153 119 136 153 119 136 153 34 34 51 34 34 51 34 34 51 34 34 51 51 68 85 51 68 85 51 68 85 51 68 85 51 68 85 51 68 85 51 68 85 51 68 85 51 68 85 51 68 85 51 68 85 51 68 85 51 68 85 51 68 85 51 68 85 51 68 85 51 68 85 51 68 85 51 68 85 51 68 85 51 68 85 51 68 85 51 68 85 51 68 85 51 68 85 51 68 85 51 68 85 51 68 85 34 34 51 34 34 51 34 34 51 34 34 51 34 34 51 34 34 51 34 34 51 34 34 51 17 17 34 17 17 34 17 17 34 17 17 34 17 17 34 17 17 34 17 17 34 17 17 34 17 17 34 17 17 34 17 17 34 17 17 34 17 17 34 17 17 34 17 17 34 17 17 34 17 17 34 17 17 34 17 17 34 17 17 34 17 17 34 17 17 34 17 17 34 17 17 34 17 17 34 17 17 34 17 17 34 17 17 34 17 17 34 17 17 34 17 17 34 17 17 34 17 17 34 17 17 34 17 17 34 17 17 34 17 17 34 17 17 34 17 17 34 17 17 34 17 17 34 17 17 34 17 17 34 17 17 34 17 17 34 17 17 34 17 17 34 17 17 34 17 17 34 17 17 34 17 17 34 17 17 34 17 17 34 17 17 34 17 17 34 17 17 34 17 17 34 17 17 34 17 17 34 17 17 34 17 17 34 17 17 34 17 17 34 17 17 34 17 17 34 17 17 34 17 17 34 17 17 34 17 17 34 17 17 34 17 17 34 17 17 34 17 17 34 17 17 34 17 17 34 17 17 34 17 17 34 17 17 34 17 17 34 17 17 34 17 17 34 17 17 34 17 17 34 17 17 34 17 17 34 17 17 34 17 17 34 17 17 34 17 17 34 17 17 34 17 17 34 17 17 34 17 17 34 17 17 34 17 17 34 17 17 34 17 17 34 17 17 34 17 17 34 17 17 34 17 17 34 17 17 34 17 17 34 17 17 34 17 17 34 17 17 34 17 17 34 17 17 34
51 68 85 51 68 85 51 68 85 51 68 85 85 102 119 85 102 119 85 102 119 85 102 119 85 102 119 85 102 119 85 102 119 85 102 119 85 102 119 85 102 119 85 102 119 85 102 119 85 102 119 85 102 119 85 102 119 85 102 119 85 102 119 85 102 119 85 102 119 85 102 119 85 102 119 85 102 119 85 102 119 85 102 119 85 102 119 85 102 119 85 102 119 85 102 119 85 102 119 85 102 119 85 102 119 85 102 119 85 102 119 85 102 119 85 102 119 85 102 119 85 102 119 85 102 119 85 102 119 85 102 119 85 102 119 85 102 119 85 102 119 85 102 119 85 102 119 85 102 119 85 102 119 85 102 119 85 102 119 85 102 119 85 102 119 85 102 119 85 102 119 85 102 119 85 102 119 85 102 119 85 102 119 85 102 119 85 102 119 85 102 119 85 102 119 85 102 119 85 102 119 85 102 119 85 102 119 85 102 119 85 102 119 85 102 119 85 102 119 85 102 119 51 68 85 51 68 85 51 68 85 51 68 85 51 68 85 51 68 85 51 68 85 51 68 85 17 17 34 17 17 34 17 17 34 17 17 34 17 17 34 17 17 34 17 17 34 17 17 34 17 17 34 17 17 34 17 17 34 17 17 34 17 17 34 17 17 34 17 17 34 17 17 34 17 17 34 17 17 34 17 17 34 17 17 34 17 17 34 17 17 34 17 17 34 17 17 34 17 17 34 17 17 34 34 34 51 34 34 51 34 34 51 34 34 51 34 34 51 34 34 51 34 34 51 34 34 51 51 68 85 51 68 85 51 68 85 51 68 85 51 68 85 51 68 85 51 68 85 51 68 85 51 68 85 51 68 85 51 68 85 51 68 85 51 68 85 51 68 85 51 68 85 51 68 85 51 68 85 51 68 85 51 68 85 51 68 85 51 68 85 51 68 85 51 68 85 51 68 85 51 68 85 51 68 85 51 68 85 51 68 85 34 34 51 34 34 51 34 34 51 34 34 51 119 136 153 119 136 153 119 136 153 119 136 153 119 136 153 119 136 153 119 136 153 119 136 153 0 170 221 0 170 221 0 170 221 0 170 221 0 170 221 0 170 221 0 170 221 0 170 221 119 136 153 119 136 153 119 136 153 119 136 153 119 136 153 119 136 153 119 136 153 119 136 153 34 34 51 34 34 51 34 34 51 34 34 51 51 68 85 51 68 85 51 68 85 51 68 85 51 68 85 51 68 85 51 68 85 51 68 85 51 68 85 51 68 85 51 68 85 51 68 85 51 68 85 51 68 85 51 68 85 51 68 85 51 68 85 51 68 85 51 68 85 51 68 85 51 68 85 51 68 85 51 68 85 51 68 85 51 68 85 51 68 85 51 68 85 51 68 85 34 34 51 34 34 51 34 34 51 34 34 51 34 34 51 34 34 51 34 34 51 34 34 51 17 17 34 17 17 34 17 17 34 17 17 34 17 17 34 17 17 34 17 17 34 17 17 34 17 17 34 17 17 34 17 17 34 17 17 34 17 17 34 17 17 34 17 17 34 17 17 34 17 17 34 17 17 34 17 17 34 17 17 34 17 17 34 17 17 34 17 17 34 17 17 34 17 17 34 17 17 34 17 17 34 17 17 34 17 17 34 17 17 34 17 17 34 17 17 34 17 17 34 17 17 34 17 17 34 17 17 34 17 17 34 17 17 34 17 17 34 17 17 34 17 17 34 17 17 34 17 17 34 17 17 34 17 17 34 17 17 34 17 17 34 17 17 34 17 17 34 17 17 34 17 17 34 17 17 34 17 17 34 17 17 34 17 17 34 17 17 34 17 17 34 17 17 34 17 17 34 17 17 34 17 17 34 17 17 34 17 17 34 17 17 34 17 17 34 17 17 34 17 17 34 17 17 34 17 17 34 17 17 34 17 17 34 17 17 34 17 17 34 17 17 34 17 17 34 17 17 34 17 17 34 17 17 34 17 17 34 17 17 34 17 17 34 17 17 34 17 17 34 17 17 34 17 17 34 17 17 34 17 17 34 17 17 34 17 17 34 17 17 34 17 17 34 17 17 34 17 17 34 17 17 34 17 17 34 17 17 34 17 17 34 17 17 34 17 17 34 17 17 34 17 17 34 17 17 34 17 17 34 17 17 34 17 17 34 17 17 34 17 17 34 17 17 34
51 68 85 51 68 85 51 68 85 51 68 85 85 102 119 85 102 119 85 102 119 85 102 119 85 102 119 85 102 119 85 102 119 85 102 119 85 102 119 85 102 119 85 102 119 85 102 119 85 102 119 85 102 119 85 102 119 85 102 119 85 102 119 85 102 119 85 102 119 85 102 119 85 102 119 85 102 119 85 102 119 85 102 119 85 102 119 85 102 119 85 102 119 85 102 119 85 102 119 85 102 119 85 102 119 85 102 119 85 102 119 85 102 119 85 102 119 85 102 119 85 102 119 85 102 119 85 102 119 85 102 119 85 102 119 85 102 119 85 102 119 85 102 119 85 102 119 85 102 119 85 102 119 85 102 119 85 102 119 85 102 119 85 102 119 85 102 119 85 102 119 85 102 119 85 102 119 85 102 119 85 102 119 85 102 119 85 102 119 85 102 119 85 102 119 85 102 119 85 102 119 85 102 119 85 102 119 85 102 119 85 102 119 85 102 119 85 102 119 85 102 119 51 68 85 51 68 85 51 68 85 51 68 85 51 68 85 51 68 85 51 68 85 51 68 85 17 17 34 17 17 34 17 17 34 17 17 34 17 17 34 17 17 34 17 17 34 17 17 34 17 17 34 17 17 34 17 17 34 17 17 34 17 17 34 17 17 34 17 17 34 17 17 34 17 17 34 17 17 34 17 17 34 17 17 34 17 17 34 17 17 34 17 17 34 17 17 34 17 17 34 17 17 34 34 34 51 34 34 51 34 34 51 34 34 51 34 34 51 34 34 51 34 34 51 34 34 51 51 68 85 51 68 85 51 68 85 51 68 85 51 68 85 51 68 85 51 68 85 51 68 85 51 68 85 51 68 85 51 68 85 51 68 85 51 68 85 51 68 85 51 68 85 51 68 85 51 68 85 51 68 85 51 68 85 51 68 85 51 68 85 51 68 85 51 68 85 51 68 85 51 68 85 51 68 85 51 68 85 51 68 85 34 34 51 34 34 51 34 34 51 34 34 51 119 136 153 119 136 153 119 136 153 119 136 153 119 136 153 119 136 153 119 136 153 119 136 153 0 170 221 0 170 221 221 238 255 221 238 255 221 238 255 221 238 255 0 170 221 0 170 221 119 136 153 119 136 153 119 136 153 119 136 153 119 136 153 119 136 153 119 136 153 119 136 153 34 34 51 34 34 51 34 34 51 34 34 51 51 68 85 51 68 85 51 68 85 51 68 85 51 68 85 51 68 85 51 68 85 51 68 85 51 68 85 51 68 85 51 68 85 51 68 85 51 68 85 51 68 85 51 68 85 51 68 85 51 68 85 51 68 85 51 68 85 51 68 85 51 68 85 51 68 85 51 68 85 51 68 85 51 68 85 51 68 85 51 68 85 51 68 85 34 34 51 34 34 51 34 34 51 34 34 51 34 34 51 34 34 51 34 34 51 34 34 51 17 17 34 17 17 34 17 17 34 17 17 34 17 17 34 17 17 34 17 17 34 17 17 34 17 17 34 17 17 34 17 17 34 17 17 34 17 17 34 17 17 34 17 17 34 17 17 34 17 17 34 17 17 34 17 17 34 17 17 34 17 17 34 17 17 34 17 17 34 17 17 34 17 17 34 17 17 34 51 68 85 51 68 85 51 68 85 51 68 85 51 68 85 51 68 85 51 68 85 51 68 85 51 68 85 51 68 85 51 68 85 51 68 85 51 68 85 51 68 85 51 68 85 51 68 85 51 68 85 51 68 85 51 68 85 51 68 85 51 68 85 51 68 85 51 68 85 51 68 85 51 68 85 51 68 85 51 68 85 51 68 85 51 68 85 51 68 85 51 68 85 51 68 85 51 68 85 51 68 85 51 68 85 51 68 85 51 68 85 51 68 85 51 68 85 51 68 85 51 68 85 51 68 85 51 68 85 51 68 85 51 68 85 51 68 85 51 68 85 51 68 85 51 68 85 51 68 85 51 68 85 51 68 85 51 68 85 51 68 85 51 68 85 51 68 85 51 68 85 51 68 85 51 68 85 51 68 85 51 68 85 51 68 85 51 68 85 51 68 85 51 68 85 51 68 85 51 68 85 51 68 85 51 68 85 51 68 85 51 68 85 51 68 85 51 68 85 51 68 85 51 68 85 51 68 85 51 68 85 51 68 85 51 68 85 51 68 85 51 68 85 51 68 85
51 68 85 51 68 85 51 68 85 51 68 85 85 102 119 85 102 119 85 102 119 85 102 119 85 102 119 85 102 119 85 102 119 85 102 119 85 102 119 85 102 119 85 102 119 85 102 119 85 102 119 85 102 119 85 102 119 85 102 119 85 102 119 85 102 119 85 102 119 85 102 119 85 102 119 85 102 119 85 102 119 85 102 119 85 102 119 85 102 119 85 102 119 85 102 119 85 102 119 85 102 119 85 102 119 85 102 119 85 102 119 85 102 119 85 102 119 85 102 119 85 102 119 85 102 119 85 102 119 85 102 119 85 102 119 85 102 119 85 102 119 85 102 119 85 102 119 85 102 119 85 102 119 85 102 119 85 102 119 85 102 119 85 102 119 85 102 119 85 102 119 85 102 119 85 102 119 85 102 119 85 102 119 85 102 119 85 102 119 85 102 119 85 102 119 85 102 119 85 102 119 85 102 119 85 102 119 85 102 119 85 102 119 85 102 119 85 102 119 85 102 119 51 68 85 51 68 85 51 68 85 51 68 85 51 68 85 51 68 85 51 68 85 51 68 85 17 17 34 17 17 34 17 17 34 17 17 34 17 17 34 17 17 34 17 17 34 17 17 34 17 17 34 17 17 34 17 17 34 17 17 34 17 17 34 17 17 34 17 17 34 17 17 34 17 17 34 17 17 34 17 17 34 17 17 34 17 17 34 17 17 34 17 17 34 17 17 34 17 17 34 17 17 34 34 34 51 34 34 51 34 34 51 34 34 51 34 34 51 34 34 51 34 34 51 34 34 51 51 68 85 51 68 85 51 68 85 51 68 85 51 68 85 51 68 85 51 68 85 51 68 85 51 68 85 51 68 85 51 68 85 51 68 85 51 68 85 51 68 85 51 68 85 51 68 85 51 68 85 51 68 85 51 68 85 51 68 85 51 68 85 51 68 85 51 68 85 51 68 85 51 68 85 51 68 85 51 68 85 51 68 85 34 34 51 34 34 51 34 34 51 34 34 51 119 136 153 119 136 153 119 136 153 119 136 153 119 136 153 119 136 153 119 136 153 119 136 153 0 170 221 0 170 221 221 238 255 221 238 255 221 238 255 221 238 255 0 170 221 0 170 221 119 136 153 119 136 153 119 136 153 119 136 153 119 136 153 119 136 153 119 136 153 119 136 153 34 34 51 34 34 51 34 34 51 34 34 51 51 68 85 51 68 85 51 68 85 51 68 85 51 68 85 51 68 85 51 68 85 51 68 85 51 68 85 51 68 85 51 68 85 51 68 85 51 68 85 51 68 85 51 68 85 51 68 85 51 68 85 51 68 85 51 68 85 51 68 85 51 68 85 51 68 85 51 68 85 51 68 85 51 68 85 51 68 85 51 68 85 51 68 85 34 34 51 34 34 51 34 34 51 34 34 51 34 34 51 34 34 51 34 34 51 34 34 51 17 17 34 17 17 34 17 17 34 17 17 34 17 17 34 17 17 34 17 17 34 17 17 34 17 17 34 17 17 34 17 17 34 17 17 34 17 17 34 17 17 34 17 17 34 17 17 34 17 17 34 17 17 34 17 17 34 17 17 34 17 17 34 17 17 34 17 17 34 17 17 34 17 17 34 17 17 34 51 68 85 51 68 85 51 68 85 51 68 85 51 68 85 51 68 85 51 68 85 51 68 85 51 68 85 51 68 85 51 68 85 51 68 85 51 68 85 51 68 85 51 68 85 51 68 85 51 68 85 51 68 85 51 68 85 51 68 85 51 68 85 51 68 85 51 68 85 51 68 85 51 68 85 51 68 85 51 68 85 51 68 85 51 68 85 51 68 85 51 68 85 51 68 85 51 68 85 51 68 85 51 68 85 51 68 85 51 68 85 51 68 85 51 68 85 51 68 85 51 68 85 51 68 85 51 68 85 51 68 85 51 68 85 51 68 85 51 68 85 51 68 85 51 68 85 51 68 85 51 68 85 51 68 85 51 68 85 51 68 85 51 68 85 51 68 85 51 68 85 51 68 85 51 68 85 51 68 85 51 68 85 51 68 85 51 68 85 51 68 85 51 68 85 51 68 85 51 68 85 51 68 85 51 68 85 51 68 85 51 68 85 51 68 85 51 68 85 51 68 85 51 68 85 51 68 85 51 68 85 51 68 85 51 68 85 51 68 85 51 68 85 51 68 85
51 68 85 51 68 85 51 68 85 51 68 85 85 102 119 85 102 119 85 102 119 85 102 119 85 102 119 85 102 119 85 102 119 85 102 119 85 102 119 85 102 119 85 102 119 85 102 119 85 102 119 85 102 119 85 102 119 85 102 119 85 102 119 85 102 119 85 102 119 85 102 119 85 102 119 85 102 119 85 102 119 85 102 119 85 102 119 85 102 119 85 102 119 85 102 119 85 102 119 85 102 119 85 102 119 85 102 119 85 102 119 85 102 119 85 102 119 85 102 119 85 102 119 85 102 119 85 102 119 85 102 119 85 102 119 85 102 119 85 102 119 85 102 119 85 102 119 85 102 119 85 102 119 85 102 119 85 102 119 85 102 119 85 102 119 85 102 119 85 102 119 85 102 119 85 102 119 85 102 119 85 102 119 85 102 119 85 102 119 85 102 119 85 102 119 85 102 119 85 102 119 85 102 119 85 102 119 85 102 119 85 102 119 85 102 119 85 102 119 85 102 119 51 68 85 51 68 85 51 68 85 51 68 85 0 51 102 0 51 102 0 51 102 0 51 102 0 51 102 0 51 102 0 51 102 0 51 102 0 51 102 0 51 102 17 17 34 17 17 34 17 17 34 17 17 34 17 17 34 17 17 34 17 17 34 17 17 34 17 17 34 17 17 34 17 17 34 17 17 34 17 17 34 17 17 34 17 17 34 17 17 34 17 17 34 17 17 34 17 17 34 17 17 34 34 34 51 34 34 51 34 34 51 34 34 51 34 34 51 34 34 51 34 34 51 34 34 51 51 68 85 51 68 85 51 68 85 51 68 85 51 68 85 51 68 85 51 68 85 51 68 85 51 68 85 51 68 85 51 68 85 51 68 85 51 68 85 51 68 85 51 68 85 51 68 85 51 68 85 51 68 85 51 68 85 51 68 85 51 68 85 51 68 85 51 68 85 51 68 85 51 68 85 51 68 85 51 68 85 51 68 85 34 34 51 34 34 51 34 34 51 34 34 51 119 136 153 119 136 153 119 136 153 119 136 153 119 136 153 119 136 153 119 136 153 119 136 153 0 170 221 0 170 221 221 238 255 221 238 255 221 238 255 221 238 255 0 170 221 0 170 221 119 136 153 119 136 153 119 136 153 119 136 153 119 136 153 119 136 153 119 136 153 119 136 153 34 34 51 34 34 51 34 34 51 34 34 51 51 68 85 51 68 85 51 68 85 51 68 85 51 68 85 51 68 85 51 68 85 51 68 85 51 68 85 51 68 85 51 68 85 51 68 85 51 68 85 51 68 85 51 68 85 51 68 85 51 68 85 51 68 85 51 68 85 51 68 85 51 68 85 51 68 85 51 68 85 51 68 85 51 68 85 51 68 85 51 68 85 51 68 85 34 34 51 34 34 51 34 34 51 34 34 51 34 34 51 34 34 51 34 34 51 34 34 51 17 17 34 17 17 34 17 17 34 17 17 34 17 17 34 17 17 34 17 17 34 17 17 34 17 17 34 17 17 34 17 17 34 17 17 34 17 17 34 17 17 34 17 17 34 17 17 34 17 17 34 17 17 34 17 17 34 17 17 34 17 17 34 17 17 34 17 17 34 17 17 34 17 17 34 17 17 34 51 68 85 51 68 85 51 68 85 51 68 85 51 68 85 51 68 85 51 68 85 51 68 85 51 68 85 51 68 85 51 68 85 51 68 85 51 68 85 51 68 85 51 68 85 51 68 85 51 68 85 51 68 85 51 68 85 51 68 85 51 68 85 51 68 85 51 68 85 51 68 85 51 68 85 51 68 85 51 68 85 51 68 85 51 68 85 51 68 85 51 68 85 51 68 85 51 68 85 51 68 85 51 68 85 51 68 85 51 68 85 51 68 85 51 68 85 51 68 85 51 68 85 51 68 85 51 68 85 51 68 85 51 68 85 51 68 85 51 68 85 51 68 85 51 68 85 51 68 85 51 68 85 51 68 85 51 68 85 51 68 85 51 68 85 51 68 85 51 68 85 51 68 85 51 68 85 51 68 85 51 68 85 51 68 85 51 68 85 51 68 85 51 68 85 51 68 85 51 68 85 51 68 85 51 68 85 51 68 85 51 68 85 51 68 85 51 68 85 51 68 85 51 68 85 51 68 85 51 68 85 51 68 85 51 68 85 51 68 85 51 68 85 51 68 85
51 68 85 51 68 85 51 68 85 51 68 85 85 102 119 85 102 119 85 102 119 85 102 119 85 102 119 85 102 119 85 102 119 85 102 119 85 102 119 85 102 119 85 102 119 85 102 119 85 102 119 85 102 119 85 102 119 85 102 119 85 102 119 85 102 119 85 102 119 85 102 119 85 102 119 85 102 119 85 102 119 85 102 119 85 102 119 85 102 119 85 102 119 85 102 119 85 102 119 85 102 119 85 102 119 85 102 119 85 102 119 85 102 119 85 102 119 85 102 119 85 102 119 85 102 119 85 102 119 85 102 119 85 102 119 85 102 119 85 102 119 85 102 119 85 102 119 85 102 119 85 102 119 85 102 119 85 102 119 85 102 119 85 102 119 85 102 119 85 102 119 85 102 119 85 102 119 85 102 119 85 102 119 85 102 119 85 102 119 85 102 119 85 102 119 85 102 119 85 102 119 85 102 119 85 102 119 85 102 119 85 102 119 85 102 119 85 102 119 85 102 119 51 68 85 51 68 85 51 68 85 51 68 85 0 51 102 0 51 102 0 170 221 0 170 221 0 170 221 0 170 221 0 170 221 0 170 221 0 51 102 0 51 102 17 17 34 17 17 34 17 17 34 17 17 34 17 17 34 17 17 34 17 17 34 17 17 34 17 17 34 17 17 34 17 17 34 17 17 34 17 17 34 17 17 34 17 17 34 17 17 34 17 17 34 17 17 34 17 17 34 17 17 34 34 34 51 34 34 51 34 34 51 34 34 51 34 34 51 34 34 51 34 34 51 34 34 51 51 68 85 51 68 85 51 68 85 51 68 85 51 68 85 51 68 85 51 68 85 51 68 85 51 68 85 51 68 85 51 68 85 51 68 85 51 68 85 51 68 85 51 68 85 51 68 85 51 68 85 51 68 85 51 68 85 51 68 85 51 68 85 51 68 85 51 68 85 51 68 85 51 68 85 51 68 85 51 68 85 51 68 85 34 34 51 34 34 51 34 34 51 34 34 51 119 136 153 119 136 153 119 136 153 119 136 153 119 136 153 119 136 153 119 136 153 119 136 153 0 170 221 0 170 221 221 238 255 221 238 255 221 238 255 221 238 255 0 170 221 0 170 221 119 136 153 119 136 153 119 136 153 119 136 153 119 136 153 119 136 153 119 136 153 119 136 153 34 34 51 34 34 51 34 34 51 34 34 51 51 68 85 51 68 85 51 68 85 51 68 85 51 68 85 51 68 85 51 68 85 51 68 85 51 68 85 51 68 85 51 68 85 51 68 85 51 68 85 51 68 85 51 68 85 51 68 85 51 68 85 51 68 85 51 68 85 51 68 85 51 68 85 51 68 85 51 68 85 51 68 85 51 68 85 51 68 85 51 68 85 51 68 85 34 34 51 34 34 51 34 34 51 34 34 51 34 34 51 34 34 51 34 34 51 34 34 51 17 17 34 17 17 34 17 17 34 17 17 34 17 17 34 17 17 34 17 17 34 17 17 34 17 17 34 17 17 34 17 17 34 17 17 34 17 17 34 17 17 34 17 17 34 17 17 34 17 17 34 17 17 34 17 17 34 17 17 34 17 17 34 17 17 34 17 17 34 17 17 34 17 17 34 17 17 34 51 68 85 51 68 85 51 68 85 51 68 85 51 68 85 51 68 85 51 68 85 51 68 85 51 68 85 51 68 85 51 68 85 51 68 85 51 68 85 51 68 85 51 68 85 51 68 85 51 68 85 51 68 85 51 68 85 51 68 85 51 68 85 51 68 85 51 68 85 51 68 85 51 68 85 51 68 85 51 68 85 51 68 85 51 68 85 51 68 85 51 68 85 51 68 85 51 68 85 51 68 85 51 68 85 51 68 85 51 68 85 51 68 85 51 68 85 51 68 85 51 68 85 51 68 85 51 68 85 51 68 85 51 68 85 51 68 85 51 68 85 51 68 85 51 68 85 51 68 85 51 68 85 51 68 85 51 68 85 51 68 85 51 68 85 51 68 85 51 68 85 51 68 85 51 68 85 51 68 85 51 68 85 51 68 85 51 68 85 51 68 85 51 68 85 51 68 85 51 68 85 51 68 85 51 68 85 51 68 85 51 68 85 51 68 85 51 68 85 51 68 85 51 68 85 51 68 85 51 68 85 51 68 85 51 68 85 51 68 85 51 68 85 51 68 85
51 68 85 51 68 85 51 68 85 51 68 85 85 102 119 85 102 119 85 102 119 85 102 119 85 102 119 85 102 119 85 102 119 85 102 119 85 102 119 85 102 119 85 102 119 85 102 119 85 102 119 85 102 119 85 102 119 85 102 119 85 102 119 85 102 119 85 102 119 85 102 119 85 102 119 85 102 119 85 102 119 85 102 119 85 102 119 85 102 119 85 102 119 85 102 119 85 102 119 85 102 119 85 102 119 85 102 119 85 102 119 85 102 119 85 102 119 85 102 119 85 102 119 85 102 119 85 102 119 85 102 119 85 102 119 85 102 119 85 102 119 85 102 119 85 102 119 85 102 119 85 102 119 85 102 119 85 102 119 85 102 119 85 102 119 85 102 119 85 102 119 85 102 119 85 102 119 85 102 119 85 102 119 85 102 119 85 102 119 85 102 119 85 102 119 85 102 119 85 102 119 85 102 119 85 102 119 85 102 119 85 102 119 85 102 119 85 102 119 85 102 119 51 68 85 51 68 85 51 68 85 51 68 85 0 51 102 0 51 102 0 170 221 0 170 221 0 170 221 0 170 221 0 170 221 0 170 221 0 51 102 0 51 102 17 17 34 17 17 34 17 17 34 17 17 34 17 17 34 17 17 34 17 17 34 17 17 34 17 17 34 17 17 34 17 17 34 17 17 34 17 17 34 17 17 34 17 17 34 17 17 34 17 17 34 17 17 34 17 17 34 17 17 34 34 34 51 34 34 51 34 34 51 34 34 51 34 34 51 34 34 51 34 34 51 34 34 51 51 68 85 51 68 85 51 68 85 51 68 85 51 68 85 51 68 85 51 68 85 51 68 85 51 68 85 51 68 85 51 68 85 51 68 85 51 68 85 51 68 85 51 68 85 51 68 85 51 68 85 51 68 85 51 68 85 51 68 85 51 68 85 51 68 85 51 68 85 51 68 85 51 68 85 51 68 85 51 68 85 51 68 85 34 34 51 34 34 51 34 34 51 34 34 51 119 136 153 119 136 153 119 136 153 119 136 153 119 136 153 119 136 153 119 136 153 119 136 153 0 170 221 0 170 221 221 238 255 221 238 255 221 238 255 221 238 255 0 170 221 0 170 221 119 136 153 119 136 153 119 136 153 119 136 153 119 136 153 119 136 153 119 136 153 119 136 153 34 34 51 34 34 51 34 34 51 34 34 51 51 68 85 51 68 85 51 68 85 51 68 85 51 68 85 51 68 85 51 68 85 51 68 85 51 68 85 51 68 85 51 68 85 51 68 85 51 68 85 51 68 85 51 68 85 51 68 85 51 68 85 51 68 85 51 68 85 51 68 85 51 68 85 51 68 85 51 68 85 51 68 85 51 68 85 51 68 85 51 68 85 51 68 85 34 34 51 34 34 51 34 34 51 34 34 51 34 34 51 34 34 51 34 34 51 34 34 51 17 17 34 17 17 34 17 17 34 17 17 34 17 17 34 17 17 34 17 17 34 17 17 34 17 17 34 17 17 34 17 17 34 17 17 34 17 17 34 17 17 34 17 17 34 17 17 34 17 17 34 17 17 34 17 17 34 17 17 34 17 17 34 17 17 34 17 17 34 17 17 34 17 17 34 17 17 34 51 68 85 51 68 85 51 68 85 51 68 85 51 68 85 51 68 85 51 68 85 51 68 85 85 102 119 85 102 119 85 102 119 85 102 119 85 102 119 85 102 119 85 102 119 85 102 119 85 102 119 85 102 119 85 102 119 85 102 119 85 102 119 85 102 119 85 102 119 85 102 119 85 102 119 85 102 119 85 102 119 85 102 119 85 102 119 85 102 119 85 102 119 85 102 119 85 102 119 85 102 119 85 102 119 85 102 119 85 102 119 85 102 119 85 102 119 85 102 119 85 102 119 85 102 119 85 102 119 85 102 119 85 102 119 85 102 119 85 102 119 85 102 119 85 102 119 85 102 119 85 102 119 85 102 119 85 102 119 85 102 119 85 102 119 85 102 119 85 102 119 85 102 119 85 102 119 85 102 119 85 102 119 85 102 119 85 102 119 85 102 119 85 102 119 85 102 119 85 102 119 85 102 119 85 102 119 85 102 119 85 102 119 85 102 119 85 102 119 85 102 119 85 102 119 85 102 119 85 102 119 85 102 119 51 68 85 51 68 85 51 68 85 51 68 85
51 68 85 51 68 85 51 68 85 51 68 85 85 102 119 85 102 119 85 102 119 85 102 119 85 102 119 85 102 119 85 102 119 85 102 119 85 102 119 85 102 119 85 102 119 85 102 119 85 102 119 85 102 119 85 102 119 85 102 119 85 102 119 85 102 119 85 102 119 85 102 119 85 102 119 85 102 119 85 102 119 85 102 119 85 102 119 85 102 119 85 102 119 85 102 119 85 102 119 85 102 119 85 102 119 85 102 119 85 102 119 85 102 119 85 102 119 85 102 119 85 102 119 85 102 119 85 102 119 85 102 119 85 102 119 85 102 119 85 102 119 85 102 119 85 102 119 85 102 119 85 102 119 85 102 119 85 102 119 85 102 119 85 102 119 85 102 119 85 102 119 85 102 119 85 102 119 85 102 119 85 102 119 85 102 119 85 102 119 85 102 119 85 102 119 85 102 119 85 102 119 85 102 119 85 102 119 85 102 119 85 102 119 85 102 119 85 102 119 85 102 119 51 68 85 51 68 85 51 68 85 51 68 85 0 51 102 0 51 102 0 51 102 0 51 102 0 51 102 0 51 102 0 51 102 0 51 102 0 51 102 0 51 102 17 17 34 17 17 34 17 17 34 17 17 34 17 17 34 17 17 34 17 17 34 17 17 34 17 17 34 17 17 34 17 17 34 17 17 34 17 17 34 17 17 34 17 17 34 17 17 34 17 17 34 17 17 34 17 17 34 17 17 34 34 34 51 34 34 51 34 34 51 34 34 51 34 34 51 34 34 51 34 34 51 34 34 51 51 68 85 51 68 85 51 68 85 51 68 85 51 68 85 51 68 85 51 68 85 51 68 85 51 68 85 51 68 85 51 68 85 51 68 85 51 68 85 51 68 85 51 68 85 51 68 85 51 68 85 51 68 85 51 68 85 51 68 85 51 68 85 51 68 85 51 68 85 51 68 85 51 68 85 51 68 85 51 68 85 51 68 85 34 34 51 34 34 51 34 34 51 34 34 51 119 136 153 119 136 153 119 136 153 119 136 153 119 136 153 119 136 153 119 136 153 119 136 153 0 170 221 0 170 221 221 238 255 221 238 255 221 238 255 221 238 255 0 170 221 0 170 221 119 136 153 119 136 153 119 136 153 119 136 153 119 136 153 119 136 153 119 136 153 119 136 153 34 34 51 34 34 51 34 34 51 34 34 51 51 68 85 51 68 85 51 68 85 51 68 85 51 68 85 51 68 85 51 68 85 51 68 85 51 68 85 51 68 85 51 68 85 51 68 85 51 68 85 51 68 85 51 68 85 51 68 85 51 68 85 51 68 85 51 68 85 51 68 85 51 68 85 51 68 85 51 68 85 51 68 85 51 68 85 51 68 85 51 68 85 51 68 85 34 34 51 34 34 51 34 34 51 34 34 51 34 34 51 34 34 51 34 34 51 34 34 51 17 17 34 17 17 34 17 17 34 17 17 34 17 17 34 17 17 34 17 17 34 17 17 34 17 17 34 17 17 34 17 17 34 17 17 34 17 17 34 17 17 34 17 17 34 17 17 34 17 17 34 17 17 34 17 17 34 17 17 34 17 17 34 17 17 34 17 17 34 17 17 34 17 17 34 17 17 34 51 68 85 51 68 85 51 68 85 51 68 85 51 68 85 51 68 85 51 68 85 51 68 85 85 102 119 85 102 119 85 102 119 85 102 119 85 102 119 85 102 119 85 102 119 85 102 119 85 102 119 85 102 119 85 102 119 85 102 119 85 102 119 85 102 119 85 102 119 85 102 119 85 102 119 85 102 119 85 102 119 85 102 119 85 102 119 85 102 119 85 102 119 85 102 119 85 102 119 85 102 119 85 102 119 85 102 119 85 102 119 85 102 119 85 102 119 85 102 119 85 102 119 85 102 119 85 102 119 85 102 119 85 102 119 85 102 119 85 102 119 85 102 119 85 102 119 85 102 119 85 102 119 85 102 119 85 102 119 85 102 119 85 102 119 85 102 119 85 102 119 85 102 119 85 102 119 85 102 119 85 102 119 85 102 119 85 102 119 85 102 119 85 102 119 85 102 119 85 102 119 85 102 119 85 102 119 85 102 119 85 102 119 85 102 119 85 102 119 85 102 119 85 102 119 85 102 119 85 102 119 85 102 119 51 68 85 51 68 85 51 68 85 51 68 85
51 68 85 51 68 85 51 68 85 51 68 85 85 102 119 85 102 119 85 102 119 85 102 119 85 102 119 85 102 119 85 102 119 85 102 119 85 102 119 85 102 119 85 102 119 85 102 119 85 102 119 85 102 119 85 102 119 85 102 119 85 102 119 85 102 119 85 102 119 85 102 119 85 102 119 85 102 119 85 102 119 85 102 119 85 102 119 85 102 119 85 102 119 85 102 119 85 102 119 85 102 119 85 102 119 85 102 119 85 102 119 85 102 119 85 102 119 85 102 119 85 102 119 85 102 119 85 102 119 85 102 119 85 102 119 85 102 119 85 102 119 85 102 119 85 102 119 85 102 119 85 102 119 85 102 119 85 102 119 85 102 119 85 102 119 85 102 119 85 102 119 85 102 119 85 102 119 85 102 119 85 102 119 85 102 119 85 102 119 85 102 119 85 102 119 85 102 119 85 102 119 85 102 119 85 102 119 85 102 119 85 102 119 85 102 119 85 102 119 85 102 119 51 68 85 51 68 85 51 68 85 51 68 85 51 68 85 51 68 85 51 68 85 51 68 85 17 17 34 17 17 34 17 17 34 17 17 34 17 17 34 17 17 34 17 17 34 17 17 34 17 17 34 17 17 34 17 17 34 17 17 34 17 17 34 17 17 34 17 17 34 17 17 34 17 17 34 17 17 34 17 17 34 17 17 34 17 17 34 255 170 34 255 170 34 255 170 34 255 170 34 255 170 34 255 170 34 255 170 34 255 170 34 255 170 34 255 170 34 255 170 34 255 170 34 255 170 34 255 170 34 51 68 85 51 68 85 51 68 85 51 68 85 51 68 85 51 68 85 51 68 85 51 68 85 51 68 85 51 68 85 51 68 85 51 68 85 51 68 85 51 68 85 51 68 85 51 68 85 51 68 85 51 68 85 51 68 85 51 68 85 51 68 85 51 68 85 51 68 85 51 68 85 51 68 85 51 68 85 51 68 85 34 34 51 34 34 51 34 34 51 34 34 51 119 136 153 119 136 153 119 136 153 119 136 153 119 136 153 119 136 153 119 136 153 119 136 153 0 170 221 0 170 221 221 238 255 221 238 255 221 238 255 221 238 255 0 170 221 0 170 221 119 136 153 119 136 153 119 136 153 119 136 153 119 136 153 119 136 153 119 136 153 119 136 153 34 34 51 34 34 51 34 34 51 34 34 51 51 68 85 51 68 85 51 68 85 51 68 85 51 68 85 51 68 85 51 68 85 51 68 85 51 68 85 51 68 85 51 68 85 51 68 85 51 68 85 51 68 85 51 68 85 51 68 85 51 68 85 51 68 85 51 68 85 51 68 85 51 68 85 51 68 85 51 68 85 51 68 85 51 68 85 51 68 85 51 68 85 51 68 85 34 34 51 34 34 51 34 34 51 34 34 51 34 34 51 34 34 51 34 34 51 34 34 51 17 17 34 17 17 34 17 17 34 17 17 34 17 17 34 17 17 34 17 17 34 17 17 34 17 17 34 17 17 34 17 17 34 17 17 34 17 17 34 17 17 34 17 17 34 17 17 34 17 17 34 17 17 34 17 17 34 17 17 34 17 17 34 17 17 34 17 17 34 17 17 34 17 17 34 17 17 34 51 68 85 51 68 85 51 68 85 51 68 85 51 68 85 51 68 85 51 68 85 51 68 85 85 102 119 85 102 119 85 102 119 85 102 119 85 102 119 85 102 119 85 102 119 85 102 119 85 102 119 85 102 119 85 102 119 85 102 119 85 102 119 85 102 119 85 102 119 85 102 119 85 102 119 85 102 119 85 102 119 85 102 119 85 102 119 85 102 119 85 102 119 85 102 119 85 102 119 85 102 119 85 102 119 85 102 119 85 102 119 85 102 119 85 102 119 85 102 119 85 102 119 85 102 119 85 102 119 85 102 119 85 102 119 85 102 119 85 102 119 85 102 119 85 102 119 85 102 119 85 102 119 85 102 119 85 102 119 85 102 119 85 102 119 85 102 119 85 102 119 85 102 119 85 102 119 85 102 119 85 102 119 85 102 119 85 102 119 85 102 119 85 102 119 85 102 119 85 102 119 85 102 119 85 102 119 85 102 119 85 102 119 85 102 119 85 102 119 85 102 119 85 102 119 85 102 119 85 102 119 85 102 119 51 68 85 51 68 85 51 68 85 51 68 85
51 68 85 51 68 85 51 68 85 51 68 85 85 102 119 85 102 119 85 102 119 85 102 119 85 102 119 85 102 119 85 102 119 85 102 119 85 102 119 85 102 119 85 102 119 85 102 119 85 102 119 85 102 119 85 102 119 85 102 119 85 102 119 85 102 119 85 102 119 85 102 119 85 102 119 85 102 119 85 102 119 85 102 119 85 102 119 85 102 119 85 102 119 85 102 119 85 102 119 85 102 119 85 102 119 85 102 119 85 102 119 85 102 119 85 102 119 85 102 119 85 102 119 85 102 119 85 102 119 85 102 119 85 102 119 85 102 119 85 102 119 85 102 119 85 102 119 85 102 119 85 102 119 85 102 119 85 102 119 85 102 119 85 102 119 85 102 119 85 102 119 85 102 119 85 102 119 85 102 119 85 102 119 85 102 119 85 102 119 85 102 119 85 102 119 85 102 119 85 102 119 85 102 119 85 102 119 85 102 119 85 102 119 85 102 119 85 102 119 85 102 119 51 68 85 51 68 85 51 68 85 51 68 85 51 68 85 51 68 85 51 68 85 51 68 85 17 17 34 17 17 34 17 17 34 17 17 34 17 17 34 17 17 34 17 17 34 17 17 34 17 17 34 17 17 34 17 17 34 17 17 34 17 17 34 17 17 34 17 17 34 17 17 34 17 17 34 17 17 34 17 17 34 17 17 34 17 17 34 255 170 34 255 170 34 255 170 34 255 170 34 255 170 34 255 170 34 255 170 34 255 170 34 255 170 34 255 170 34 255 170 34 255 170 34 255 170 34 255 170 34 51 68 85 51 68 85 51 68 85 51 68 85 51 68 85 51 68 85 51 68 85 51 68 85 51 68 85 51 68 85 51 68 85 51 68 85 51 68 85 51 68 85 51 68 85 51 68 85 51 68 85 51 68 85 51 68 85 51 68 85 51 68 85 51 68 85 51 68 85 51 68 85 51 68 85 51 68 85 51 68 85 34 34 51 34 34 51 34 34 51 34 34 51 119 136 153 119 136 153 119 136 153 119 136 153 119 136 153 119 136 153 119 136 153 119 136 153 0 170 221 0 170 221 221 238 255 221 238 255 221 238 255 221 238 255 0 170 221 0 170 221 119 136 153 119 136 153 119 136 153 119 136 153 119 136 153 119 136 153 119 136 153 119 136 153 34 34 51 34 34 51 34 34 51 34 34 51 51 68 85 51 68 85 51 68 85 51 68 85 51 68 85 51 68 85 51 68 85 51 68 85 51 68 85 51 68 85 51 68 85 51 68 85 51 68 85 51 68 85 51 68 85 51 68 85 51 68 85 51 68 85 51 68 85 51 68 85 51 68 85 51 68 85 51 68 85 51 68 85 51 68 85 51 68 85 51 68 85 51 68 85 34 34 51 34 34 51 34 34 51 34 34 51 34 34 51 34 34 51 34 34 51 34 34 51 17 17 34 17 17 34 17 17 34 17 17 34 17 17 34 17 17 34 17 17 34 17 17 34 17 17 34 17 17 34 17 17 34 17 17 34 17 17 34 17 17 34 17 17 34 17 17 34 17 17 34 17 17 34 17 17 34 17 17 34 17 17 34 17 17 34 17 17 34 17 17 34 17 17 34 17 17 34 51 68 85 51 68 85 51 68 85 51 68 85 51 68 85 51 68 85 51 68 85 51 68 85 85 102 119 85 102 119 85 102 119 85 102 119 85 102 119 85 102 119 85 102 119 85 102 119 85 102 119 85 102 119 85 102 119 85 102 119 85 102 119 85 102 119 85 102 119 85 102 119 85 102 119 85 102 119 85 102 119 85 102 119 85 102 119 85 102 119 85 102 119 85 102 119 85 102 119 85 102 119 85 102 119 85 102 119 85 102 119 85 102 119 85 102 119 85 102 119 85 102 119 85 102 119 85 102 119 85 102 119 85 102 119 85 102 119 85 102 119 85 102 119 85 102 119 85 102 119 85 102 119 85 102 119 85 102 119 85 102 119 85 102 119 85 102 119 85 102 119 85 102 119 85 102 119 85 102 119 85 102 119 85 102 119 85 102 119 85 102 119 85 102 119 85 102 119 85 102 119 85 102 119 85 102 119 85 102 119 85 102 119 85 102 119 85 102 119 85 102 119 85 102 119 85 102 119 85 102 119 85 102 119 51 68 85 51 68 85 51 68 85 51 68 85
51 68 85 51 68 85 51 68 85 51 68 85 85 102 119 85 102 119 85 102 119 85 102 119 85 102 119 85 102 119 85 102 119 85 102 119 85 102 119 85 102 119 85 102 119 85 102 119 85 102 119 85 102 119 85 102 119 85 102 119 85 102 119 85 102 119 85 102 119 85 102 119 85 102 119 85 102 119 85 102 119 85 102 119 85 102 119 85 102 119 85 102 119 85 102 119 85 102 119 85 102 119 85 102 119 85 102 119 85 102 119 85 102 119 85 102 119 85 102 119 85 102 119 85 102 119 85 102 119 85 102 119 85 102 119 85 102 119 85 102 119 85 102 119 85 102 119 85 102 119 85 102 119 85 102 119 85 102 119 85 102 119 85 102 119 85 102 119 85 102 119 85 102 119 85 102 119 85 102 119 85 102 119 85 102 119 85 102 119 85 102 119 85 102 119 85 102 119 85 102 119 85 102 119 85 102 119 85 102 119 85 102 119 85 102 119 85 102 119 85 102 119 51 68 85 51 68 85 51 68 85 51 68 85 51 68 85 51 68 85 51 68 85 51 68 85 17 17 34 17 17 34 17 17 34 17 17 34 17 17 34 17 17 34 17 17 34 17 17 34 17 17 34 17 17 34 17 17 34 17 17 34 17 17 34 17 17 34 17 17 34 17 17 34 17 17 34 17 17 34 17 17 34 17 17 34 17 17 34 255 170 34 255 170 34 255 170 34 255 170 34 255 170 34 255 170 34 255 170 34 255 170 34 255 170 34 255 170 34 255 170 34 255 170 34 255 170 34 255 170 34 51 68 85 51 68 85 51 68 85 51 68 85 51 68 85 51 68 85 51 68 85 51 68 85 51 68 85 51 68 85 51 68 85 51 68 85 51 68 85 51 68 85 51 68 85 51 68 85 51 68 85 51 68 85 51 68 85 51 68 85 51 68 85 51 68 85 51 68 85 51 68 85 51 68 85 51 68 85 51 68 85 34 34 51 34 34 51 34 34 51 34 34 51 119 136 153 119 136 153 119 136 153 119 136 153 119 136 153 119 136 153 119 136 153 119 136 153 0 170 221 0 170 221 221 238 255 221 238 255 221 238 255 221 238 255 0 170 221 0 170 221 119 136 153 119 136 153 119 136 153 119 136 153 119 136 153 119 136 153 119 136 153 119 136 153 34 34 51 34 34 51 34 34 51 34 34 51 51 68 85 51 68 85 51 68 85 51 68 85 51 68 85 51 68 85 51 68 85 51 68 85 51 68 85 51 68 85 51 68 85 51 68 85 51 68 85 51 68 85 51 68 85 51 68 85 51 68 85 51 68 85 51 68 85 51 68 85 51 68 85 51 68 85 51 68 85 51 68 85 51 68 85 51 68 85 51 68 85 255 170 34 255 170 34 255 170 34 255 170 34 255 170 34 255 170 34 255 170 34 255 170 34 255 170 34 255 170 34 255 170 34 255 170 34 255 170 34 255 170 34 17 17 34 17 17 34 17 17 34 17 17 34 17 17 34 17 17 34 17 17 34 17 17 34 17 17 34 17 17 34 17 17 34 17 17 34 17 17 34 17 17 34 17 17 34 17 17 34 17 17 34 17 17 34 17 17 34 17 17 34 17 17 34 51 68 85 51 68 85 51 68 85 51 68 85 51 68 85 51 68 85 51 68 85 51 68 85 85 102 119 85 102 119 85 102 119 85 102 119 85 102 119 85 102 119 85 102 119 85 102 119 85 102 119 85 102 119 85 102 119 85 102 119 85 102 119 85 102 119 85 102 119 85 102 119 85 102 119 85 102 119 85 102 119 85 102 119 85 102 119 85 102 119 85 102 119 85 102 119 85 102 119 85 102 119 85 102 119 85 102 119 85 102 119 85 102 119 85 102 119 85 102 119 85 102 119 85 102 119 85 102 119 85 102 119 85 102 119 85 102 119 85 102 119 85 102 119 85 102 119 85 102 119 85 102 119 85 102 119 85 102 119 85 102 119 85 102 119 85 102 119 85 102 119 85 102 119 85 102 119 85 102 119 85 102 119 85 102 119 85 102 119 85 102 119 85 102 119 85 102 119 85 102 119 85 102 119 85 102 119 85 102 119 85 102 119 85 102 119 85 102 119 85 102 119 85 102 119 85 102 119 85 102 119 85 102 119 51 68 85 51 68 85 51 68 85 51 68 85
51 68 85 51 68 85 51 68 85 51 68 85 85 102 119 85 102 119 85 102 119 85 102 119 85 102 119 85 102 119 85 102 119 85 102 119 85 102 119 85 102 119 85 102 119 85 102 119 85 102 119 85 102 119 85 102 119 85 102 119 85 102 119 85 102 119 85 102 119 85 102 119 85 102 119 85 102 119 85 102 119 85 102 119 85 102 119 85 102 119 85 102 119 85 102 119 85 102 119 85 102 119 85 102 119 85 102 119 85 102 119 85 102 119 85 102 119 85 102 119 85 102 119 85 102 119 85 102 119 85 102 119 85 102 119 85 102 119 85 102 119 85 102 119 85 102 119 85 102 119 85 102 119 85 102 119 85 102 119 85 102 119 85 102 119 85 102 119 85 102 119 85 102 119 85 102 119 85 102 119 85 102 119 85 102 119 85 102 119 85 102 119 85 102 119 85 102 119 85 102 119 85 102 119 85 102 119 85 102 119 85 102 119 85 102 119 85 102 119 85 102 119 51 68 85 51 68 85 51 68 85 51 68 85 51 68 85 51 68 85 51 68 85 51 68 85 17 17 34 17 17 34 17 17 34 17 17 34 17 17 34 17 17 34 17 17 34 17 17 34 17 17 34 17 17 34 17 17 34 17 17 34 17 17 34 17 17 34 17 17 34 17 17 34 17 17 34 17 17 34 17 17 34 17 17 34 17 17 34 255 170 34 255 170 34 255 170 34 255 170 34 255 170 34 255 170 34 255 170 34 255 170 34 255 170 34 255 170 34 255 170 34 255 170 34 255 170 34 255 170 34 51 68 85 51 68 85 51 68 85 51 68 85 51 68 85 51 68 85 51 68 85 51 68 85 51 68 85 51 68 85 51 68 85 51 68 85 51 68 85 51 68 85 51 68 85 51 68 85 51 68 85 51 68 85 51 68 85 51 68 85 51 68 85 51 68 85 51 68 85 51 68 85 51 68 85 51 68 85 51 68 85 34 34 51 34 34 51 34 34 51 34 34 51 119 136 153 119 136 153 119 136 153 119 136 153 119 136 153 119 136 153 119 136 153 119 136 153 0 170 221 0 170 221 221 238 255 221 238 255 221 238 255 221 238 255 0 170 221 0 170 221 119 136 153 119 136 153 119 136 153 119 136 153 119 136 153 119 136 153 119 136 153 119 136 153 34 34 51 34 34 51 34 34 51 34 34 51 51 68 85 51 68 85 51 68 85 51 68 85 51 68 85 51 68 85 51 68 85 51 68 85 51 68 85 51 68 85 51 68 85 51 68 85 51 68 85 51 68 85 51 68 85 51 68 85 51 68 85 51 68 85 51 68 85 51 68 85 51 68 85 51 68 85 51 68 85 51 68 85 51 68 85 51 68 85 51 68 85 255 170 34 255 170 34 255 170 34 255 170 34 255 170 34 255 170 34 255 170 34 255 170 34 255 170 34 255 170 34 255 170 34 255 170 34 255 170 34 255 170 34 17 17 34 17 17 34 17 17 34 17 17 34 17 17 34 17 17 34 17 17 34 17 17 34 17 17 34 17 17 34 17 17 34 17 17 34 17 17 34 17 17 34 17 17 34 17 17 34 17 17 34 17 17 34 17 17 34 17 17 34 17 17 34 51 68 85 51 68 85 51 68 85 51 68 85 51 68 85 51 68 85 51 68 85 51 68 85 85 102 119 85 102 119 85 102 119 85 102 119 85 102 119 85 102 119 85 102 119 85 102 119 85 102 119 85 102 119 85 102 119 85 102 119 85 102 119 85 102 119 85 102 119 85 102 119 85 102 119 85 102 119 85 102 119 85 102 119 85 102 119 85 102 119 85 102 119 85 102 119 85 102 119 85 102 119 85 102 119 85 102 119 85 102 119 85 102 119 85 102 119 85 102 119 85 102 119 85 102 119 85 102 119 85 102 119 85 102 119 85 102 119 85 102 119 85 102 119 85 102 119 85 102 119 85 102 119 85 102 119 85 102 119 85 102 119 85 102 119 85 102 119 85 102 119 85 102 119 85 102 119 85 102 119 85 102 119 85 102 119 85 102 119 85 102 119 85 102 119 85 102 119 85 102 119 85 102 119 85 102 119 85 102 119 85 102 119 85 102 119 85 102 119 85 102 119 85 102 119 85 102 119 85 102 119 85 102 119 51 68 85 51 68 85 51 68 85 51 68 85
51 68 85 51 68 85 51 68 85 51 68 85 85 102 119 85 102 119 85 102 119 85 102 119 85 102 119 85 102 119 85 102 119 85 102 119 85 102 119 85 102 119 85 102 119 85 102 119 85 102 119 85 102 119 85 102 119 85 102 119 85 102 119 85 102 119 85 102 119 85 102 119 85 102 119 85 102 119 85 102 119 85 102 119 85 102 119 85 102 119 85 102 119 85 102 119 85 102 119 85 102 119 85 102 119 85 102 119 85 102 119 85 102 119 85 102 119 85 102 119 85 102 119 85 102 119 85 102 119 85 102 119 85 102 119 85 102 119 85 102 119 85 102 119 85 102 119 85 102 119 85 102 119 85 102 119 85 102 119 85 102 119 85 102 119 85 102 119 85 102 119 85 102 119 85 102 119 85 102 119 85 102 119 85 102 119 85 102 119 85 102 119 85 102 119 85 102 119 85 102 119 85 102 119 85 102 119 85 102 119 85 102 119 85 102 119 85 102 119 85 102 119 51 68 85 51 68 85 51 68 85 51 68 85 51 68 85 51 68 85 51 68 85 51 68 85 17 17 34 17 17 34 17 17 34 17 17 34 17 17 34 17 17 34 17 17 34 17 17 34 17 17 34 17 17 34 17 17 34 17 17 34 17 17 34 17 17 34 17 17 34 17 17 34 17 17 34 17 17 34 17 17 34 17 17 34 17 17 34 255 170 34 255 170 34 255 170 34 255 170 34 255 170 34 255 170 34 255 170 34 255 170 34 255 170 34 255 170 34 255 170 34 255 170 34 255 170 34 255 170 34 51 68 85 51 68 85 51 68 85 51 68 85 51 68 85 51 68 85 51 68 85 51 68 85 51 68 85 51 68 85 51 68 85 51 68 85 51 68 85 51 68 85 51 68 85 51 68 85 51 68 85 51 68 85 51 68 85 51 68 85 51 68 85 51 68 85 51 68 85 51 68 85 51 68 85 51 68 85 51 68 85 34 34 51 34 34 51 34 34 51 34 34 51 119 136 153 119 136 153 119 136 153 119 136 153 119 136 153 119 136 153 119 136 153 119 136 153 0 170 221 0 170 221 221 238 255 221 238 255 221 238 255 221 238 255 0 170 221 0 170 221 119 136 153 119 136 153 119 136 153 119 136 153 119 136 153 119 136 153 119 136 153 119 136 153 34 34 51 34 34 51 34 34 51 34 34 51 51 68 85 51 68 85 51 68 85 51 68 85 51 68 85 51 68 85 51 68 85 51 68 85 51 68 85 51 68 85 51 68 85 51 68 85 51 68 85 51 68 85 51 68 85 51 68 85 51 68 85 51 68 85 51 68 85 51 68 85 51 68 85 51 68 85 51 68 85 51 68 85 51 68 85 51 68 85 51 68 85 255 170 34 255 170 34 255 170 34 255 170 34 255 170 34 255 170 34 255 170 34 255 170 34 255 170 34 255 170 34 255 170 34 255 170 34 255 170 34 255 170 34 17 17 34 17 17 34 17 17 34 17 17 34 17 17 34 17 17 34 17 17 34 17 17 34 17 17 34 17 17 34 17 17 34 17 17 34 17 17 34 17 17 34 17 17 34 0 51 102 0 51 102 0 51 102 0 51 102 0 51 102 0 51 102 0 51 102 0 51 102 0 51 102 0 51 102 51 68 85 51 68 85 51 68 85 51 68 85 85 102 119 85 102 119 85 102 119 85 102 119 85 102 119 85 102 119 85 102 119 85 102 119 85 102 119 85 102 119 85 102 119 85 102 119 85 102 119 85 102 119 85 102 119 85 102 119 85 102 119 85 102 119 85 102 119 85 102 119 85 102 119 85 102 119 85 102 119 85 102 119 85 102 119 85 102 119 85 102 119 85 102 119 85 102 119 85 102 119 85 102 119 85 102 119 85 102 119 85 102 119 85 102 119 85 102 119 85 102 119 85 102 119 85 102 119 85 102 119 85 102 119 85 102 119 85 102 119 85 102 119 85 102 119 85 102 119 85 102 119 85 102 119 85 102 119 85 102 119 85 102 119 85 102 119 85 102 119 85 102 119 85 102 119 85 102 119 85 102 119 85 102 119 85 102 119 85 102 119 85 102 119 85 102 119 85 102 119 85 102 119 85 102 119 85 102 119 85 102 119 85 102 119 85 102 119 85 102 119 51 68 85 51 68 85 51 68 85 51 68 85
51 68 85 51 68 85 51 68 85 51 68 85 85 102 119 85 102 119 85 102 119 85 102 119 85 102 119 85 102 119 85 102 119 85 102 119 85 102 119 85 102 119 85 102 119 85 102 119 85 102 119 85 102 119 85 102 119 85 102 119 85 102 119 85 102 119 85 102 119 85 102 119 85 102 119 85 102 119 85 102 119 85 102 119 85 102 119 85 102 119 85 102 119 85 102 119 85 102 119 85 102 119 85 102 119 85 102 119 85 102 119 85 102 119 85 102 119 85 102 119 85 102 119 85 102 119 85 102 119 85 102 119 85 102 119 85 102 119 85 102 119 85 102 119 85 102 119 85 102 119 85 102 119 85 102 119 85 102 119 85 102 119 85 102 119 85 102 119 85 102 119 85 102 119 85 102 119 85 102 119 85 102 119 85 102 119 85 102 119 85 102 119 85 102 119 85 102 119 85 102 119 85 102 119 85 102 119 85 102 119 85 102 119 85 102 119 85 102 119 85 102 119 51 68 85 51 68 85 51 68 85 51 68 85 51 68 85 51 68 85 51 68 85 51 68 85 17 17 34 17 17 34 17 17 34 17 17 34 17 17 34 17 17 34 17 17 34 17 17 34 17 17 34 17 17 34 17 17 34 17 17 34 17 17 34 17 17 34 17 17 34 17 17 34 17 17 34 17 17 34 17 17 34 17 17 34 17 17 34 255 170 34 255 170 34 255 170 34 255 170 34 255 170 34 255 170 34 255 170 34 255 170 34 255 170 34 255 170 34 255 170 34 255 170 34 255 170 34 255 170 34 51 68 85 51 68 85 51 68 85 51 68 85 51 68 85 51 68 85 51 68 85 51 68 85 51 68 85 51 68 85 51 68 85 51 68 85 51 68 85 51 68 85 51 68 85 51 68 85 51 68 85 51 68 85 51 68 85 51 68 85 51 68 85 51 68 85 51 68 85 51 68 85 51 68 85 51 68 85 51 68 85 34 34 51 34 34 51 34 34 51 34 34 51 119 136 153 119 136 153 119 136 153 119 136 153 119 136 153 119 136 153 119 136 153 119 136 153 0 170 221 0 170 221 221 238 255 221 238 255 221 238 255 221 238 255 0 170 221 0 170 221 119 136 153 119 136 153 119 136 153 119 136 153 119 136 153 119 136 153 119 136 153 119 136 153 34 34 51 34 34 51 34 34 51 34 34 51 51 68 85 51 68 85 51 68 85 51 68 85 51 68 85 51 68 85 51 68 85 51 68 85 51 68 85 51 68 85 51 68 85 51 68 85 51 68 85 51 68 85 51 68 85 51 68 85 51 68 85 51 68 85 51 68 85 51 68 85 51 68 85 51 68 85 51 68 85 51 68 85 51 68 85 51 68 85 51 68 85 255 170 34 255 170 34 255 170 34 255 170 34 255 170 34 255 170 34 255 170 34 255 170 34 255 170 34 255 170 34 255 170 34 255 170 34 255 170 34 255 170 34 17 17 34 17 17 34 17 17 34 17 17 34 17 17 34 17 17 34 17 17 34 17 17 34 17 17 34 17 17 34 17 17 34 17 17 34 17 17 34 17 17 34 17 17 34 0 51 102 0 51 102 0 170 221 0 170 221 0 170 221 0 170 221 0 170 221 0 170 221 0 51 102 0 51 102 51 68 85 51 68 85 51 68 85 51 68 85 85 102 119 85 102 119 85 102 119 85 102 119 85 102 119 85 102 119 85 102 119 85 102 119 85 102 119 85 102 119 85 102 119 85 102 119 85 102 119 85 102 119 85 102 119 85 102 119 85 102 119 85 102 119 85 102 119 85 102 119 85 102 119 85 102 119 85 102 119 85 102 119 85 102 119 85 102 119 85 102 119 85 102 119 85 102 119 85 102 119 85 102 119 85 102 119 85 102 119 85 102 119 85 102 119 85 102 119 85 102 119 85 102 119 85 102 119 85 102 119 85 102 119 85 102 119 85 102 119 85 102 119 85 102 119 85 102 119 85 102 119 85 102 119 85 102 119 85 102 119 85 102 119 85 102 119 85 102 119 85 102 119 85 102 119 85 102 119 85 102 119 85 102 119 85 102 119 85 102 119 85 102 119 85 102 119 85 102 119 85 102 119 85 102 119 85 102 119 85 102 119 85 102 119 85 102 119 85 102 119 51 68 85 51 68 85 51 68 85 51 68 85
51 68 85 51 68 85 51 68 85 51 68 85 85 102 119 85 102 119 85 102 119 85 102 119 85 102 119 85 102 119 85 102 119 85 102 119 85 102 119 85 102 119 85 102 119 85 102 119 85 102 119 85 102 119 85 102 119 85 102 119 85 102 119 85 102 119 85 102 119 85 102 119 85 102 119 85 102 119 85 102 119 85 102 119 85 102 119 85 102 119 85 102 119 85 102 119 85 102 119 85 102 119 85 102 119 85 102 119 85 102 119 85 102 119 85 102 119 85 102 119 85 102 119 85 102 119 85 102 119 85 102 119 85 102 119 85 102 119 85 102 119 85 102 119 85 102 119 85 102 119 85 102 119 85 102 119 85 102 119 85 102 119 85 102 119 85 102 119 85 102 119 85 102 119 85 102 119 85 102 119 85 102 119 85 102 119 85 102 119 85 102 119 85 102 119 85 102 119 85 102 119 85 102 119 85 102 119 85 102 119 85 102 119 85 102 119 85 102 119 85 102 119 51 68 85 51 68 85 51 68 85 51 68 85 51 68 85 51 68 85 51 68 85 51 68 85 17 17 34 17 17 34 17 17 34 17 17 34 17 17 34 17 17 34 17 17 34 17 17 34 17 17 34 17 17 34 17 17 34 17 17 34 17 17 34 17 17 34 17 17 34 17 17 34 17 17 34 17 17 34 17 17 34 17 17 34 17 17 34 17 17 34 17 17 34 17 17 34 17 17 34 17 17 34 34 34 51 34 34 51 34 34 51 34 34 51 34 34 51 34 34 51 34 34 51 34 34 51 51 68 85 51 68 85 51 68 85 51 68 85 51 68 85 51 68 85 51 68 85 51 68 85 51 68 85 51 68 85 51 68 85 51 68 85 51 68 85 51 68 85 51 68 85 51 68 85 51 68 85 51 68 85 51 68 85 51 68 85 51 68 85 51 68 85 51 68 85 51 68 85 51 68 85 51 68 85 51 68 85 51 68 85 34 34 51 34 34 51 34 34 51 34 34 51 119 136 153 119 136 153 119 136 153 119 136 153 119 136 153 119 136 153 119 136 153 119 136 153 0 170 221 0 170 221 0 170 221 0 170 221 0 170 221 0 170 221 0 170 221 0 170 221 119 136 153 119 136 153 119 136 153 119 136 153 119 136 153 119 136 153 119 136 153 119 136 153 34 34 51 34 34 51 34 34 51 34 34 51 51 68 85 51 68 85 51 68 85 51 68 85 51 68 85 51 68 85 51 68 85 51 68 85 51 68 85 51 68 85 51 68 85 51 68 85 51 68 85 51 68 85 51 68 85 51 68 85 51 68 85 51 68 85 51 68 85 51 68 85 51 68 85 51 68 85 51 68 85 51 68 85 51 68 85 51 68 85 51 68 85 255 170 34 255 170 34 255 170 34 255 170 34 255 170 34 255 170 34 255 170 34 255 170 34 255 170 34 255 170 34 255 170 34 255 170 34 255 170 34 255 170 34 17 17 34 17 17 34 17 17 34 17 17 34 17 17 34 17 17 34 17 17 34 17 17 34 17 17 34 17 17 34 17 17 34 17 17 34 17 17 34 17 17 34 17 17 34 0 51 102 0 51 102 0 170 221 0 170 221 0 170 221 0 170 221 0 170 221 0 170 221 0 51 102 0 51 102 51 68 85 51 68 85 51 68 85 51 68 85 85 102 119 85 102 119 85 102 119 85 102 119 85 102 119 85 102 119 85 102 119 85 102 119 85 102 119 85 102 119 85 102 119 85 102 119 85 102 119 85 102 119 85 102 119 85 102 119 85 102 119 85 102 119 85 102 119 85 102 119 85 102 119 85 102 119 85 102 119 85 102 119 85 102 119 85 102 119 85 102 119 85 102 119 85 102 119 85 102 119 85 102 119 85 102 119 85 102 119 85 102 119 85 102 119 85 102 119 85 102 119 85 102 119 85 102 119 85 102 119 85 102 119 85 102 119 85 102 119 85 102 119 85 102 119 85 102 119 85 102 119 85 102 119 85 102 119 85 102 119 85 102 119 85 102 119 85 102 119 85 102 119 85 102 119 85 102 119 85 102 119 85 102 119 85 102 119 85 102 119 85 102 119 85 102 119 85 102 119 85 102 119 85 102 119 85 102 119 85 102 119 85 102 119 85 102 119 85 102 119 51 68 85 51 68 85 51 68 85 51 68 85
51 68 85 51 68 85 51 68 85 51 68 85 85 102 119 85 102 119 85 102 119 85 102 119 85 102 119 85 102 119 85 102 119 85 102 119 85 102 119 85 102 119 85 102 119 85 102 119 85 102 119 85 102 119 85 102 119 85 102 119 85 102 119 85 102 119 85 102 119 85 102 119 85 102 119 85 102 119 85 102 119 85 102 119 85 102 119 85 102 119 85 102 119 85 102 119 85 102 119 85 102 119 85 102 119 85 102 119 85 102 119 85 102 119 85 102 119 85 102 119 85 102 119 85 102 119 85 102 119 85 102 119 85 102 119 85 102 119 85 102 119 85 102 119 85 102 119 85 102 119 85 102 119 85 102 119 85 102 119 85 102 119 85 102 119 85 102 119 85 102 119 85 102 119 85 102 119 85 102 119 85 102 119 85 102 119 85 102 119 85 102 119 85 102 119 85 102 119 85 102 119 85 102 119 85 102 119 85 102 119 85 102 119 85 102 119 85 102 119 85 102 119 51 68 85 51 68 85 51 68 85 51 68 85 51 68 85 51 68 85 51 68 85 51 68 85 17 17 34 17 17 34 17 17 34 17 17 34 17 17 34 17 17 34 17 17 34 17 17 34 17 17 34 17 17 34 17 17 34 17 17 34 17 17 34 17 17 34 17 17 34 17 17 34 17 17 34 17 17 34 17 17 34 17 17 34 17 17 34 17 17 34 17 17 34 17 17 34 17 17 34 17 17 34 34 34 51 34 34 51 34 34 51 34 34 51 34 34 51 34 34 51 34 34 51 34 34 51 51 68 85 51 68 85 51 68 85 51 68 85 51 68 85 51 68 85 51 68 85 51 68 85 51 68 85 51 68 85 51 68 85 51 68 85 51 68 85 51 68 85 51 68 85 51 68 85 51 68 85 51 68 85 51 68 85 51 68 85 51 68 85 51 68 85 51 68 85 51 68 85 51 68 85 51 68 85 51 68 85 51 68 85 34 34 51 34 34 51 34 34 51 34 34 51 119 136 153 119 136 153 119 136 153 119 136 153 119 136 153 119 136 153 119 136 153 119 136 153 0 170 221 0 170 221 0 170 221 0 170 221 0 170 221 0 170 221 0 170 221 0 170 221 119 136 153 119 136 153 119 136 153 119 136 153 119 136 153 119 136 153 119 136 153 119 136 153 34 34 51 34 34 51 34 34 51 34 34 51 51 68 85 51 68 85 51 68 85 51 68 85 51 68 85 51 68 85 51 68 85 51 68 85 51 68 85 51 68 85 51 68 85 51 68 85 51 68 85 51 68 85 51 68 85 51 68 85 51 68 85 51 68 85 51 68 85 51 68 85 51 68 85 51 68 85 51 68 85 51 68 85 51 68 85 51 68 85 51 68 85 255 170 34 255 170 34 255 170 34 255 170 34 255 170 34 255 170 34 255 170 34 255 170 34 255 170 34 255 170 34 255 170 34 255 170 34 255 170 34 255 170 34 17 17 34 17 17 34 17 17 34 17 17 34 17 17 34 17 17 34 17 17 34 17 17 34 17 17 34 17 17 34 17 17 34 17 17 34 17 17 34 17 17 34 17 17 34 0 51 102 0 51 102 0 51 102 0 51 102 0 51 102 0 51 102 0 51 102 0 51 102 0 51 102 0 51 102 51 68 85 51 68 85 51 68 85 51 68 85 85 102 119 85 102 119 85 102 119 85 102 119 85 102 119 85 102 119 85 102 119 85 102 119 85 102 119 85 102 119 85 102 119 85 102 119 85 102 119 85 102 119 85 102 119 85 102 119 85 102 119 85 102 119 85 102 119 85 102 119 85 102 119 85 102 119 85 102 119 85 102 119 85 102 119 85 102 119 85 102 119 85 102 119 85 102 119 85 102 119 85 102 119 85 102 119 85 102 119 85 102 119 85 102 119 85 102 119 85 102 119 85 102 119 85 102 119 85 102 119 85 102 119 85 102 119 85 102 119 85 102 119 85 102 119 85 102 119 85 102 119 85 102 119 85 102 119 85 102 119 85 102 119 85 102 119 85 102 119 85 102 119 85 102 119 85 102 119 85 102 119 85 102 119 85 102 119 85 102 119 85 102 119 85 102 119 85 102 119 85 102 119 85 102 119 85 102 119 85 102 119 85 102 119 85 102 119 85 102 119 51 68 85 51 68 85 51 68 85 51 68 85
51 68 85 51 68 85 51 68 85 51 68 85 85 102 119 85 102 119 85 102 119 85 102 119 85 102 119 85 102 119 85 102 119 85 102 119 85 102 119 85 102 119 85 102 119 85 102 119 85 102 119 85 102 119 85 102 119 85 102 119 85 102 119 85 102 119 85 102 119 85 102 119 85 102 119 85 102 119 85 102 119 85 102 119 85 102 119 85 102 119 85 102 119 85 102 119 85 102 119 85 102 119 85 102 119 85 102 119 85 102 119 85 102 119 85 102 119 85 102 119 85 102 119 85 102 119 85 102 119 85 102 119 85 102 119 85 102 119 85 102 119 85 102 119 85 102 119 85 102 119 85 102 119 85 102 119 85 102 119 85 102 119 85 102 119 85 102 119 85 102 119 85 102 119 85 102 119 85 102 119 85 102 119 85 102 119 85 102 119 85 102 119 85 102 119 85 102 119 85 102 119 85 102 119 85 102 119 85 102 119 85 102 119 85 102 119 85 102 119 85 102 119 51 68 85 51 68 85 51 68 85 51 68 85 51 68 85 51 68 85 51 68 85 51 68 85 17 17 34 17 17 34 17 17 34 17 17 34 17 17 34 17 17 34 17 17 34 17 17 34 17 17 34 17 17 34 17 17 34 17 17 34 17 17 34 17 17 34 17 17 34 17 17 34 17 17 34 17 17 34 17 17 34 17 17 34 17 17 34 17 17 34 17 17 34 17 17 34 17 17 34 17 17 34 34 34 51 34 34 51 34 34 51 34 34 51 34 34 51 34 34 51 34 34 51 34 34 51 51 68 85 51 68 85 51 68 85 51 68 85 51 68 85 51 68 85 51 68 85 51 68 85 51 68 85 51 68 85 51 68 85 51 68 85 51 68 85 51 68 85 51 68 85 51 68 85 51 68 85 51 68 85 51 68 85 51 68 85 51 68 85 51 68 85 51 68 85 51 68 85 51 68 85 51 68 85 51 68 85 51 68 85 34 34 51 34 34 51 34 34 51 34 34 51 119 136 153 119 136 153 119 136 153 119 136 153 119 136 153 119 136 153 119 136 153 119 136 153 0 170 221 0 170 221 0 170 221 0 170 221 0 170 221 0 170 221 0 170 221 0 170 221 119 136 153 119 136 153 119 136 153 119 136 153 119 136 153 119 136 153 119 136 153 119 136 153 34 34 51 34 34 51 34 34 51 34 34 51 51 68 85 51 68 85 51 68 85 51 68 85 51 68 85 51 68 85 51 68 85 51 68 85 51 68 85 51 68 85 51 68 85 51 68 85 51 68 85 51 68 85 51 68 85 51 68 85 51 68 85 51 68 85 51 68 85 51 68 85 51 68 85 51 68 85 51 68 85 51 68 85 51 68 85 51 68 85 51 68 85 51 68 85 34 34 51 34 34 51 34 34 51 34 34 51 34 34 51 34 34 51 34 34 51 34 34 51 17 17 34 17 17 34 17 17 34 17 17 34 17 17 34 17 17 34 17 17 34 17 17 34 17 17 34 17 17 34 17 17 34 17 17 34 17 17 34 17 17 34 17 17 34 17 17 34 17 17 34 17 17 34 17 17 34 17 17 34 17 17 34 17 17 34 17 17 34 17 17 34 17 17 34 17 17 34 51 68 85 51 68 85 51 68 85 51 68 85 51 68 85 51 68 85 51 68 85 51 68 85 85 102 119 85 102 119 85 102 119 85 102 119 85 102 119 85 102 119 85 102 119 85 102 119 85 102 119 85 102 119 85 102 119 85 102 119 85 102 119 85 102 119 85 102 119 85 102 119 85 102 119 85 102 119 85 102 119 85 102 119 85 102 119 85 102 119 85 102 119 85 102 119 85 102 119 85 102 119 85 102 119 85 102 119 85 102 119 85 102 119 85 102 119 85 102 119 85 102 119 85 102 119 85 102 119 85 102 119 85 102 119 85 102 119 85 102 119 85 102 119 85 102 119 85 102 119 85 102 119 85 102 119 85 102 119 85 102 119 85 102 119 85 102 119 85 102 119 85 102 119 85 102 119 85 102 119 85 102 119 85 102 119 85 102 119 85 102 119 85 102 119 85 102 119 85 102 119 85 102 119 85 102 119 85 102 119 85 102 119 85 102 119 85 102 119 85 102 119 85 102 119 85 102 119 85 102 119 85 102 119 51 68 85 51 68 85 51 68 85 51 68 85
51 68 85 51 68 85 51 68 85 51 68 85 85 102 119 85 102 119 85 102 119 85 102 119 85 102 119 85 102 119 85 102 119 85 102 119 85 102 119 85 102 119 85 102 119 85 102 119 85 102 119 85 102 119 85 102 119 85 102 119 85 102 119 85 102 119 85 102 119 85 102 119 85 102 119 85 102 119 85 102 119 85 102 119 85 102 119 85 102 119 85 102 119 85 102 119 85 102 119 85 102 119 85 102 119 85 102 119 85 102 119 85 102 119 85 102 119 85 102 119 85 102 119 85 102 119 85 102 119 85 102 119 85 102 119 85 102 119 85 102 119 85 102 119 85 102 119 85 102 119 85 102 119 85 102 119 85 102 119 85 102 119 85 102 119 85 102 119 85 102 119 85 102 119 85 102 119 85 102 119 85 102 119 85 102 119 85 102 119 85 102 119 85 102 119 85 102 119 85 102 119 85 102 119 85 102 119 85 102 119 85 102 119 85 102 119 85 102 119 85 102 119 51 68 85 51 68 85 51 68 85 51 68 85 51 68 85 51 68 85 51 68 85 51 68 85 17 17 34 17 17 34 17 17 34 17 17 34 17 17 34 17 17 34 17 17 34 17 17 34 17 17 34 17 17 34 17 17 34 17 17 34 17 17 34 17 17 34 17 17 34 17 17 34 17 17 34 17 17 34 17 17 34 17 17 34 17 17 34 17 17 34 17 17 34 17 17 34 17 17 34 17 17 34 34 34 51 34 34 51 34 34 51 34 34 51 34 34 51 34 34 51 34 34 51 34 34 51 51 68 85 51 68 85 51 68 85 51 68 85 51 68 85 51 68 85 51 68 85 51 68 85 51 68 85 51 68 85 51 68 85 51 68 85 51 68 85 51 68 85 51 68 85 51 68 85 51 68 85 51 68 85 51 68 85 51 68 85 51 68 85 51 68 85 51 68 85 51 68 85 51 68 85 51 68 85 51 68 85 51 68 85 34 34 51 34 34 51 34 34 51 34 34 51 119 136 153 119 136 153 119 136 153 119 136 153 119 136 153 119 136 153 119 136 153 119 136 153 0 170 221 0 170 221 0 170 221 0 170 221 0 170 221 0 170 221 0 170 221 0 170 221 119 136 153 119 136 153 119 136 153 119 136 153 119 136 153 119 136 153 119 136 153 119 136 153 34 34 51 34 34 51 34 34 51 34 34 51 51 68 85 51 68 85 51 68 85 51 68 85 51 68 85 51 68 85 51 68 85 51 68 85 51 68 85 51 68 85 51 68 85 51 68 85 51 68 85 51 68 85 51 68 85 51 68 85 51 68 85 51 68 85 51 68 85 51 68 85 51 68 85 51 68 85 51 68 85 51 68 85 51 68 85 51 68 85 51 68 85 51 68 85 34 34 51 34 34 51 34 34 51 34 34 51 34 34 51 34 34 51 34 34 51 34 34 51 17 17 34 17 17 34 17 17 34 17 17 34 17 17 34 17 17 34 17 17 34 17 17 34 17 17 34 17 17 34 17 17 34 17 17 34 17 17 34 17 17 34 17 17 34 17 17 34 17 17 34 17 17 34 17 17 34 17 17 34 17 17 34 17 17 34 17 17 34 17 17 34 17 17 34 17 17 34 51 68 85 51 68 85 51 68 85 51 68 85 51 68 85 51 68 85 51 68 85 51 68 85 85 102 119 85 102 119 85 102 119 85 102 119 85 102 119 85 102 119 85 102 119 85 102 119 85 102 119 85 102 119 85 102 119 85 102 119 85 102 119 85 102 119 85 102 119 85 102 119 85 102 119 85 102 119 85 102 119 85 102 119 85 102 119 85 102 119 85 102 119 85 102 119 85 102 119 85 102 119 85 102 119 85 102 119 85 102 119 85 102 119 85 102 119 85 102 119 85 102 119 85 102 119 85 102 119 85 102 119 85 102 119 85 102 119 85 102 119 85 102 119 85 102 119 85 102 119 85 102 119 85 102 119 85 102 119 85 102 119 85 102 119 85 102 119 85 102 119 85 102 119 85 102 119 85 102 119 85 102 119 85 102 119 85 102 119 85 102 119 85 102 119 85 102 119 85 102 119 85 102 119 85 102 119 85 102 119 85 102 119 85 102 119 85 102 119 85 102 119 85 102 119 85 102 119 85 102 119 85 102 119 51 68 85 51 68 85 51 68 85 51 68 85
51 68 85 51 68 85 51 68 85 51 68 85 51 68 85 51 68 85 51 68 85 51 68 85 51 68 85 51 68 85 51 68 85 51 68 85 51 68 85 51 68 85 51 68 85 51 68 85 51 68 85 51 68 85 51 68 85 51 68 85 51 68 85 51 68 85 51 68 85 51 68 85 51 68 85 51 68 85 51 68 85 51 68 85 51 68 85 51 68 85 51 68 85 51 68 85 51 68 85 51 68 85 51 68 85 51 68 85 51 68 85 51 68 85 51 68 85 51 68 85 51 68 85 51 68 85 51 68 85 51 68 85 51 68 85 51 68 85 51 68 85 51 68 85 51 68 85 51 68 85 51 68 85 51 68 85 51 68 85 51 68 85 51 68 85 51 68 85 51 68 85 51 68 85 51 68 85 51 68 85 51 68 85 51 68 85 51 68 85 51 68 85 51 68 85 51 68 85 51 68 85 51 68 85 51 68 85 51 68 85 51 68 85 51 68 85 51 68 85 51 68 85 51 68 85 51 68 85 51 68 85 51 68 85 51 68 85 51 68 85 51 68 85 51 68 85 17 17 34 17 17 34 17 17 34 17 17 34 17 17 34 17 17 34 17 17 34 17 17 34 17 17 34 17 17 34 17 17 34 17 17 34 17 17 34 17 17 34 17 17 34 17 17 34 17 17 34 17 17 34 17 17 34 17 17 34 17 17 34 17 17 34 17 17 34 17 17 34 17 17 34 17 17 34 34 34 51 34 34 51 34 34 51 34 34 51 34 34 51 34 34 51 34 34 51 34 34 51 51 68 85 51 68 85 51 68 85 51 68 85 51 68 85 51 68 85 51 68 85 51 68 85 51 68 85 51 68 85 51 68 85 51 68 85 51 68 85 51 68 85 51 68 85 51 68 85 51 68 85 51 68 85 51 68 85 51 68 85 51 68 85 51 68 85 51 68 85 51 68 85 51 68 85 51 68 85 51 68 85 51 68 85 34 34 51 34 34 51 34 34 51 34 34 51 119 136 153 119 136 153 119 136 153 119 136 153 119 136 153 119 136 153 119 136 153 119 136 153 119 136 153 119 136 153 119 136 153 119 136 153 119 136 153 119 136 153 119 136 153 119 136 153 119 136 153 119 136 153 119 136 153 119 136 153 119 136 153 119 136 153 119 136 153 119 136 153 34 34 51 34 34 51 34 34 51 34 34 51 51 68 85 51 68 85 51 68 85 51 68 85 51 68 85 51 68 85 51 68 85 51 68 85 51 68 85 51 68 85 51 68 85 51 68 85 51 68 85 51 68 85 51 68 85 51 68 85 51 68 85 51 68 85 51 68 85 51 68 85 51 68 85 51 68 85 51 68 85 51 68 85 51 68 85 51 68 85 51 68 85 51 68 85 34 34 51 34 34 51 34 34 51 34 34 51 34 34 51 34 34 51 34 34 51 34 34 51 17 17 34 17 17 34 17 17 34 17 17 34 17 17 34 17 17 34 17 17 34 17 17 34 17 17 34 17 17 34 17 17 34 17 17 34 17 17 34 17 17 34 17 17 34 17 17 34 17 17 34 17 17 34 17 17 34 17 17 34 17 17 34 17 17 34 17 17 34 17 17 34 17 17 34 17 17 34 51 68 85 51 68 85 51 68 85 51 68 85 51 68 85 51 68 85 51 68 85 51 68 85 85 102 119 85 102 119 85 102 119 85 102 119 85 102 119 85 102 119 85 102 119 85 102 119 85 102 119 85 102 119 85 102 119 85 102 119 85 102 119 85 102 119 85 102 119 85 102 119 85 102 119 85 102 119 85 102 119 85 102 119 85 102 119 85 102 119 85 102 119 85 102 119 85 102 119 85 102 119 85 102 119 85 102 119 85 102 119 85 102 119 85 102 119 85 102 119 85 102 119 85 102 119 85 102 119 85 102 119 85 102 119 85 102 119 85 102 119 85 102 119 85 102 119 85 102 119 85 102 119 85 102 119 85 102 119 85 102 119 85 102 119 85 102 119 85 102 119 85 102 119 85 102 119 85 102 119 85 102 119 85 102 119 85 102 119 85 102 119 85 102 119 85 102 119 85 102 119 85 102 119 85 102 119 85 102 119 85 102 119 85 102 119 85 102 119 85 102 119 85 102 119 85 102 119 85 102 119 85 102 119 51 68 85 51 68 85 51 68 85 51 68 85
51 68 85 51 68 85 51 68 85 51 68 85 51 68 85 51 68 85 51 68 85 51 68 85 51 68 85 51 68 85 51 68 85 51 68 85 51 68 85 51 68 85 51 68 85 51 68 85 51 68 85 51 68 85 51 68 85 51 68 85 51 68 85 51 68 85 51 68 85 51 68 85 51 68 85 51 68 85 51 68 85 51 68 85 51 68 85 51 68 85 51 68 85 51 68 85 51 68 85 51 68 85 51 68 85 51 68 85 51 68 85 51 68 85 51 68 85 51 68 85 51 68 85 51 68 85 51 68 85 51 68 85 51 68 85 51 68 85 51 68 85 51 68 85 51 68 85 51 68 85 51 68 85 51 68 85 51 68 85 51 68 85 51 68 85 51 68 85 51 68 85 51 68 85 51 68 85 51 68 85 51 68 85 51 68 85 51 68 85 51 68 85 51 68 85 51 68 85 51 68 85 51 68 85 51 68 85 51 68 85 51 68 85 51 68 85 51 68 85 51 68 85 51 68 85 51 68 85 51 68 85 51 68 85 51 68 85 51 68 85 51 68 85 51 68 85 17 17 34 17 17 34 17 17 34 17 17 34 17 17 34 17 17 34 17 17 34 17 17 34 17 17 34 17 17 34 17 17 34 17 17 34 17 17 34 17 17 34 17 17 34 17 17 34 17 17 34 17 17 34 17 17 34 17 17 34 17 17 34 17 17 34 17 17 34 17 17 34 17 17 34 17 17 34 34 34 51 34 34 51 34 34 51 34 34 51 34 34 51 34 34 51 34 34 51 34 34 51 51 68 85 51 68 85 51 68 85 51 68 85 51 68 85 51 68 85 51 68 85 51 68 85 51 68 85 51 68 85 51 68 85 51 68 85 51 68 85 51 68 85 51 68 85 51 68 85 51 68 85 51 68 85 51 68 85 51 68 85 51 68 85 51 68 85 51 68 85 51 68 85 51 68 85 51 68 85 51 68 85 51 68 85 34 34 51 34 34 51 34 34 51 34 34 51 119 136 153 119 136 153 119 136 153 119 136 153 119 136 153 119 136 153 119 136 153 119 136 153 119 136 153 119 136 153 119 136 153 119 136 153 119 136 153 119 136 153 119 136 153 119 136 153 119 136 153 119 136 153 119 136 153 119 136 153 119 136 153 119 136 153 119 136 153 119 136 153 34 34 51 34 34 51 34 34 51 34 34 51 51 68 85 51 68 85 51 68 85 51 68 85 51 68 85 51 68 85 51 68 85 51 68 85 51 68 85 51 68 85 51 68 85 51 68 85 51 68 85 51 68 85 51 68 85 51 68 85 51 68 85 51 68 85 51 68 85 51 68 85 51 68 85 51 68 85 51 68 85 51 68 85 51 68 85 51 68 85 51 68 85 51 68 85 34 34 51 34 34 51 34 34 51 34 34 51 34 34 51 34 34 51 34 34 51 34 34 51 17 17 34 17 17 34 17 17 34 17 17 34 17 17 34 17 17 34 17 17 34 17 17 34 17 17 34 17 17 34 17 17 34 17 17 34 17 17 34 17 17 34 17 17 34 17 17 34 17 17 34 17 17 34 17 17 34 17 17 34 17 17 34 17 17 34 17 17 34 17 17 34 17 17 34 17 17 34 51 68 85 51 68 85 51 68 85 51 68 85 51 68 85 51 68 85 51 68 85 51 68 85 85 102 119 85 102 119 85 102 119 85 102 119 85 102 119 85 102 119 85 102 119 85 102 119 85 102 119 85 102 119 85 102 119 85 102 119 85 102 119 85 102 119 85 102 119 85 102 119 85 102 119 85 102 119 85 102 119 85 102 119 85 102 119 85 102 119 85 102 119 85 102 119 85 102 119 85 102 119 85 102 119 85 102 119 85 102 119 85 102 119 85 102 119 85 102 119 85 102 119 85 102 119 85 102 119 85 102 119 85 102 119 85 102 119 85 102 119 85 102 119 85 102 119 85 102 119 85 102 119 85 102 119 85 102 119 85 102 119 85 102 119 85 102 119 85 102 119 85 102 119 85 102 119 85 102 119 85 102 119 85 102 119 85 102 119 85 102 119 85 102 119 85 102 119 85 102 119 85 102 119 85 102 119 85 102 119 85 102 119 85 102 119 85 102 119 85 102 119 85 102 119 85 102 119 85 102 119 85 102 119 51 68 85 51 68 85 51 68 85 51 68 85
51 68 85 51 68 85 51 68 85 51 68 85 51 68 85 51 68 85 51 68 85 51 68 85 51 68 85 51 68 85 51 68 85 51 68 85 51 68 85 51 68 85 51 68 85 51 68 85 51 68 85 51 68 85 51 68 85 51 68 85 51 68 85 51 68 85 51 68 85 51 68 85 51 68 85 51 68 85 51 68 85 51 68 85 51 68 85 51 68 85 51 68 85 51 68 85 51 68 85 51 68 85 51 68 85 51 68 85 51 68 85 51 68 85 51 68 85 51 68 85 51 68 85 51 68 85 51 68 85 51 68 85 51 68 85 51 68 85 51 68 85 51 68 85 51 68 85 51 68 85 51 68 85 51 68 85 51 68 85 51 68 85 51 68 85 51 68 85 51 68 85 51 68 85 51 68 85 51 68 85 51 68 85 51 68 85 51 68 85 51 68 85 51 68 85 51 68 85 51 68 85 51 68 85 51 68 85 51 68 85 51 68 85 51 68 85 51 68 85 51 68 85 51 68 85 51 68 85 51 68 85 51 68 85 51 68 85 51 68 85 51 68 85 51 68 85 17 17 34 17 17 34 17 17 34 17 17 34 17 17 34 17 17 34 17 17 34 17 17 34 17 17 34 17 17 34 17 17 34 17 17 34 17 17 34 17 17 34 17 17 34 17 17 34 17 17 34 17 17 34 17 17 34 17 17 34 17 17 34 17 17 34 17 17 34 17 17 34 17 17 34 17 17 34 34 34 51 34 34 51 34 34 51 34 34 51 34 34 51 34 34 51 34 34 51 34 34 51 51 68 85 51 68 85 51 68 85 51 68 85 51 68 85 51 68 85 51 68 85 51 68 85 51 68 85 51 68 85 51 68 85 51 68 85 51 68 85 51 68 85 51 68 85 51 68 85 51 68 85 51 68 85 51 68 85 51 68 85 51 68 85 51 68 85 51 68 85 51 68 85 51 68 85 51 68 85 51 68 85 51 68 85 34 34 51 34 34 51 34 34 51 34 34 51 119 136 153 119 136 153 119 136 153 119 136 153 119 136 153 119 136 153 119 136 153 119 136 153 119 136 153 119 136 153 119 136 153 119 136 153 119 136 153 119 136 153 119 136 153 119 136 153 119 136 153 119 136 153 119 136 153 119 136 153 119 136 153 119 136 153 119 136 153 119 136 153 34 34 51 34 34 51 34 34 51 34 34 51 51 68 85 51 68 85 51 68 85 51 68 85 51 68 85 51 68 85 51 68 85 51 68 85 51 68 85 51 68 85 51 68 85 51 68 85 51 68 85 51 68 85 51 68 85 51 68 85 51 68 85 51 68 85 51 68 85 51 68 85 51 68 85 51 68 85 51 68 85 51 68 85 51 68 85 51 68 85 51 68 85 51 68 85 34 34 51 34 34 51 34 34 51 34 34 51 34 34 51 34 34 51 34 34 51 34 34 51 17 17 34 17 17 34 17 17 34 17 17 34 17 17 34 17 17 34 17 17 34 17 17 34 17 17 34 17 17 34 17 17 34 17 17 34 17 17 34 17 17 34 17 17 34 17 17 34 17 17 34 17 17 34 17 17 34 17 17 34 17 17 34 17 17 34 17 17 34 17 17 34 17 17 34 17 17 34 51 68 85 51 68 85 51 68 85 51 68 85 51 68 85 51 68 85 51 68 85 51 68 85 85 102 119 85 102 119 85 102 119 85 102 119 85 102 119 85 102 119 85 102 119 85 102 119 85 102 119 85 102 119 85 102 119 85 102 119 85 102 119 85 102 119 85 102 119 85 102 119 85 102 119 85 102 119 85 102 119 85 102 119 85 102 119 85 102 119 85 102 119 85 102 119 85 102 119 85 102 119 85 102 119 85 102 119 85 102 119 85 102 119 85 102 119 85 102 119 85 102 119 85 102 119 85 102 119 85 102 119 85 102 119 85 102 119 85 102 119 85 102 119 85 102 119 85 102 119 85 102 119 85 102 119 85 102 119 85 102 119 85 102 119 85 102 119 85 102 119 85 102 119 85 102 119 85 102 119 85 102 119 85 102 119 85 102 119 85 102 119 85 102 119 85 102 119 85 102 119 85 102 119 85 102 119 85 102 119 85 102 119 85 102 119 85 102 119 85 102 119 85 102 119 85 102 119 85 102 119 85 102 119 51 68 85 51 68 85 51 68 85 51 68 85
51 68 85 51 68 85 51 68 85 51 68 85 51 68 85 51 68 85 51 68 85 51 68 85 51 68 85 51 68 85 51 68 85 51 68 85 51 68 85 51 68 85 51 68 85 51 68 85 51 68 85 51 68 85 51 68 85 51 68 85 51 68 85 51 68 85 51 68 85 51 68 85 51 68 85 51 68 85 51 68 85 51 68 85 51 68 85 51 68 85 51 68 85 51 68 85 51 68 85 51 68 85 51 68 85 51 68 85 51 68 85 51 68 85 51 68 85 51 68 85 51 68 85 51 68 85 51 68 85 51 68 85 51 68 85 51 68 85 51 68 85 51 68 85 51 68 85 51 68 85 51 68 85 51 68 85 51 68 85 51 68 85 51 68 85 51 68 85 51 68 85 51 68 85 51 68 85 51 68 85 51 68 85 51 68 85 51 68 85 51 68 85 51 68 85 51 68 85 51 68 85 51 68 85 51 68 85 51 68 85 51 68 85 51 68 85 51 68 85 51 68 85 51 68 85 51 68 85 51 68 85 51 68 85 51 68 85 51 68 85 51 68 85 51 68 85 17 17 34 17 17 34 17 17 34 17 17 34 17 17 34 17 17 34 17 17 34 17 17 34 17 17 34 17 17 34 17 17 34 17 17 34 17 17 34 17 17 34 17 17 34 17 17 34 17 17 34 17 17 34 17 17 34 17 17 34 17 17 34 17 17 34 17 17 34 17 17 34 17 17 34 17 17 34 34 34 51 34 34 51 34 34 51 34 34 51 34 34 51 34 34 51 34 34 51 34 34 51 51 68 85 51 68 85 51 68 85 51 68 85 51 68 85 51 68 85 51 68 85 51 68 85 51 68 85 51 68 85 51 68 85 51 68 85 51 68 85 51 68 85 51 68 85 51 68 85 51 68 85 51 68 85 51 68 85 51 68 85 51 68 85 51 68 85 51 68 85 51 68 85 51 68 85 51 68 85 51 68 85 51 68 85 34 34 51 34 34 51 34 34 51 34 34 51 119 136 153 119 136 153 119 136 153 119 136 153 119 136 153 119 136 153 119 136 153 119 136 153 119 136 153 119 136 153 119 136 153 119 136 153 119 136 153 119 136 153 119 136 153 119 136 153 119 136 153 119 136 153 119 136 153 119 136 153 119 136 153 119 136 153 119 136 153 119 136 153 34 34 51 34 34 51 34 34 51 34 34 51 51 68 85 51 68 85 51 68 85 51 68 85 51 68 85 51 68 85 51 68 85 51 68 85 51 68 85 51 68 85 51 68 85 51 68 85 51 68 85 51 68 85 51 68 85 51 68 85 51 68 85 51 68 85 51 68 85 51 68 85 51 68 85 51 68 85 51 68 85 51 68 85 51 68 85 51 68 85 51 68 85 51 68 85 34 34 51 34 34 51 34 34 51 34 34 51 34 34 51 34 34 51 34 34 51 34 34 51 17 17 34 17 17 34 17 17 34 17 17 34 17 17 34 17 17 34 17 17 34 17 17 34 17 17 34 17 17 34 17 17 34 17 17 34 17 17 34 17 17 34 17 17 34 17 17 34 17 17 34 17 17 34 17 17 34 17 17 34 17 17 34 17 17 34 17 17 34 17 17 34 17 17 34 17 17 34 51 68 85 51 68 85 51 68 85 51 68 85 51 68 85 51 68 85 51 68 85 51 68 85 85 102 119 85 102 119 85 102 119 85 102 119 85 102 119 85 102 119 85 102 119 85 102 119 85 102 119 85 102 119 85 102 119 85 102 119 85 102 119 85 102 119 85 102 119 85 102 119 85 102 119 85 102 119 85 102 119 85 102 119 85 102 119 85 102 119 85 102 119 85 102 119 85 102 119 85 102 119 85 102 119 85 102 119 85 102 119 85 102 119 85 102 119 85 102 119 85 102 119 85 102 119 85 102 119 85 102 119 85 102 119 85 102 119 85 102 119 85 102 119 85 102 119 85 102 119 85 102 119 85 102 119 85 102 119 85 102 119 85 102 119 85 102 119 85 102 119 85 102 119 85 102 119 85 102 119 85 102 119 85 102 119 85 102 119 85 102 119 85 102 119 85 102 119 85 102 119 85 102 119 85 102 119 85 102 119 85 102 119 85 102 119 85 102 119 85 102 119 85 102 119 85 102 119 85 102 119 85 102 119 51 68 85 51 68 85 51 68 85 51 68 85
17 17 34 17 17 34 17 17 34 17 17 34 17 17 34 17 17 34 17 17 34 17 17 34 17 17 34 17 17 34 17 17 34 17 17 34 17 17 34 17 17 34 17 17 34 17 17 34 17 17 34 17 17 34 17 17 34 17 17 34 17 17 34 17 17 34 17 17 34 17 17 34 17 17 34 17 17 34 17 17 34 17 17 34 17 17 34 17 17 34 17 17 34 17 17 34 17 17 34 17 17 34 17 17 34 17 17 34 17 17 34 17 17 34 17 17 34 17 17 34 17 17 34 17 17 34 17 17 34 17 17 34 17 17 34 17 17 34 17 17 34 17 17 34 17 17 34 17 17 34 17 17 34 17 17 34 17 17 34 17 17 34 17 17 34 17 17 34 17 17 34 17 17 34 17 17 34 17 17 34 17 17 34 17 17 34 17 17 34 17 17 34 17 17 34 17 17 34 17 17 34 17 17 34 17 17 34 17 17 34 17 17 34 17 17 34 17 17 34 17 17 34 17 17 34 17 17 34 17 17 34 17 17 34 17 17 34 17 17 34 17 17 34 17 17 34 17 17 34 17 17 34 17 17 34 17 17 34 17 17 34 17 17 34 17 17 34 17 17 34 17 17 34 17 17 34 17 17 34 17 17 34 17 17 34 17 17 34 17 17 34 17 17 34 17 17 34 17 17 34 17 17 34 17 17 34 17 17 34 17 17 34 17 17 34 17 17 34 17 17 34 17 17 34 34 34 51 34 34 51 34 34 51 34 34 51 34 34 51 34 34 51 34 34 51 34 34 51 51 68 85 51 68 85 51 68 85 51 68 85 51 68 85 51 68 85 51 68 85 51 68 85 51 68 85 51 68 85 51 68 85 51 68 85 51 68 85 51 68 85 51 68 85 51 68 85 51 68 85 51 68 85 51 68 85 51 68 85 51 68 85 51 68 85 51 68 85 51 68 85 51 68 85 51 68 85 51 68 85 51 68 85 34 34 51 34 34 51 34 34 51 34 34 51 119 136 153 119 136 153 119 136 153 119 136 153 119 136 153 119 136 153 119 136 153 119 136 153 119 136 153 119 136 153 119 136 153 119 136 153 119 136 153 119 136 153 119 136 153 119 136 153 119 136 153 119 136 153 119 136 153 119 136 153 119 136 153 119 136 153 119 136 153 119 136 153 34 34 51 34 34 51 34 34 51 34 34 51 51 68 85 51 68 85 51 68 85 51 68 85 51 68 85 51 68 85 51 68 85 51 68 85 51 68 85 51 68 85 51 68 85 51 68 85 51 68 85 51 68 85 51 68 85 51 68 85 51 68 85 51 68 85 51 68 85 51 68 85 51 68 85 51 68 85 51 68 85 51 68 85 51 68 85 51 68 85 51 68 85 51 68 85 34 34 51 34 34 51 34 34 51 34 34 51 34 34 51 34 34 51 34 34 51 34 34 51 17 17 34 17 17 34 17 17 34 17 17 34 17 17 34 17 17 34 17 17 34 17 17 34 17 17 34 17 17 34 17 17 34 17 17 34 17 17 34 17 17 34 17 17 34 17 17 34 17 17 34 17 17 34 17 17 34 17 17 34 17 17 34 17 17 34 17 17 34 17 17 34 17 17 34 17 17 34 51 68 85 51 68 85 51 68 85 51 68 85 51 68 85 51 68 85 51 68 85 51 68 85 51 68 85 51 68 85 51 68 85 51 68 85 51 68 85 51 68 85 51 68 85 51 68 85 51 68 85 51 68 85 51 68 85 51 68 85 51 68 85 51 68 85 51 68 85 51 68 85 51 68 85 51 68 85 51 68 85 51 68 85 51 68 85 51 68 85 51 68 85 51 68 85 51 68 85 51 68 85 51 68 85 51 68 85 51 68 85 51 68 85 51 68 85 51 68 85 51 68 85 51 68 85 51 68 85 51 68 85 51 68 85 51 68 85 51 68 85 51 68 85 51 68 85 51 68 85 51 68 85 51 68 85 51 68 85 51 68 85 51 68 85 51 68 85 51 68 85 51 68 85 51 68 85 51 68 85 51 68 85 51 68 85 51 68 85 51 68 85 51 68 85 51 68 85 51 68 85 51 68 85 51 68 85 51 68 85 51 68 85 51 68 85 51 68 85 51 68 85 51 68 85 51 68 85 51 68 85 51 68 85 51 68 85 51 68 85 51 68 85 51 68 85
17 17 34 17 17 34 17 17 34 17 17 34 17 17 34 17 17 34 17 17 34 17 17 34 17 17 34 17 17 34 17 17 34 17 17 34 17 17 34 17 17 34 17 17 34 17 17 34 17 17 34 17 17 34 17 17 34 17 17 34 17 17 34 17 17 34 17 17 34 17 17 34 17 17 34 17 17 34 17 17 34 17 17 34 17 17 34 17 17 34 17 17 34 17 17 34 17 17 34 17 17 34 17 17 34 17 17 34 17 17 34 17 17 34 17 17 34 17 17 34 17 17 34 17 17 34 17 17 34 17 17 34 17 17 34 17 17 34 17 17 34 17 17 34 17 17 34 17 17 34 17 17 34 17 17 34 17 17 34 17 17 34 17 17 34 17 17 34 17 17 34 17 17 34 17 17 34 17 17 34 17 17 34 17 17 34 17 17 34 17 17 34 17 17 34 17 17 34 17 17 34 17 17 34 17 17 34 17 17 34 17 17 34 17 17 34 17 17 34 17 17 34 17 17 34 17 17 34 17 17 34 17 17 34 17 17 34 17 17 34 17 17 34 17 17 34 17 17 34 17 17 34 17 17 34 17 17 34 17 17 34 17 17 34 17 17 34 17 17 34 17 17 34 17 17 34 17 17 34 17 17 34 17 17 34 17 17 34 17 17 34 17 17 34 17 17 34 17 17 34 17 17 34 17 17 34 17 17 34 17 17 34 17 17 34 17 17 34 17 17 34 17 17 34 34 34 51 34 34 51 34 34 51 34 34 51 34 34 51 34 34 51 34 34 51 34 34 51 51 68 85 51 68 85 51 68 85 51 68 85 51 68 85 51 68 85 51 68 85 51 68 85 51 68 85 51 68 85 51 68 85 51 68 85 51 68 85 51 68 85 51 68 85 51 68 85 51 68 85 51 68 85 51 68 85 51 68 85 51 68 85 51 68 85 51 68 85 51 68 85 51 68 85 51 68 85 51 68 85 51 68 85 34 34 51 34 34 51 34 34 51 34 34 51 119 136 153 119 136 153 119 136 153 119 136 153 119 136 153 119 136 153 119 136 153 119 136 153 119 136 153 119 136 153 119 136 153 119 136 153 119 136 153 119 136 153 119 136 153 119 136 153 119 136 153 119 136 153 119 136 153 119 136 153 119 136 153 119 136 153 119 136 153 119 136 153 34 34 51 34 34 51 34 34 51 34 34 51 51 68 85 51 68 85 51 68 85 51 68 85 51 68 85 51 68 85 51 68 85 51 68 85 51 68 85 51 68 85 51 68 85 51 68 85 51 68 85 51 68 85 51 68 85 51 68 85 51 68 85 51 68 85 51 68 85 51 68 85 51 68 85 51 68 85 51 68 85 51 68 85 51 68 85 51 68 85 51 68 85 51 68 85 34 34 51 34 34 51 34 34 51 34 34 51 34 34 51 34 34 51 34 34 51 34 34 51 17 17 34 17 17 34 17 17 34 17 17 34 17 17 34 17 17 34 17 17 34 17 17 34 17 17 34 17 17 34 17 17 34 17 17 34 17 17 34 17 17 34 17 17 34 17 17 34 17 17 34 17 17 34 17 17 34 17 17 34 17 17 34 17 17 34 17 17 34 17 17 34 17 17 34 17 17 34 51 68 85 51 68 85 51 68 85 51 68 85 51 68 85 51 68 85 51 68 85 51 68 85 51 68 85 51 68 85 51 68 85 51 68 85 51 68 85 51 68 85 51 68 85 51 68 85 51 68 85 51 68 85 51 68 85 51 68 85 51 68 85 51 68 85 51 68 85 51 68 85 51 68 85 51 68 85 51 68 85 51 68 85 51 68 85 51 68 85 51 68 85 51 68 85 51 68 85 51 68 85 51 68 85 51 68 85 51 68 85 51 68 85 51 68 85 51 68 85 51 68 85 51 68 85 51 68 85 51 68 85 51 68 85 51 68 85 51 68 85 51 68 85 51 68 85 51 68 85 51 68 85 51 68 85 51 68 85 51 68 85 51 68 85 51 68 85 51 68 85 51 68 85 51 68 85 51 68 85 51 68 85 51 68 85 51 68 85 51 68 85 51 68 85 51 68 85 51 68 85 51 68 85 51 68 85 51 68 85 51 68 85 51 68 85 51 68 85 51 68 85 51 68 85 51 68 85 51 68 85 51 68 85 51 68 85 51 68 85 51 68 85 51 68 85
17 17 34 17 17 34 17 17 34 17 17 34 17 17 34 17 17 34 17 17 34 17 17 34 17 17 34 17 17 34 17 17 34 17 17 34 17 17 34 17 17 34 17 17 34 17 17 34 17 17 34 17 17 34 17 17 34 17 17 34 17 17 34 17 17 34 17 17 34 17 17 34 17 17 34 17 17 34 17 17 34 17 17 34 17 17 34 17 17 34 17 17 34 17 17 34 17 17 34 17 17 34 17 17 34 17 17 34 17 17 34 17 17 34 17 17 34 17 17 34 17 17 34 17 17 34 17 17 34 17 17 34 17 17 34 17 17 34 17 17 34 17 17 34 17 17 34 17 17 34 17 17 34 17 17 34 17 17 34 17 17 34 17 17 34 17 17 34 17 17 34 17 17 34 17 17 34 17 17 34 17 17 34 17 17 34 17 17 34 17 17 34 17 17 34 17 17 34 17 17 34 17 17 34 17 17 34 17 17 34 17 17 34 17 17 34 17 17 34 17 17 34 17 17 34 17 17 34 17 17 34 17 17 34 17 17 34 17 17 34 17 17 34 17 17 34 17 17 34 17 17 34 17 17 34 17 17 34 17 17 34 17 17 34 17 17 34 17 17 34 17 17 34 17 17 34 17 17 34 17 17 34 17 17 34 17 17 34 17 17 34 17 17 34 17 17 34 17 17 34 17 17 34 17 17 34 17 17 34 17 17 34 17 17 34 17 17 34 17 17 34 17 17 34 34 34 51 34 34 51 34 34 51 34 34 51 34 34 51 34 34 51 34 34 51 34 34 51 51 68 85 51 68 85 51 68 85 51 68 85 51 68 85 51 68 85 51 68 85 51 68 85 51 68 85 51 68 85 51 68 85 51 68 85 51 68 85 51 68 85 51 68 85 51 68 85 51 68 85 51 68 85 51 68 85 51 68 85 51 68 85 51 68 85 51 68 85 51 68 85 51 68 85 51 68 85 51 68 85 51 68 85 34 34 51 34 34 51 34 34 51 34 34 51 119 136 153 119 136 153 119 136 153 119 136 153 119 136 153 119 136 153 119 136 153 119 136 153 119 136 153 119 136 153 119 136 153 119 136 153 119 136 153 119 136 153 119 136 153 119 136 153 119 136 153 119 136 153 119 136 153 119 136 153 119 136 153 119 136 153 119 136 153 119 136 153 34 34 51 34 34 51 34 34 51 34 34 51 51 68 85 51 68 85 51 68 85 51 68 85 51 68 85 51 68 85 51 68 85 51 68 85 51 68 85 51 68 85 51 68 85 51 68 85 51 68 85 51 68 85 51 68 85 51 68 85 51 68 85 51 68 85 51 68 85 51 68 85 51 68 85 51 68 85 51 68 85 51 68 85 51 68 85 51 68 85 51 68 85 51 68 85 34 34 51 34 34 51 34 34 51 34 34 51 34 34 51 34 34 51 34 34 51 34 34 51 17 17 34 17 17 34 17 17 34 17 17 34 17 17 34 17 17 34 17 17 34 17 17 34 17 17 34 17 17 34 17 17 34 17 17 34 17 17 34 17 17 34 17 17 34 17 17 34 17 17 34 17 17 34 17 17 34 17 17 34 17 17 34 17 17 34 17 17 34 17 17 34 17 17 34 17 17 34 51 68 85 51 68 85 51 68 85 51 68 85 51 68 85 51 68 85 51 68 85 51 68 85 51 68 85 51 68 85 51 68 85 51 68 85 51 68 85 51 68 85 51 68 85 51 68 85 51 68 85 51 68 85 51 68 85 51 68 85 51 68 85 51 68 85 51 68 85 51 68 85 51 68 85 51 68 85 51 68 85 51 68 85 51 68 85 51 68 85 51 68 85 51 68 85 51 68 85 51 68 85 51 68 85 51 68 85 51 68 85 51 68 85 51 68 85 51 68 85 51 68 85 51 68 85 51 68 85 51 68 85 51 68 85 51 68 85 51 68 85 51 68 85 51 68 85 51 68 85 51 68 85 51 68 85 51 68 85 51 68 85 51 68 85 51 68 85 51 68 85 51 68 85 51 68 85 51 68 85 51 68 85 51 68 85 51 68 85 51 68 85 51 68 85 51 68 85 51 68 85 51 68 85 51 68 85 51 68 85 51 68 85 51 68 85 51 68 85 51 68 85 51 68 85 51 68 85 51 68 85 51 68 85 51 68 85 51 68 85 51 68 85 51 68 85
17 17 34 17 17 34 17 17 34 17 17 34 17 17 34 17 17 34 17 17 34 17 17 34 17 17 34 17 17 34 17 17 34 17 17 34 17 17 34 17 17 34 17 17 34 17 17 34 17 17 34 17 17 34 17 17 34 17 17 34 17 17 34 17 17 34 17 17 34 17 17 34 17 17 34 17 17 34 17 17 34 17 17 34 17 17 34 17 17 34 17 17 34 17 17 34 17 17 34 17 17 34 17 17 34 17 17 34 17 17 34 17 17 34 17 17 34 17 17 34 17 17 34 17 17 34 17 17 34 17 17 34 17 17 34 17 17 34 17 17 34 17 17 34 17 17 34 17 17 34 17 17 34 17 17 34 17 17 34 17 17 34 17 17 34 17 17 34 17 17 34 17 17 34 17 17 34 17 17 34 17 17 34 17 17 34 17 17 34 17 17 34 17 17 34 17 17 34 17 17 34 17 17 34 17 17 34 17 17 34 17 17 34 17 17 34 17 17 34 17 17 34 17 17 34 17 17 34 17 17 34 17 17 34 17 17 34 17 17 34 17 17 34 17 17 34 17 17 34 17 17 34 17 17 34 17 17 34 17 17 34 17 17 34 17 17 34 17 17 34 17 17 34 17 17 34 17 17 34 17 17 34 17 17 34 17 17 34 17 17 34 17 17 34 17 17 34 17 17 34 17 17 34 17 17 34 17 17 34 17 17 34 17 17 34 17 17 34 17 17 34 17 17 34 34 34 51 34 34 51 34 34 51 34 34 51 34 34 51 34 34 51 34 34 51 34 34 51 51 68 85 51 68 85 51 68 85 51 68 85 51 68 85 51 68 85 51 68 85 51 68 85 51 68 85 51 68 85 51 68 85 51 68 85 51 68 85 51 68 85 51 68 85 51 68 85 51 68 85 51 68 85 51 68 85 51 68 85 51 68 85 51 68 85 51 68 85 51 68 85 51 68 85 51 68 85 51 68 85 51 68 85 34 34 51 34 34 51 34 34 51 34 34 51 119 136 153 119 136 153 119 136 153 119 136 153 119 136 153 119 136 153 119 136 153 119 136 153 119 136 153 119 136 153 119 136 153 119 136 153 119 136 153 119 136 153 119 136 153 119 136 153 119 136 153 119 136 153 119 136 153 119 136 153 119 136 153 119 136 153 119 136 153 119 136 153 34 34 51 34 34 51 34 34 51 34 34 51 51 68 85 51 68 85 51 68 85 51 68 85 51 68 85 51 68 85 51 68 85 51 68 85 51 68 85 51 68 85 51 68 85 51 68 85 51 68 85 51 68 85 51 68 85 51 68 85 51 68 85 51 68 85 51 68 85 51 68 85 51 68 85 51 68 85 51 68 85 51 68 85 51 68 85 51 68 85 51 68 85 51 68 85 34 34 51 34 34 51 34 34 51 34 34 51 34 34 51 34 34 51 34 34 51 34 34 51 17 17 34 17 17 34 17 17 34 17 17 34 17 17 34 17 17 34 17 17 34 17 17 34 17 17 34 17 17 34 17 17 34 17 17 34 17 17 34 17 17 34 17 17 34 17 17 34 17 17 34 17 17 34 17 17 34 17 17 34 17 17 34 17 17 34 17 17 34 17 17 34 17 17 34 17 17 34 51 68 85 51 68 85 51 68 85 51 68 85 51 68 85 51 68 85 51 68 85 51 68 85 51 68 85 51 68 85 51 68 85 51 68 85 51 68 85 51 68 85 51 68 85 51 68 85 51 68 85 51 68 85 51 68 85 51 68 85 51 68 85 51 68 85 51 68 85 51 68 85 51 68 85 51 68 85 51 68 85 51 68 85 51 68 85 51 68 85 51 68 85 51 68 85 51 68 85 51 68 85 51 68 85 51 68 85 51 68 85 51 68 85 51 68 85 51 68 85 51 68 85 51 68 85 51 68 85 51 68 85 51 68 85 51 68 85 51 68 85 51 68 85 51 68 85 51 68 85 51 68 85 51 68 85 51 68 85 51 68 85 51 68 85 51 68 85 51 68 85 51 68 85 51 68 85 51 68 85 51 68 85 51 68 85 51 68 85 51 68 85 51 68 85 51 68 85 51 68 85 51 68 85 51 68 85 51 68 85 51 68 85 51 68 85 51 68 85 51 68 85 51 68 85 51 68 85 51 68 85 51 68 85 51 68 85 51 68 85 51 68 85 51 68 85
51 68 85 51 68 85 51 68 85 51 68 85 51 68 85 51 68 85 51 68 85 51 68 85 51 68 85 51 68 85 51 68 85 51 68 85 51 68 85 51 68 85 51 68 85 51 68 85 51 68 85 51 68 85 51 68 85 51 68 85 51 68 85 51 68 85 51 68 85 51 68 85 51 68 85 51 68 85 51 68 85 51 68 85 51 68 85 51 68 85 51 68 85 51 68 85 51 68 85 51 68 85 51 68 85 51 68 85 51 68 85 51 68 85 51 68 85 51 68 85 51 68 85 51 68 85 51 68 85 51 68 85 51 68 85 51 68 85 51 68 85 51 68 85 51 68 85 51 68 85 51 68 85 51 68 85 51 68 85 51 68 85 51 68 85 51 68 85 51 68 85 51 68 85 51 68 85 51 68 85 51 68 85 51 68 85 51 68 85 51 68 85 51 68 85 51 68 85 51 68 85 51 68 85 51 68 85 51 68 85 51 68 85 51 68 85 51 68 85 51 68 85 51 68 85 51 68 85 51 68 85 51 68 85 51 68 85 51 68 85 51 68 85 51 68 85 17 17 34 17 17 34 17 17 34 17 17 34 17 17 34 17 17 34 17 17 34 17 17 34 17 17 34 17 17 34 17 17 34 17 17 34 17 17 34 17 17 34 17 17 34 17 17 34 17 17 34 17 17 34 17 17 34 17 17 34 17 17 34 17 17 34 17 17 34 17 17 34 17 17 34 17 17 34 17 17 34 17 17 34 17 17 34 17 17 34 17 17 34 17 17 34 17 17 34 17 17 34 51 68 85 51 68 85 51 68 85 51 68 85 51 68 85 51 68 85 51 68 85 51 68 85 51 68 85 51 68 85 51 68 85 51 68 85 51 68 85 51 68 85 51 68 85 51 68 85 51 68 85 51 68 85 51 68 85 51 68 85 51 68 85 51 68 85 51 68 85 51 68 85 51 68 85 51 68 85 51 68 85 51 68 85 17 17 34 17 17 34 17 17 34 17 17 34 119 136 153 119 136 153 119 136 153 119 136 153 119 136 153 119 136 153 119 136 153 119 136 153 119 136 153 119 136 153 119 136 153 119 136 153 119 136 153 119 136 153 119 136 153 119 136 153 119 136 153 119 136 153 119 136 153 119 136 153 119 136 153 119 136 153 119 136 153 119 136 153 17 17 34 17 17 34 17 17 34 17 17 34 51 68 85 51 68 85 51 68 85 51 68 85 51 68 85 51 68 85 51 68 85 51 68 85 51 68 85 51 68 85 51 68 85 51 68 85 51 68 85 51 68 85 51 68 85 51 68 85 51 68 85 51 68 85 51 68 85 51 68 85 51 68 85 51 68 85 51 68 85 51 68 85 51 68 85 51 68 85 51 68 85 51 68 85 17 17 34 17 17 34 17 17 34 17 17 34 17 17 34 17 17 34 17 17 34 17 17 34 17 17 34 17 17 34 17 17 34 17 17 34 17 17 34 17 17 34 17 17 34 17 17 34 17 17 34 17 17 34 17 17 34 17 17 34 17 17 34 17 17 34 17 17 34 17 17 34 17 17 34 17 17 34 17 17 34 17 17 34 17 17 34 17 17 34 17 17 34 17 17 34 17 17 34 17 17 34 17 17 34 17 17 34 17 17 34 17 17 34 17 17 34 17 17 34 17 17 34 17 17 34 17 17 34 17 17 34 17 17 34 17 17 34 17 17 34 17 17 34 17 17 34 17 17 34 17 17 34 17 17 34 17 17 34 17 17 34 17 17 34 17 17 34 17 17 34 17 17 34 17 17 34 17 17 34 17 17 34 17 17 34 17 17 34 17 17 34 17 17 34 17 17 34 17 17 34 17 17 34 17 17 34 17 17 34 17 17 34 17 17 34 17 17 34 17 17 34 17 17 34 17 17 34 17 17 34 17 17 34 17 17 34 17 17 34 17 17 34 17 17 34 17 17 34 17 17 34 17 17 34 17 17 34 17 17 34 17 17 34 17 17 34 17 17 34 17 17 34 17 17 34 17 17 34 17 17 34 17 17 34 17 17 34 17 17 34 17 17 34 17 17 34 17 17 34 17 17 34 17 17 34 17 17 34 17 17 34 17 17 34 17 17 34 17 17 34 17 17 34 17 17 34 17 17 34 17 17 34 17 17 34 17 17 34 17 17 34 17 17 34 17 17 34
51 68 85 51 68 85 51 68 85 51 68 85 51 68 85 51 68 85 51 68 85 51 68 85 51 68 85 51 68 85 51 68 85 51 68 85 51 68 85 51 68 85 51 68 85 51 68 85 51 68 85 51 68 85 51 68 85 51 68 85 51 68 85 51 68 85 51 68 85 51 68 85 51 68 85 51 68 85 51 68 85 51 68 85 51 68 85 51 68 85 51 68 85 51 68 85 51 68 85 51 68 85 51 68 85 51 68 85 51 68 85 51 68 85 51 68 85 51 68 85 51 68 85 51 68 85 51 68 85 51 68 85 51 68 85 51 68 85 51 68 85 51 68 85 51 68 85 51 68 85 51 68 85 51 68 85 51 68 85 51 68 85 51 68 85 51 68 85 51 68 85 51 68 85 51 68 85 51 68 85 51 68 85 51 68 85 51 68 85 51 68 85 51 68 85 51 68 85 51 68 85 51 68 85 51 68 85 51 68 85 51 68 85 51 68 85 51 68 85 51 68 85 51 68 85 51 68 85 51 68 85 51 68 85 51 68 85 51 68 85 51 68 85 51 68 85 17 17 34 17 17 34 17 17 34 17 17 34 17 17 34 17 17 34 17 17 34 17 17 34 17 17 34 17 17 34 17 17 34 17 17 34 17 17 34 17 17 34 17 17 34 17 17 34 17 17 34 17 17 34 17 17 34 17 17 34 17 17 34 17 17 34 17 17 34 17 17 34 17 17 34 17 17 34 17 17 34 17 17 34 17 17 34 17 17 34 17 17 34 17 17 34 17 17 34 17 17 34 51 68 85 51 68 85 51 68 85 51 68 85 51 68 85 51 68 85 51 68 85 51 68 85 51 68 85 51 68 85 51 68 85 51 68 85 51 68 85 51 68 85 51 68 85 51 68 85 51 68 85 51 68 85 51 68 85 51 68 85 51 68 85 51 68 85 51 68 85 51 68 85 51 68 85 51 68 85 51 68 85 51 68 85 17 17 34 17 17 34 17 17 34 17 17 34 119 136 153 119 136 153 119 136 153 119 136 153 119 136 153 119 136 153 119 136 153 119 136 153 119 136 153 119 136 153 119 136 153 119 136 153 119 136 153 119 136 153 119 136 153 119 136 153 119 136 153 119 136 153 119 136 153 119 136 153 119 136 153 119 136 153 119 136 153 119 136 153 17 17 34 17 17 34 17 17 34 17 17 34 51 68 85 51 68 85 51 68 85 51 68 85 51 68 85 51 68 85 51 68 85 51 68 85 51 68 85 51 68 85 51 68 85 51 68 85 51 68 85 51 68 85 51 68 85 51 68 85 51 68 85 51 68 85 51 68 85 51 68 85 51 68 85 51 68 85 51 68 85 51 68 85 51 68 85 51 68 85 51 68 85 51 68 85 17 17 34 17 17 34 17 17 34 17 17 34 17 17 34 17 17 34 17 17 34 17 17 34 17 17 34 17 17 34 17 17 34 17 17 34 17 17 34 17 17 34 17 17 34 17 17 34 17 17 34 17 17 34 17 17 34 17 17 34 17 17 34 17 17 34 17 17 34 17 17 34 17 17 34 17 17 34 17 17 34 17 17 34 17 17 34 17 17 34 17 17 34 17 17 34 17 17 34 17 17 34 17 17 34 17 17 34 17 17 34 17 17 34 17 17 34 17 17 34 17 17 34 17 17 34 17 17 34 17 17 34 17 17 34 17 17 34 17 17 34 17 17 34 17 17 34 17 17 34 17 17 34 17 17 34 17 17 34 17 17 34 17 17 34 17 17 34 17 17 34 17 17 34 17 17 34 17 17 34 17 17 34 17 17 34 17 17 34 17 17 34 17 17 34 17 17 34 17 17 34 17 17 34 17 17 34 17 17 34 17 17 34 17 17 34 17 17 34 17 17 34 17 17 34 17 17 34 17 17 34 17 17 34 17 17 34 17 17 34 17 17 34 17 17 34 17 17 34 17 17 34 17 17 34 17 17 34 17 17 34 17 17 34 17 17 34 17 17 34 17 17 34 17 17 34 17 17 34 17 17 34 17 17 34 17 17 34 17 17 34 17 17 34 17 17 34 17 17 34 17 17 34 17 17 34 17 17 34 17 17 34 17 17 34 17 17 34 17 17 34 17 17 34 17 17 34 17 17 34 17 17 34 17 17 34 17 17 34 17 17 34 17 17 34 17 17 34
51 68 85 51 68 85 51 68 85 51 68 85 51 68 85 51 68 85 51 68 85 51 68 85 51 68 85 51 68 85 51 68 85 51 68 85 51 68 85 51 68 85 51 68 85 51 68 85 51 68 85 51 68 85 51 68 85 51 68 85 51 68 85 51 68 85 51 68 85 51 68 85 51 68 85 51 68 85 51 68 85 51 68 85 51 68 85 51 68 85 51 68 85 51 68 85 51 68 85 51 68 85 51 68 85 51 68 85 51 68 85 51 68 85 51 68 85 51 68 85 51 68 85 51 68 85 51 68 85 51 68 85 51 68 85 51 68 85 51 68 85 51 68 85 51 68 85 51 68 85 51 68 85 51 68 85 51 68 85 51 68 85 51 68 85 51 68 85 51 68 85 51 68 85 51 68 85 51 68 85 51 68 85 51 68 85 51 68 85 51 68 85 51 68 85 51 68 85 51 68 85 51 68 85 51 68 85 51 68 85 51 68 85 51 68 85 51 68 85 51 68 85 51 68 85 51 68 85 51 68 85 51 68 85 51 68 85 51 68 85 51 68 85 51 68 85 17 17 34 17 17 34 17 17 34 17 17 34 17 17 34 17 17 34 17 17 34 17 17 34 17 17 34 17 17 34 17 17 34 17 17 34 17 17 34 17 17 34 17 17 34 17 17 34 17 17 34 17 17 34 17 17 34 17 17 34 17 17 34 17 17 34 17 17 34 17 17 34 17 17 34 17 17 34 17 17 34 17 17 34 17 17 34 17 17 34 17 17 34 17 17 34 17 17 34 17 17 34 51 68 85 51 68 85 51 68 85 51 68 85 51 68 85 51 68 85 51 68 85 51 68 85 51 68 85 51 68 85 51 68 85 51 68 85 51 68 85 51 68 85 51 68 85 51 68 85 51 68 85 51 68 85 51 68 85 51 68 85 51 68 85 51 68 85 51 68 85 51 68 85 51 68 85 51 68 85 51 68 85 51 68 85 17 17 34 17 17 34 17 17 34 17 17 34 119 136 153 119 136 153 119 136 153 119 136 153 119 136 153 119 136 153 119 136 153 119 136 153 119 136 153 119 136 153 119 136 153 119 136 153 119 136 153 119 136 153 119 136 153 119 136 153 119 136 153 119 136 153 119 136 153 119 136 153 119 136 153 119 136 153 119 136 153 119 136 153 17 17 34 17 17 34 17 17 34 17 17 34 51 68 85 51 68 85 51 68 85 51 68 85 51 68 85 51 68 85 51 68 85 51 68 85 51 68 85 51 68 85 51 68 85 51 68 85 51 68 85 51 68 85 51 68 85 51 68 85 51 68 85 51 68 85 51 68 85 51 68 85 51 68 85 51 68 85 51 68 85 51 68 85 51 68 85 51 68 85 51 68 85 51 68 85 17 17 34 17 17 34 17 17 34 17 17 34 17 17 34 17 17 34 17 17 34 17 17 34 17 17 34 17 17 34 17 17 34 17 17 34 17 17 34 17 17 34 17 17 34 17 17 34 17 17 34 17 17 34 17 17 34 17 17 34 17 17 34 17 17 34 17 17 34 17 17 34 17 17 34 17 17 34 17 17 34 17 17 34 17 17 34 17 17 34 17 17 34 17 17 34 17 17 34 17 17 34 17 17 34 17 17 34 17 17 34 17 17 34 17 17 34 17 17 34 17 17 34 17 17 34 17 17 34 17 17 34 17 17 34 17 17 34 17 17 34 17 17 34 17 17 34 17 17 34 17 17 34 17 17 34 17 17 34 17 17 34 17 17 34 17 17 34 17 17 34 17 17 34 17 17 34 17 17 34 17 17 34 17 17 34 17 17 34 17 17 34 17 17 34 17 17 34 17 17 34 17 17 34 17 17 34 17 17 34 17 17 34 17 17 34 17 17 34 17 17 34 17 17 34 17 17 34 17 17 34 17 17 34 17 17 34 17 17 34 17 17 34 17 17 34 17 17 34 17 17 34 17 17 34 17 17 34 17 17 34 17 17 34 17 17 34 17 17 34 17 17 34 17 17 34 17 17 34 17 17 34 17 17 34 17 17 34 17 17 34 17 17 34 17 17 34 17 17 34 17 17 34 17 17 34 17 17 34 17 17 34 17 17 34 17 17 34 17 17 34 17 17 34 17 17 34 17 17 34 17 17 34 17 17 34 17 17 34 17 17 34 17 17 34 17 17 34
51 68 85 51 68 85 51 68 85 51 68 85 51 68 85 51 68 85 51 68 85 51 68 85 51 68 85 51 68 85 51 68 85 51 68 85 51 68 85 51 68 85 51 68 85 51 68 85 51 68 85 51 68 85 51 68 85 51 68 85 51 68 85 51 68 85 51 68 85 51 68 85 51 68 85 51 68 85 51 68 85 51 68 85 51 68 85 51 68 85 51 68 85 51 68 85 51 68 85 51 68 85 51 68 85 51 68 85 51 68 85 51 68 85 51 68 85 51 68 85 51 68 85 51 68 85 51 68 85 51 68 85 51 68 85 51 68 85 51 68 85 51 68 85 51 68 85 51 68 85 51 68 85 51 68 85 51 68 85 51 68 85 51 68 85 51 68 85 51 68 85 51 68 85 51 68 85 51 68 85 51 68 85 51 68 85 51 68 85 51 68 85 51 68 85 51 68 85 51 68 85 51 68 85 51 68 85 51 68 85 51 68 85 51 68 85 51 68 85 51 68 85 51 68 85 51 68 85 51 68 85 51 68 85 51 68 85 51 68 85 51 68 85 51 68 85 17 17 34 17 17 34 17 17 34 17 17 34 17 17 34 17 17 34 17 17 34 17 17 34 17 17 34 17 17 34 17 17 34 17 17 34 17 17 34 17 17 34 17 17 34 17 17 34 17 17 34 17 17 34 17 17 34 17 17 34 17 17 34 17 17 34 17 17 34 17 17 34 17 17 34 17 17 34 17 17 34 17 17 34 17 17 34 17 17 34 17 17 34 17 17 34 17 17 34 17 17 34 51 68 85 51 68 85 51 68 85 51 68 85 51 68 85 51 68 85 51 68 85 51 68 85 51 68 85 51 68 85 51 68 85 51 68 85 51 68 85 51 68 85 51 68 85 51 68 85 51 68 85 51 68 85 51 68 85 51 68 85 51 68 85 51 68 85 51 68 85 51 68 85 51 68 85 51 68 85 51 68 85 51 68 85 17 17 34 17 17 34 17 17 34 17 17 34 119 136 153 119 136 153 119 136 153 119 136 153 119 136 153 119 136 153 119 136 153 119 136 153 119 136 153 119 136 153 119 136 153 119 136 153 119 136 153 119 136 153 119 136 153 119 136 153 119 136 153 119 136 153 119 136 153 119 136 153 119 136 153 119 136 153 119 136 153 119 136 153 17 17 34 17 17 34 17 17 34 17 17 34 51 68 85 51 68 85 51 68 85 51 68 85 51 68 85 51 68 85 51 68 85 51 68 85 51 68 85 51 68 85 51 68 85 51 68 85 51 68 85 51 68 85 51 68 85 51 68 85 51 68 85 51 68 85 51 68 85 51 68 85 51 68 85 51 68 85 51 68 85 51 68 85 51 68 85 51 68 85 51 68 85 51 68 85 17 17 34 17 17 34 17 17 34 17 17 34 17 17 34 17 17 34 17 17 34 17 17 34 17 17 34 17 17 34 17 17 34 17 17 34 17 17 34 17 17 34 17 17 34 17 17 34 17 17 34 17 17 34 17 17 34 17 17 34 17 17 34 17 17 34 17 17 34 17 17 34 17 17 34 17 17 34 17 17 34 17 17 34 17 17 34 17 17 34 17 17 34 17 17 34 17 17 34 17 17 34 17 17 34 17 17 34 17 17 34 17 17 34 17 17 34 17 17 34 17 17 34 17 17 34 17 17 34 17 17 34 17 17 34 17 17 34 17 17 34 17 17 34 17 17 34 17 17 34 17 17 34 17 17 34 17 17 34 17 17 34 17 17 34 17 17 34 17 17 34 17 17 34 17 17 34 17 17 34 17 17 34 17 17 34 17 17 34 17 17 34 17 17 34 17 17 34 17 17 34 17 17 34 17 17 34 17 17 34 17 17 34 17 17 34 17 17 34 17 17 34 17 17 34 17 17 34 17 17 34 17 17 34 17 17 34 17 17 34 17 17 34 17 17 34 17 17 34 17 17 34 17 17 34 17 17 34 17 17 34 17 17 34 17 17 34 17 17 34 17 17 34 17 17 34 17 17 34 17 17 34 17 17 34 17 17 34 17 17 34 17 17 34 17 17 34 17 17 34 17 17 34 17 17 34 17 17 34 17 17 34 17 17 34 17 17 34 17 17 34 17 17 34 17 17 34 17 17 34 17 17 34 17 17 34 17 17 34 17 17 34 17 17 34 17 17 34
51 68 85 51 68 85 51 68 85 51 68 85 85 102 119 85 102 119 85 102 119 85 102 119 85 102 119 85 102 119 85 102 119 85 102 119 85 102 119 85 102 119 85 102 119 85 102 119 85 102 119 85 102 119 85 102 119 85 102 119 85 102 119 85 102 119 85 102 119 85 102 119 85 102 119 85 102 119 85 102 119 85 102 119 85 102 119 85 102 119 85 102 119 85 102 119 85 102 119 85 102 119 85 102 119 85 102 119 85 102 119 85 102 119 85 102 119 85 102 119 85 102 119 85 102 119 85 102 119 85 102 119 85 102 119 85 102 119 85 102 119 85 102 119 85 102 119 85 102 119 85 102 119 85 102 119 85 102 119 85 102 119 85 102 119 85 102 119 85 102 119 85 102 119 85 102 119 85 102 119 85 102 119 85 102 119 85 102 119 85 102 119 85 102 119 85 102 119 85 102 119 85 102 119 85 102 119 85 102 119 85 102 119 85 102 119 85 102 119 85 102 119 51 68 85 51 68 85 51 68 85 51 68 85 51 68 85 51 68 85 51 68 85 51 68 85 17 17 34 17 17 34 17 17 34 17 17 34 17 17 34 17 17 34 17 17 34 17 17 34 17 17 34 17 17 34 17 17 34 17 17 34 17 17 34 17 17 34 17 17 34 17 17 34 17 17 34 17 17 34 17 17 34 17 17 34 17 17 34 17 17 34 17 17 34 17 17 34 17 17 34 17 17 34 17 17 34 17 17 34 17 17 34 17 17 34 17 17 34 17 17 34 17 17 34 17 17 34 51 68 85 51 68 85 51 68 85 51 68 85 51 68 85 51 68 85 51 68 85 51 68 85 51 68 85 51 68 85 51 68 85 51 68 85 51 68 85 51 68 85 51 68 85 51 68 85 51 68 85 51 68 85 51 68 85 51 68 85 51 68 85 51 68 85 51 68 85 51 68 85 51 68 85 51 68 85 51 68 85 51 68 85 17 17 34 17 17 34 17 17 34 17 17 34 119 136 153 119 136 153 119 136 153 119 136 153 119 136 153 119 136 153 119 136 153 119 136 153 119 136 153 119 136 153 119 136 153 119 136 153 119 136 153 119 136 153 119 136 153 119 136 153 119 136 153 119 136 153 119 136 153 119 136 153 119 136 153 119 136 153 119 136 153 119 136 153 17 17 34 17 17 34 17 17 34 17 17 34 51 68 85 51 68 85 51 68 85 51 68 85 51 68 85 51 68 85 51 68 85 51 68 85 51 68 85 51 68 85 51 68 85 51 68 85 51 68 85 51 68 85 51 68 85 51 68 85 51 68 85 51 68 85 51 68 85 51 68 85 51 68 85 51 68 85 51 68 85 51 68 85 51 68 85 51 68 85 51 68 85 51 68 85 17 17 34 17 17 34 17 17 34 17 17 34 17 17 34 17 17 34 17 17 34 17 17 34 17 17 34 17 17 34 17 17 34 17 17 34 17 17 34 17 17 34 17 17 34 17 17 34 17 17 34 17 17 34 17 17 34 17 17 34 17 17 34 17 17 34 17 17 34 17 17 34 17 17 34 17 17 34 17 17 34 17 17 34 17 17 34 17 17 34 17 17 34 17 17 34 17 17 34 17 17 34 17 17 34 17 17 34 17 17 34 17 17 34 17 17 34 17 17 34 17 17 34 17 17 34 17 17 34 17 17 34 17 17 34 17 17 34 17 17 34 17 17 34 17 17 34 17 17 34 17 17 34 17 17 34 17 17 34 17 17 34 17 17 34 17 17 34 17 17 34 17 17 34 17 17 34 17 17 34 17 17 34 17 17 34 17 17 34 17 17 34 17 17 34 17 17 34 17 17 34 17 17 34 17 17 34 17 17 34 17 17 34 17 17 34 17 17 34 17 17 34 17 17 34 17 17 34 17 17 34 17 17 34 17 17 34 17 17 34 17 17 34 17 17 34 17 17 34 17 17 34 17 17 34 17 17 34 17 17 34 17 17 34 17 17 34 17 17 34 17 17 34 17 17 34 17 17 34 17 17 34 17 17 34 17 17 34 17 17 34 17 17 34 17 17 34 17 17 34 17 17 34 17 17 34 17 17 34 17 17 34 17 17 34 17 17 34 17 17 34 17 17 34 17 17 34 17 17 34 17 17 34 17 17 34 17 17 34 17 17 34 17 17 34 17 17 34
51 68 85 51 68 85 51 68 85 51 68 85 85 102 119 85 102 119 85 102 119 85 102 119 85 102 119 85 102 119 85 102 119 85 102 119 85 102 119 85 102 119 85 102 119 85 102 119 85 102 119 85 102 119 85 102 119 85 102 119 85 102 119 85 102 119 85 102 119 85 102 119 85 102 119 85 102 119 85 102 119 85 102 119 85 102 119 85 102 119 85 102 119 85 102 119 85 102 119 85 102 119 85 102 119 85 102 119 85 102 119 85 102 119 85 102 119 85 102 119 85 102 119 85 102 119 85 102 119 85 102 119 85 102 119 85 102 119 85 102 119 85 102 119 85 102 119 85 102 119 85 102 119 85 102 119 85 102 119 85 102 119 85 102 119 85 102 119 85 102 119 85 102 119 85 102 119 85 102 119 85 102 119 85 102 119 85 102 119 85 102 119 85 102 119 85 102 119 85 102 119 85 102 119 85 102 119 85 102 119 85 102 119 85 102 119 85 102 119 85 102 119 51 68 85 51 68 85 51 68 85 51 68 85 51 68 85 51 68 85 51 68 85 51 68 85 17 17 34 17 17 34 17 17 34 17 17 34 17 17 34 17 17 34 17 17 34 17 17 34 17 17 34 17 17 34 17 17 34 17 17 34 17 17 34 17 17 34 17 17 34 17 17 34 17 17 34 17 17 34 17 17 34 17 17 34 17 17 34 17 17 34 17 17 34 17 17 34 17 17 34 17 17 34 17 17 34 17 17 34 17 17 34 17 17 34 17 17 34 17 17 34 17 17 34 17 17 34 51 68 85 51 68 85 51 68 85 51 68 85 51 68 85 51 68 85 51 68 85 51 68 85 51 68 85 51 68 85 51 68 85 51 68 85 51 68 85 51 68 85 51 68 85 51 68 85 51 68 85 51 68 85 51 68 85 51 68 85 51 68 85 51 68 85 51 68 85 51 68 85 51 68 85 51 68 85 51 68 85 51 68 85 17 17 34 17 17 34 17 17 34 17 17 34 119 136 153 119 136 153 119 136 153 119 136 153 119 136 153 119 136 153 119 136 153 119 136 153 119 136 153 119 136 153 119 136 153 119 136 153 119 136 153 119 136 153 119 136 153 119 136 153 119 136 153 119 136 153 119 136 153 119 136 153 119 136 153 119 136 153 119 136 153 119 136 153 17 17 34 17 17 34 17 17 34 17 17 34 51 68 85 51 68 85 51 68 85 51 68 85 51 68 85 51 68 85 51 68 85 51 68 85 51 68 85 51 68 85 51 68 85 51 68 85 51 68 85 51 68 85 51 68 85 51 68 85 51 68 85 51 68 85 51 68 85 51 68 85 51 68 85 51 68 85 51 68 85 51 68 85 51 68 85 51 68 85 51 68 85 51 68 85 17 17 34 17 17 34 17 17 34 17 17 34 17 17 34 17 17 34 17 17 34 17 17 34 17 17 34 17 17 34 17 17 34 17 17 34 17 17 34 17 17 34 17 17 34 17 17 34 17 17 34 17 17 34 17 17 34 17 17 34 17 17 34 17 17 34 17 17 34 17 17 34 17 17 34 17 17 34 17 17 34 17 17 34 17 17 34 17 17 34 17 17 34 17 17 34 17 17 34 17 17 34 17 17 34 17 17 34 17 17 34 17 17 34 17 17 34 17 17 34 17 17 34 17 17 34 17 17 34 17 17 34 17 17 34 17 17 34 17 17 34 17 17 34 17 17 34 17 17 34 17 17 34 17 17 34 17 17 34 17 17 34 17 17 34 17 17 34 17 17 34 17 17 34 17 17 34 17 17 34 17 17 34 17 17 34 17 17 34 17 17 34 17 17 34 17 17 34 17 17 34 17 17 34 17 17 34 17 17 34 17 17 34 17 17 34 17 17 34 17 17 34 17 17 34 17 17 34 17 17 34 17 17 34 17 17 34 17 17 34 17 17 34 17 17 34 17 17 34 17 17 34 17 17 34 17 17 34 17 17 34 17 17 34 17 17 34 17 17 34 17 17 34 17 17 34 17 17 34 17 17 34 17 17 34 17 17 34 17 17 34 17 17 34 17 17 34 17 17 34 17 17 34 17 17 34 17 17 34 17 17 34 17 17 34 17 17 34 17 17 34 17 17 34 17 17 34 17 17 34 17 17 34 17 17 34 17 17 34 17 17 34 17 17 34 17 17 34
51 68 85 51 68 85 51 68 85 51 68 85 85 102 119 85 102 119 85 102 119 85 102 119 85 102 119 85 102 119 85 102 119 85 102 119 85 102 119 85 102 119 85 102 119 85 102 119 85 102 119 85 102 119 85 102 119 85 102 119 85 102 119 85 102 119 85 102 119 85 102 119 85 102 119 85 102 119 85 102 119 85 102 119 85 102 119 85 102 119 85 102 119 85 102 119 85 102 119 85 102 119 85 102 119 85 102 119 85 102 119 85 102 119 85 102 119 85 102 119 85 102 119 85 102 119 85 102 119 85 102 119 85 102 119 85 102 119 85 102 119 85 102 119 85 102 119 85 102 119 85 102 119 85 102 119 85 102 119 85 102 119 85 102 119 85 102 119 85 102 119 85 102 119 85 102 119 85 102 119 85 102 119 85 102 119 85 102 119 85 102 119 85 102 119 85 102 119 85 102 119 85 102 119 85 102 119 85 102 119 85 102 119 85 102 119 85 102 119 85 102 119 51 68 85 51 68 85 51 68 85 51 68 85 51 68 85 51 68 85 51 68 85 51 68 85 17 17 34 17 17 34 17 17 34 17 17 34 17 17 34 17 17 34 17 17 34 17 17 34 17 17 34 17 17 34 17 17 34 17 17 34 17 17 34 17 17 34 17 17 34 17 17 34 17 17 34 17 17 34 17 17 34 17 17 34 17 17 34 17 17 34 17 17 34 17 17 34 17 17 34 17 17 34 17 17 34 17 17 34 17 17 34 17 17 34 17 17 34 17 17 34 17 17 34 17 17 34 17 17 34 17 17 34 17 17 34 17 17 34 17 17 34 17 17 34 17 17 34 17 17 34 17 17 34 17 17 34 17 17 34 17 17 34 17 17 34 17 17 34 17 17 34 17 17 34 17 17 34 17 17 34 17 17 34 17 17 34 17 17 34 17 17 34 17 17 34 17 17 34 17 17 34 17 17 34 17 17 34 17 17 34 17 17 34 17 17 34 17 17 34 17 17 34 119 136 153 119 136 153 119 136 153 119 136 153 119 136 153 119 136 153 119 136 153 119 136 153 119 136 153 119 136 153 119 136 153 119 136 153 119 136 153 119 136 153 119 136 153 119 136 153 119 136 153 119 136 153 119 136 153 119 136 153 119 136 153 119 136 153 119 136 153 119 136 153 17 17 34 17 17 34 17 17 34 17 17 34 17 17 34 17 17 34 17 17 34 17 17 34 17 17 34 17 17 34 17 17 34 17 17 34 17 17 34 17 17 34 17 17 34 17 17 34 17 17 34 17 17 34 17 17 34 17 17 34 17 17 34 17 17 34 17 17 34 17 17 34 17 17 34 17 17 34 17 17 34 17 17 34 17 17 34 17 17 34 17 17 34 17 17 34 17 17 34 17 17 34 17 17 34 17 17 34 17 17 34 17 17 34 17 17 34 17 17 34 17 17 34 17 17 34 17 17 34 17 17 34 17 17 34 17 17 34 17 17 34 17 17 34 17 17 34 17 17 34 17 17 34 17 17 34 17 17 34 17 17 34 17 17 34 17 17 34 17 17 34 17 17 34 17 17 34 17 17 34 17 17 34 17 17 34 17 17 34 17 17 34 17 17 34 17 17 34 17 17 34 17 17 34 17 17 34 17 17 34 17 17 34 17 17 34 17 17 34 17 17 34 17 17 34 17 17 34 17 17 34 17 17 34 17 17 34 17 17 34 17 17 34 17 17 34 17 17 34 17 17 34 17 17 34 17 17 34 17 17 34 17 17 34 17 17 34 17 17 34 17 17 34 17 17 34 17 17 34 17 17 34 17 17 34 17 17 34 17 17 34 17 17 34 17 17 34 17 17 34 17 17 34 17 17 34 17 17 34 17 17 34 17 17 34 17 17 34 17 17 34 17 17 34 17 17 34 17 17 34 17 17 34 17 17 34 17 17 34 17 17 34 17 17 34 17 17 34 17 17 34 17 17 34 17 17 34 17 17 34 17 17 34 17 17 34 17 17 34 17 17 34 17 17 34 17 17 34 17 17 34 17 17 34 17 17 34 17 17 34 17 17 34 17 17 34 17 17 34 17 17 34 17 17 34 17 17 34 17 17 34 17 17 34 17 17 34 17 17 34 17 17 34 17 17 34 17 17 34 17 17 34 17 17 34 17 17 34 17 17 34 17 17 34
51 68 85 51 68 85 51 68 85 51 68 85 85 102 119 85 102 119 85 102 119 85 102 119 85 102 119 85 102 119 85 102 119 85 102 119 85 102 119 85 102 119 85 102 119 85 102 119 85 102 119 85 102 119 85 102 119 85 102 119 85 102 119 85 102 119 85 102 119 85 102 119 85 102 119 85 102 119 85 102 119 85 102 119 85 102 119 85 102 119 85 102 119 85 102 119 85 102 119 85 102 119 85 102 119 85 102 119 85 102 119 85 102 119 85 102 119 85 102 119 85 102 119 85 102 119 85 102 119 85 102 119 85 102 119 85 102 119 85 102 119 85 102 119 85 102 119 85 102 119 85 102 119 85 102 119 85 102 119 85 102 119 85 102 119 85 102 119 85 102 119 85 102 119 85 102 119 85 102 119 85 102 119 85 102 119 85 102 119 85 102 119 85 102 119 85 102 119 85 102 119 85 102 119 85 102 119 85 102 119 85 102 119 85 102 119 85 102 119 85 102 119 51 68 85 51 68 85 51 68 85 51 68 85 51 68 85 51 68 85 51 68 85 51 68 85 17 17 34 17 17 34 17 17 34 17 17 34 17 17 34 17 17 34 17 17 34 17 17 34 17 17 34 17 17 34 17 17 34 17 17 34 17 17 34 17 17 34 17 17 34 17 17 34 17 17 34 17 17 34 17 17 34 17 17 34 17 17 34 17 17 34 17 17 34 17 17 34 17 17 34 17 17 34 17 17 34 17 17 34 17 17 34 17 17 34 17 17 34 17 17 34 17 17 34 17 17 34 17 17 34 17 17 34 17 17 34 17 17 34 17 17 34 17 17 34 17 17 34 17 17 34 17 17 34 17 17 34 17 17 34 17 17 34 17 17 34 17 17 34 17 17 34 17 17 34 17 17 34 17 17 34 17 17 34 17 17 34 17 17 34 17 17 34 17 17 34 17 17 34 17 17 34 17 17 34 17 17 34 17 17 34 17 17 34 17 17 34 17 17 34 17 17 34 119 136 153 119 136 153 119 136 153 119 136 153 119 136 153 119 136 153 119 136 153 119 136 153 119 136 153 119 136 153 119 136 153 119 136 153 119 136 153 119 136 153 119 136 153 119 136 153 119 136 153 119 136 153 119 136 153 119 136 153 119 136 153 119 136 153 119 136 153 119 136 153 17 17 34 17 17 34 17 17 34 17 17 34 17 17 34 17 17 34 17 17 34 17 17 34 17 17 34 17 17 34 17 17 34 17 17 34 17 17 34 17 17 34 17 17 34 17 17 34 17 17 34 17 17 34 17 17 34 17 17 34 17 17 34 17 17 34 17 17 34 17 17 34 17 17 34 17 17 34 17 17 34 17 17 34 17 17 34 17 17 34 17 17 34 17 17 34 17 17 34 17 17 34 17 17 34 17 17 34 17 17 34 17 17 34 17 17 34 17 17 34 17 17 34 17 17 34 17 17 34 17 17 34 17 17 34 17 17 34 17 17 34 17 17 34 17 17 34 17 17 34 17 17 34 17 17 34 17 17 34 17 17 34 17 17 34 17 17 34 17 17 34 17 17 34 17 17 34 17 17 34 17 17 34 17 17 34 17 17 34 17 17 34 17 17 34 17 17 34 17 17 34 17 17 34 17 17 34 17 17 34 17 17 34 17 17 34 17 17 34 17 17 34 17 17 34 17 17 34 17 17 34 17 17 34 17 17 34 17 17 34 17 17 34 17 17 34 17 17 34 17 17 34 17 17 34 17 17 34 17 17 34 17 17 34 17 17 34 17 17 34 17 17 34 17 17 34 17 17 34 17 17 34 17 17 34 17 17 34 17 17 34 17 17 34 17 17 34 17 17 34 17 17 34 17 17 34 17 17 34 17 17 34 17 17 34 17 17 34 17 17 34 17 17 34 17 17 34 17 17 34 17 17 34 17 17 34 17 17 34 17 17 34 17 17 34 17 17 34 17 17 34 17 17 34 17 17 34 17 17 34 17 17 34 17 17 34 17 17 34 17 17 34 17 17 34 17 17 34 17 17 34 17 17 34 17 17 34 17 17 34 17 17 34 17 17 34 17 17 34 17 17 34 17 17 34 17 17 34 17 17 34 17 17 34 17 17 34 17 17 34 17 17 34 17 17 34 17 17 34 17 17 34 17 17 34 17 17 34 17 17 34 17 17 34
51 68 85 51 68 85 51 68 85 51 68 85 85 102 119 85 102 119 85 102 119 85 102 119 85 102 119 85 102 119 85 102 119 85 102 119 85 102 119 85 102 119 85 102 119 85 102 119 85 102 119 85 102 119 85 102 119 85 102 119 85 102 119 85 102 119 85 102 119 85 102 119 85 102 119 85 102 119 85 102 119 85 102 119 85 102 119 85 102 119 85 102 119 85 102 119 85 102 119 85 102 119 85 102 119 85 102 119 85 102 119 85 102 119 85 102 119 85 102 119 85 102 119 85 102 119 85 102 119 85 102 119 85 102 119 85 102 119 85 102 119 85 102 119 85 102 119 85 102 119 85 102 119 85 102 119 85 102 119 85 102 119 85 102 119 85 102 119 85 102 119 85 102 119 85 102 119 85 102 119 85 102 119 85 102 119 85 102 119 85 102 119 85 102 119 85 102 119 85 102 119 85 102 119 85 102 119 85 102 119 85 102 119 85 102 119 85 102 119 85 102 119 51 68 85 51 68 85 51 68 85 51 68 85 51 68 85 51 68 85 51 68 85 51 68 85 17 17 34 17 17 34 17 17 34 17 17 34 17 17 34 17 17 34 17 17 34 17 17 34 17 17 34 17 17 34 17 17 34 17 17 34 17 17 34 17 17 34 17 17 34 17 17 34 17 17 34 17 17 34 17 17 34 17 17 34 17 17 34 17 17 34 17 17 34 17 17 34 17 17 34 17 17 34 17 17 34 17 17 34 17 17 34 17 17 34 17 17 34 17 17 34 17 17 34 17 17 34 17 17 34 17 17 34 17 17 34 17 17 34 17 17 34 17 17 34 17 17 34 17 17 34 17 17 34 17 17 34 17 17 34 17 17 34 17 17 34 17 17 34 17 17 34 17 17 34 17 17 34 17 17 34 17 17 34 17 17 34 17 17 34 17 17 34 17 17 34 17 17 34 17 17 34 17 17 34 17 17 34 17 17 34 17 17 34 17 17 34 17 17 34 17 17 34 119 136 153 119 136 153 119 136 153 119 136 153 119 136 153 119 136 153 119 136 153 119 136 153 119 136 153 119 136 153 119 136 153 119 136 153 119 136 153 119 136 153 119 136 153 119 136 153 119 136 153 119 136 153 119 136 153 119 136 153 119 136 153 119 136 153 119 136 153 119 136 153 17 17 34 17 17 34 17 17 34 17 17 34 17 17 34 17 17 34 17 17 34 17 17 34 17 17 34 17 17 34 17 17 34 17 17 34 17 17 34 17 17 34 17 17 34 17 17 34 17 17 34 17 17 34 17 17 34 17 17 34 17 17 34 17 17 34 17 17 34 17 17 34 17 17 34 17 17 34 17 17 34 17 17 34 17 17 34 17 17 34 17 17 34 17 17 34 17 17 34 17 17 34 17 17 34 17 17 34 17 17 34 17 17 34 17 17 34 17 17 34 17 17 34 17 17 34 17 17 34 17 17 34 17 17 34 17 17 34 17 17 34 17 17 34 17 17 34 17 17 34 17 17 34 17 17 34 17 17 34 17 17 34 17 17 34 17 17 34 17 17 34 17 17 34 17 17 34 17 17 34 17 17 34 17 17 34 17 17 34 17 17 34 17 17 34 17 17 34 51 68 85 51 68 85 51 68 85 51 68 85 51 68 85 51 68 85 51 68 85 51 68 85 51 68 85 51 68 85 51 68 85 51 68 85 51 68 85 51 68 85 51 68 85 51 68 85 51 68 85 51 68 85 51 68 85 51 68 85 51 68 85 51 68 85 51 68 85 51 68 85 51 68 85 51 68 85 51 68 85 51 68 85 51 68 85 51 68 85 51 68 85 51 68 85 51 68 85 51 68 85 51 68 85 51 68 85 51 68 85 51 68 85 51 68 85 51 68 85 51 68 85 51 68 85 51 68 85 51 68 85 51 68 85 51 68 85 51 68 85 51 68 85 51 68 85 51 68 85 51 68 85 51 68 85 51 68 85 51 68 85 51 68 85 51 68 85 51 68 85 51 68 85 51 68 85 51 68 85 51 68 85 51 68 85 51 68 85 51 68 85 51 68 85 51 68 85 51 68 85 51 68 85 51 68 85 51 68 85 51 68 85 51 68 85 51 68 85 51 68 85 51 68 85 51 68 85 51 68 85 51 68 85 51 68 85 51 68 85 51 68 85 51 68 85
51 68 85 51 68 85 51 68 85 51 68 85 85 102 119 85 102 119 85 102 119 85 102 119 85 102 119 85 102 119 85 102 119 85 102 119 85 102 119 85 102 119 85 102 119 85 102 119 85 102 119 85 102 119 85 102 119 85 102 119 85 102 119 85 102 119 85 102 119 85 102 119 85 102 119 85 102 119 85 102 119 85 102 119 85 102 119 85 102 119 85 102 119 85 102 119 85 102 119 85 102 119 85 102 119 85 102 119 85 102 119 85 102 119 85 102 119 85 102 119 85 102 119 85 102 119 85 102 119 85 102 119 85 102 119 85 102 119 85 102 119 85 102 119 85 102 119 85 102 119 85 102 119 85 102 119 85 102 119 85 102 119 85 102 119 85 102 119 85 102 119 85 102 119 85 102 119 85 102 119 85 102 119 85 102 119 85 102 119 85 102 119 85 102 119 85 102 119 85 102 119 85 102 119 85 102 119 85 102 119 85 102 119 85 102 119 85 102 119 85 102 119 51 68 85 51 68 85 51 68 85 51 68 85 51 68 85 51 68 85 51 68 85 51 68 85 17 17 34 17 17 34 17 17 34 17 17 34 17 17 34 17 17 34 17 17 34 17 17 34 17 17 34 17 17 34 17 17 34 17 17 34 17 17 34 17 17 34 17 17 34 17 17 34 17 17 34 17 17 34 17 17 34 17 17 34 17 17 34 17 17 34 17 17 34 17 17 34 17 17 34 17 17 34 17 17 34 17 17 34 17 17 34 17 17 34 17 17 34 17 17 34 17 17 34 17 17 34 17 17 34 17 17 34 17 17 34 17 17 34 17 17 34 17 17 34 17 17 34 17 17 34 17 17 34 17 17 34 17 17 34 17 17 34 17 17 34 17 17 34 17 17 34 17 17 34 17 17 34 17 17 34 17 17 34 17 17 34 17 17 34 17 17 34 17 17 34 17 17 34 17 17 34 17 17 34 17 17 34 17 17 34 17 17 34 17 17 34 17 17 34 17 17 34 119 136 153 119 136 153 119 136 153 119 136 153 119 136 153 119 136 153 119 136 153 119 136 153 119 136 153 119 136 153 119 136 153 119 136 153 119 136 153 119 136 153 119 136 153 119 136 153 119 136 153 119 136 153 119 136 153 119 136 153 119 136 153 119 136 153 119 136 153 119 136 153 17 17 34 17 17 34 17 17 34 17 17 34 17 17 34 17 17 34 17 17 34 17 17 34 17 17 34 17 17 34 17 17 34 17 17 34 17 17 34 17 17 34 17 17 34 17 17 34 17 17 34 17 17 34 17 17 34 17 17 34 17 17 34 17 17 34 17 17 34 17 17 34 17 17 34 17 17 34 17 17 34 17 17 34 17 17 34 17 17 34 17 17 34 17 17 34 17 17 34 17 17 34 17 17 34 17 17 34 17 17 34 17 17 34 17 17 34 17 17 34 17 17 34 17 17 34 17 17 34 17 17 34 17 17 34 17 17 34 17 17 34 17 17 34 17 17 34 17 17 34 17 17 34 17 17 34 17 17 34 17 17 34 17 17 34 17 17 34 17 17 34 17 17 34 17 17 34 17 17 34 17 17 34 17 17 34 17 17 34 17 17 34 17 17 34 17 17 34 51 68 85 51 68 85 51 68 85 51 68 85 51 68 85 51 68 85 51 68 85 51 68 85 51 68 85 51 68 85 51 68 85 51 68 85 51 68 85 51 68 85 51 68 85 51 68 85 51 68 85 51 68 85 51 68 85 51 68 85 51 68 85 51 68 85 51 68 85 51 68 85 51 68 85 51 68 85 51 68 85 51 68 85 51 68 85 51 68 85 51 68 85 51 68 85 51 68 85 51 68 85 51 68 85 51 68 85 51 68 85 51 68 85 51 68 85 51 68 85 51 68 85 51 68 85 51 68 85 51 68 85 51 68 85 51 68 85 51 68 85 51 68 85 51 68 85 51 68 85 51 68 85 51 68 85 51 68 85 51 68 85 51 68 85 51 68 85 51 68 85 51 68 85 51 68 85 51 68 85 51 68 85 51 68 85 51 68 85 51 68 85 51 68 85 51 68 85 51 68 85 51 68 85 51 68 85 51 68 85 51 68 85 51 68 85 51 68 85 51 68 85 51 68 85 51 68 85 51 68 85 51 68 85 51 68 85 51 68 85 51 68 85 51 68 85
51 68 85 51 68 85 51 68 85 51 68 85 85 102 119 85 102 119 85 102 119 85 102 119 85 102 119 85 102 119 85 102 119 85 102 119 85 102 119 85 102 119 85 102 119 85 102 119 85 102 119 85 102 119 85 102 119 85 102 119 85 102 119 85 102 119 85 102 119 85 102 119 85 102 119 85 102 119 85 102 119 85 102 119 85 102 119 85 102 119 85 102 119 85 102 119 85 102 119 85 102 119 85 102 119 85 102 119 85 102 119 85 102 119 85 102 119 85 102 119 85 102 119 85 102 119 85 102 119 85 102 119 85 102 119 85 102 119 85 102 119 85 102 119 85 102 119 85 102 119 85 102 119 85 102 119 85 102 119 85 102 119 85 102 119 85 102 119 85 102 119 85 102 119 85 102 119 85 102 119 85 102 119 85 102 119 85 102 119 85 102 119 85 102 119 85 102 119 85 102 119 85 102 119 85 102 119 85 102 119 85 102 119 85 102 119 85 102 119 85 102 119 51 68 85 51 68 85 51 68 85 51 68 85 0 51 102 0 51 102 0 51 102 0 51 102 0 51 102 0 51 102 0 51 102 0 51 102 0 51 102 0 51 102 17 17 34 17 17 34 17 17 34 17 17 34 17 17 34 17 17 34 17 17 34 17 17 34 17 17 34 17 17 34 17 17 34 17 17 34 17 17 34 17 17 34 17 17 34 17 17 34 17 17 34 17 17 34 17 17 34 17 17 34 17 17 34 17 17 34 17 17 34 17 17 34 17 17 34 17 17 34 17 17 34 17 17 34 17 17 34 17 17 34 17 17 34 17 17 34 17 17 34 17 17 34 17 17 34 17 17 34 17 17 34 17 17 34 17 17 34 17 17 34 17 17 34 17 17 34 17 17 34 17 17 34 17 17 34 17 17 34 17 17 34 17 17 34 17 17 34 17 17 34 17 17 34 17 17 34 17 17 34 17 17 34 17 17 34 17 17 34 17 17 34 17 17 34 17 17 34 17 17 34 17 17 34 17 17 34 17 17 34 17 17 34 17 17 34 17 17 34 17 17 34 17 17 34 17 17 34 17 17 34 17 17 34 17 17 34 17 17 34 17 17 34 17 17 34 17 17 34 17 17 34 17 17 34 17 17 34 17 17 34 17 17 34 17 17 34 17 17 34 17 17 34 17 17 34 17 17 34 17 17 34 17 17 34 17 17 34 17 17 34 17 17 34 17 17 34 17 17 34 17 17 34 17 17 34 17 17 34 17 17 34 17 17 34 17 17 34 17 17 34 17 17 34 17 17 34 17 17 34 17 17 34 17 17 34 17 17 34 17 17 34 17 17 34 17 17 34 17 17 34 17 17 34 17 17 34 17 17 34 17 17 34 17 17 34 17 17 34 17 17 34 17 17 34 17 17 34 17 17 34 17 17 34 17 17 34 17 17 34 17 17 34 17 17 34 17 17 34 17 17 34 17 17 34 17 17 34 17 17 34 17 17 34 17 17 34 17 17 34 17 17 34 17 17 34 17 17 34 17 17 34 17 17 34 17 17 34 17 17 34 17 17 34 17 17 34 17 17 34 17 17 34 17 17 34 17 17 34 17 17 34 17 17 34 17 17 34 17 17 34 51 68 85 51 68 85 51 68 85 51 68 85 51 68 85 51 68 85 51 68 85 51 68 85 51 68 85 51 68 85 51 68 85 51 68 85 51 68 85 51 68 85 51 68 85 51 68 85 51 68 85 51 68 85 51 68 85 51 68 85 51 68 85 51 68 85 51 68 85 51 68 85 51 68 85 51 68 85 51 68 85 51 68 85 51 68 85 51 68 85 51 68 85 51 68 85 51 68 85 51 68 85 51 68 85 51 68 85 51 68 85 51 68 85 51 68 85 51 68 85 51 68 85 51 68 85 51 68 85 51 68 85 51 68 85 51 68 85 51 68 85 51 68 85 51 68 85 51 68 85 51 68 85 51 68 85 51 68 85 51 68 85 51 68 85 51 68 85 51 68 85 51 68 85 51 68 85 51 68 85 51 68 85 51 68 85 51 68 85 51 68 85 51 68 85 51 68 85 51 68 85 51 68 85 51 68 85 51 68 85 51 68 85 51 68 85 51 68 85 51 68 85 51 68 85 51 68 85 51 68 85 51 68 85 51 68 85 51 68 85 51 68 85 51 68 85
51 68 85 51 68 85 51 68 85 51 68 85 85 102 119 85 102 119 85 102 119 85 102 119 85 102 119 85 102 119 85 102 119 85 102 119 85 102 119 85 102 119 85 102 119 85 102 119 85 102 119 85 102 119 85 102 119 85 102 119 85 102 119 85 102 119 85 102 119 85 102 119 85 102 119 85 102 119 85 102 119 85 102 119 85 102 119 85 102 119 85 102 119 85 102 119 85 102 119 85 102 119 85 102 119 85 102 119 85 102 119 85 102 119 85 102 119 85 102 119 85 102 119 85 102 119 85 102 119 85 102 119 85 102 119 85 102 119 85 102 119 85 102 119 85 102 119 85 102 119 85 102 119 85 102 119 85 102 119 85 102 119 85 102 119 85 102 119 85 102 119 85 102 119 85 102 119 85 102 119 85 102 119 85 102 119 85 102 119 85 102 119 85 102 119 85 102 119 85 102 119 85 102 119 85 102 119 85 102 119 85 102 119 85 102 119 85 102 119 85 102 119 51 68 85 51 68 85 51 68 85 51 68 85 0 51 102 0 51 102 0 170 221 0 170 221 0 170 221 0 170 221 0 170 221 0 170 221 0 51 102 0 51 102 17 17 34 17 17 34 17 17 34 17 17 34 17 17 34 17 17 34 17 17 34 17 17 34 17 17 34 17 17 34 17 17 34 17 17 34 17 17 34 17 17 34 17 17 34 17 17 34 17 17 34 17 17 34 17 17 34 17 17 34 17 17 34 17 17 34 17 17 34 17 17 34 17 17 34 17 17 34 17 17 34 17 17 34 17 17 34 17 17 34 17 17 34 17 17 34 17 17 34 17 17 34 17 17 34 17 17 34 17 17 34 17 17 34 17 17 34 17 17 34 17 17 34 17 17 34 17 17 34 17 17 34 17 17 34 17 17 34 17 17 34 17 17 34 17 17 34 17 17 34 17 17 34 17 17 34 17 17 34 17 17 34 17 17 34 17 17 34 17 17 34 17 17 34 17 17 34 17 17 34 17 17 34 17 17 34 17 17 34 17 17 34 17 17 34 17 17 34 17 17 34 17 17 34 17 17 34 17 17 34 17 17 34 17 17 34 17 17 34 17 17 34 17 17 34 17 17 34 17 17 34 17 17 34 17 17 34 17 17 34 17 17 34 17 17 34 17 17 34 17 17 34 17 17 34 17 17 34 17 17 34 17 17 34 17 17 34 17 17 34 17 17 34 17 17 34 17 17 34 17 17 34 17 17 34 17 17 34 17 17 34 17 17 34 17 17 34 17 17 34 17 17 34 17 17 34 17 17 34 17 17 34 17 17 34 17 17 34 17 17 34 17 17 34 17 17 34 17 17 34 17 17 34 17 17 34 17 17 34 17 17 34 17 17 34 17 17 34 17 17 34 17 17 34 17 17 34 17 17 34 17 17 34 17 17 34 17 17 34 17 17 34 17 17 34 17 17 34 17 17 34 17 17 34 17 17 34 17 17 34 17 17 34 17 17 34 17 17 34 17 17 34 17 17 34 17 17 34 17 17 34 17 17 34 17 17 34 17 17 34 17 17 34 17 17 34 17 17 34 17 17 34 17 17 34 17 17 34 17 17 34 17 17 34 17 17 34 17 17 34 51 68 85 51 68 85 51 68 85 51 68 85 51 68 85 51 68 85 51 68 85 51 68 85 51 68 85 51 68 85 51 68 85 51 68 85 51 68 85 51 68 85 51 68 85 51 68 85 51 68 85 51 68 85 51 68 85 51 68 85 51 68 85 51 68 85 51 68 85 51 68 85 51 68 85 51 68 85 51 68 85 51 68 85 51 68 85 51 68 85 51 68 85 51 68 85 51 68 85 51 68 85 51 68 85 51 68 85 51 68 85 51 68 85 51 68 85 51 68 85 51 68 85 51 68 85 51 68 85 51 68 85 51 68 85 51 68 85 51 68 85 51 68 85 51 68 85 51 68 85 51 68 85 51 68 85 51 68 85 51 68 85 51 68 85 51 68 85 51 68 85 51 68 85 51 68 85 51 68 85 51 68 85 51 68 85 51 68 85 51 68 85 51 68 85 51 68 85 51 68 85 51 68 85 51 68 85 51 68 85 51 68 85 51 68 85 51 68 85 51 68 85 51 68 85 51 68 85 51 68 85 51 68 85 51 68 85 51 68 85 51 68 85 51 68 85
51 68 85 51 68 85 51 68 85 51 68 85 85 102 119 85 102 119 85 102 119 85 102 119 85 102 119 85 102 119 85 102 119 85 102 119 85 102 119 85 102 119 85 102 119 85 102 119 85 102 119 85 102 119 85 102 119 85 102 119 85 102 119 85 102 119 85 102 119 85 102 119 85 102 119 85 102 119 85 102 119 85 102 119 85 102 119 85 102 119 85 102 119 85 102 119 85 102 119 85 102 119 85 102 119 85 102 119 85 102 119 85 102 119 85 102 119 85 102 119 85 102 119 85 102 119 85 102 119 85 102 119 85 102 119 85 102 119 85 102 119 85 102 119 85 102 119 85 102 119 85 102 119 85 102 119 85 102 119 85 102 119 85 102 119 85 102 119 85 102 119 85 102 119 85 102 119 85 102 119 85 102 119 85 102 119 85 102 119 85 102 119 85 102 119 85 102 119 85 102 119 85 102 119 85 102 119 85 102 119 85 102 119 85 102 119 85 102 119 85 102 119 51 68 85 51 68 85 51 68 85 51 68 85 0 51 102 0 51 102 0 170 221 0 170 221 0 170 221 0 170 221 0 170 221 0 170 221 0 51 102 0 51 102 17 17 34 17 17 34 17 17 34 17 17 34 17 17 34 17 17 34 17 17 34 17 17 34 17 17 34 17 17 34 17 17 34 17 17 34 17 17 34 17 17 34 17 17 34 17 17 34 17 17 34 17 17 34 17 17 34 17 17 34 17 17 34 17 17 34 17 17 34 17 17 34 17 17 34 17 17 34 17 17 34 17 17 34 17 17 34 17 17 34 17 17 34 17 17 34 17 17 34 17 17 34 17 17 34 17 17 34 17 17 34 17 17 34 17 17 34 17 17 34 17 17 34 17 17 34 17 17 34 17 17 34 17 17 34 17 17 34 17 17 34 17 17 34 17 17 34 17 17 34 17 17 34 17 17 34 17 17 34 17 17 34 17 17 34 17 17 34 17 17 34 17 17 34 17 17 34 17 17 34 17 17 34 17 17 34 17 17 34 17 17 34 17 17 34 17 17 34 17 17 34 17 17 34 17 17 34 17 17 34 17 17 34 17 17 34 17 17 34 17 17 34 17 17 34 17 17 34 17 17 34 17 17 34 17 17 34 17 17 34 17 17 34 17 17 34 17 17 34 17 17 34 17 17 34 17 17 34 17 17 34 17 17 34 17 17 34 17 17 34 17 17 34 17 17 34 17 17 34 17 17 34 17 17 34 17 17 34 17 17 34 17 17 34 17 17 34 17 17 34 17 17 34 17 17 34 17 17 34 17 17 34 17 17 34 17 17 34 17 17 34 17 17 34 17 17 34 17 17 34 17 17 34 17 17 34 17 17 34 17 17 34 17 17 34 17 17 34 17 17 34 17 17 34 17 17 34 17 17 34 17 17 34 17 17 34 17 17 34 17 17 34 17 17 34 17 17 34 17 17 34 17 17 34 17 17 34 17 17 34 17 17 34 17 17 34 17 17 34 17 17 34 17 17 34 17 17 34 17 17 34 17 17 34 17 17 34 17 17 34 17 17 34 17 17 34 17 17 34 17 17 34 17 17 34 17 17 34 17 17 34 17 17 34 17 17 34 17 17 34 51 68 85 51 68 85 51 68 85 51 68 85 51 68 85 51 68 85 51 68 85 51 68 85 85 102 119 85 102 119 85 102 119 85 102 119 85 102 119 85 102 119 85 102 119 85 102 119 85 102 119 85 102 119 85 102 119 85 102 119 85 102 119 85 102 119 85 102 119 85 102 119 85 102 119 85 102 119 85 102 119 85 102 119 85 102 119 85 102 119 85 102 119 85 102 119 85 102 119 85 102 119 85 102 119 85 102 119 85 102 119 85 102 119 85 102 119 85 102 119 85 102 119 85 102 119 85 102 119 85 102 119 85 102 119 85 102 119 85 102 119 85 102 119 85 102 119 85 102 119 85 102 119 85 102 119 85 102 119 85 102 119 85 102 119 85 102 119 85 102 119 85 102 119 85 102 119 85 102 119 85 102 119 85 102 119 85 102 119 85 102 119 85 102 119 85 102 119 85 102 119 85 102 119 85 102 119 85 102 119 85 102 119 85 102 119 85 102 119 85 102 119 85 102 119 85 102 119 85 102 119 85 102 119 51 68 85 51 68 85 51 68 85 51 68 85
51 68 85 51 68 85 51 68 85 51 68 85 85 102 119 85 102 119 85 102 119 85 102 119 85 102 119 85 102 119 85 102 119 85 102 119 85 102 119 85 102 119 85 102 119 85 102 119 85 102 119 85 102 119 85 102 119 85 102 119 85 102 119 85 102 119 85 102 119 85 102 119 85 102 119 85 102 119 85 102 119 85 102 119 85 102 119 85 102 119 85 102 119 85 102 119 85 102 119 85 102 119 85 102 119 85 102 119 85 102 119 85 102 119 85 102 119 85 102 119 85 102 119 85 102 119 85 102 119 85 102 119 85 102 119 85 102 119 85 102 119 85 102 119 85 102 119 85 102 119 85 102 119 85 102 119 85 102 119 85 102 119 85 102 119 85 102 119 85 102 119 85 102 119 85 102 119 85 102 119 85 102 119 85 102 119 85 102 119 85 102 119 85 102 119 85 102 119 85 102 119 85 102 119 85 102 119 85 102 119 85 102 119 85 102 119 85 102 119 85 102 119 51 68 85 51 68 85 51 68 85 51 68 85 0 51 102 0 51 102 0 51 102 0 51 102 0 51 102 0 51 102 0 51 102 0 51 102 0 51 102 0 51 102 17 17 34 17 17 34 17 17 34 17 17 34 17 17 34 17 17 34 17 17 34 17 17 34 17 17 34 17 17 34 17 17 34 17 17 34 17 17 34 17 17 34 17 17 34 17 17 34 17 17 34 17 17 34 17 17 34 17 17 34 17 17 34 17 17 34 17 17 34 17 17 34 17 17 34 17 17 34 17 17 34 17 17 34 17 17 34 17 17 34 17 17 34 17 17 34 17 17 34 17 17 34 17 17 34 17 17 34 17 17 34 17 17 34 17 17 34 17 17 34 17 17 34 17 17 34 17 17 34 17 17 34 17 17 34 17 17 34 17 17 34 17 17 34 17 17 34 17 17 34 17 17 34 17 17 34 17 17 34 17 17 34 17 17 34 17 17 34 17 17 34 17 17 34 17 17 34 17 17 34 17 17 34 17 17 34 17 17 34 17 17 34 17 17 34 17 17 34 17 17 34 17 17 34 17 17 34 17 17 34 17 17 34 17 17 34 17 17 34 17 17 34 17 17 34 17 17 34 17 17 34 17 17 34 17 17 34 17 17 34 17 17 34 17 17 34 17 17 34 17 17 34 17 17 34 17 17 34 17 17 34 17 17 34 17 17 34 17 17 34 17 17 34 17 17 34 17 17 34 17 17 34 17 17 34 17 17 34 17 17 34 17 17 34 17 17 34 17 17 34 17 17 34 17 17 34 17 17 34 17 17 34 17 17 34 17 17 34 17 17 34 17 17 34 17 17 34 17 17 34 17 17 34 17 17 34 17 17 34 17 17 34 17 17 34 17 17 34 17 17 34 17 17 34 17 17 34 17 17 34 17 17 34 17 17 34 17 17 34 17 17 34 17 17 34 17 17 34 17 17 34 17 17 34 17 17 34 17 17 34 17 17 34 17 17 34 17 17 34 17 17 34 17 17 34 17 17 34 17 17 34 17 17 34 17 17 34 17 17 34 17 17 34 17 17 34 17 17 34 17 17 34 17 17 34 17 17 34 17 17 34 17 17 34 17 17 34 17 17 34 51 68 85 51 68 85 51 68 85 51 68 85 51 68 85 51 68 85 51 68 85 51 68 85 85 102 119 85 102 119 85 102 119 85 102 119 85 102 119 85 102 119 85 102 119 85 102 119 85 102 119 85 102 119 85 102 119 85 102 119 85 102 119 85 102 119 85 102 119 85 102 119 85 102 119 85 102 119 85 102 119 85 102 119 85 102 119 85 102 119 85 102 119 85 102 119 85 102 119 85 102 119 85 102 119 85 102 119 85 102 119 85 102 119 85 102 119 85 102 119 85 102 119 85 102 119 85 102 119 85 102 119 85 102 119 85 102 119 85 102 119 85 102 119 85 102 119 85 102 119 85 102 119 85 102 119 85 102 119 85 102 119 85 102 119 85 102 119 85 102 119 85 102 119 85 102 119 85 102 119 85 102 119 85 102 119 85 102 119 85 102 119 85 102 119 85 102 119 85 102 119 85 102 119 85 102 119 85 102 119 85 102 119 85 102 119 85 102 119 85 102 119 85 102 119 85 102 119 85 102 119 85 102 119 51 68 85 51 68 85 51 68 85 51 68 85
51 68 85 51 68 85 51 68 85 51 68 85 85 102 119 85 102 119 85 102 119 85 102 119 85 102 119 85 102 119 85 102 119 85 102 119 85 102 119 85 102 119 85 102 119 85 102 119 85 102 119 85 102 119 85 102 119 85 102 119 85 102 119 85 102 119 85 102 119 85 102 119 85 102 119 85 102 119 85 102 119 85 102 119 85 102 119 85 102 119 85 102 119 85 102 119 85 102 119 85 102 119 85 102 119 85 102 119 85 102 119 85 102 119 85 102 119 85 102 119 85 102 119 85 102 119 85 102 119 85 102 119 85 102 119 85 102 119 85 102 119 85 102 119 85 102 119 85 102 119 85 102 119 85 102 119 85 102 119 85 102 119 85 102 119 85 102 119 85 102 119 85 102 119 85 102 119 85 102 119 85 102 119 85 102 119 85 102 119 85 102 119 85 102 119 85 102 119 85 102 119 85 102 119 85 102 119 85 102 119 85 102 119 85 102 119 85 102 119 85 102 119 51 68 85 51 68 85 51 68 85 51 68 85 51 68 85 51 68 85 51 68 85 51 68 85 17 17 34 17 17 34 17 17 34 17 17 34 17 17 34 17 17 34 17 17 34 17 17 34 17 17 34 17 17 34 17 17 34 17 17 34 17 17 34 17 17 34 17 17 34 17 17 34 17 17 34 17 17 34 17 17 34 17 17 34 17 17 34 17 17 34 17 17 34 17 17 34 17 17 34 17 17 34 17 17 34 17 17 34 17 17 34 17 17 34 17 17 34 17 17 34 17 17 34 17 17 34 17 17 34 17 17 34 17 17 34 17 17 34 17 17 34 17 17 34 17 17 34 17 17 34 17 17 34 17 17 34 17 17 34 17 17 34 17 17 34 17 17 34 17 17 34 17 17 34 17 17 34 17 17 34 17 17 34 17 17 34 17 17 34 17 17 34 17 17 34 17 17 34 17 17 34 17 17 34 17 17 34 17 17 34 17 17 34 17 17 34 17 17 34 17 17 34 17 17 34 17 17 34 17 17 34 17 17 34 17 17 34 17 17 34 17 17 34 17 17 34 17 17 34 17 17 34 17 17 34 17 17 34 17 17 34 17 17 34 17 17 34 17 17 34 17 17 34 17 17 34 17 17 34 17 17 34 17 17 34 17 17 34 17 17 34 17 17 34 17 17 34 17 17 34 17 17 34 17 17 34 17 17 34 17 17 34 17 17 34 17 17 34 17 17 34 17 17 34 17 17 34 17 17 34 17 17 34 17 17 34 17 17 34 17 17 34 17 17 34 17 17 34 17 17 34 17 17 34 17 17 34 17 17 34 17 17 34 17 17 34 17 17 34 17 17 34 17 17 34 17 17 34 17 17 34 17 17 34 17 17 34 17 17 34 17 17 34 17 17 34 17 17 34 17 17 34 17 17 34 17 17 34 17 17 34 17 17 34 17 17 34 17 17 34 17 17 34 17 17 34 17 17 34 17 17 34 17 17 34 17 17 34 17 17 34 17 17 34 17 17 34 17 17 34 17 17 34 17 17 34 17 17 34 17 17 34 17 17 34 17 17 34 17 17 34 17 17 34 17 17 34 17 17 34 17 17 34 17 17 34 17 17 34 17 17 34 51 68 85 51 68 85 51 68 85 51 68 85 51 68 85 51 68 85 51 68 85 51 68 85 85 102 119 85 102 119 85 102 119 85 102 119 85 102 119 85 102 119 85 102 119 85 102 119 85 102 119 85 102 119 85 102 119 85 102 119 85 102 119 85 102 119 85 102 119 85 102 119 85 102 119 85 102 119 85 102 119 85 102 119 85 102 119 85 102 119 85 102 119 85 102 119 85 102 119 85 102 119 85 102 119 85 102 119 85 102 119 85 102 119 85 102 119 85 102 119 85 102 119 85 102 119 85 102 119 85 102 119 85 102 119 85 102 119 85 102 119 85 102 119 85 102 119 85 102 119 85 102 119 85 102 119 85 102 119 85 102 119 85 102 119 85 102 119 85 102 119 85 102 119 85 102 119 85 102 119 85 102 119 85 102 119 85 102 119 85 102 119 85 102 119 85 102 119 85 102 119 85 102 119 85 102 119 85 102 119 85 102 119 85 102 119 85 102 119 85 102 119 85 102 119 85 102 119 85 102 119 85 102 119 51 68 85 51 68 85 51 68 85 51 68 85
51 68 85 51 68 85 51 68 85 51 68 85 85 102 119 85 102 119 85 102 119 85 102 119 85 102 119 85 102 119 85 102 119 85 102 119 85 102 119 85 102 119 85 102 119 85 102 119 85 102 119 85 102 119 85 102 119 85 102 119 85 102 119 85 102 119 85 102 119 85 102 119 85 102 119 85 102 119 85 102 119 85 102 119 85 102 119 85 102 119 85 102 119 85 102 119 85 102 119 85 102 119 85 102 119 85 102 119 85 102 119 85 102 119 85 102 119 85 102 119 85 102 119 85 102 119 85 102 119 85 102 119 85 102 119 85 102 119 85 102 119 85 102 119 85 102 119 85 102 119 85 102 119 85 102 119 85 102 119 85 102 119 85 102 119 85 102 119 85 102 119 85 102 119 85 102 119 85 102 119 85 102 119 85 102 119 85 102 119 85 102 119 85 102 119 85 102 119 85 102 119 85 102 119 85 102 119 85 102 119 85 102 119 85 102 119 85 102 119 85 102 119 51 68 85 51 68 85 51 68 85 51 68 85 51 68 85 51 68 85 51 68 85 51 68 85 17 17 34 17 17 34 17 17 34 17 17 34 17 17 34 17 17 34 17 17 34 17 17 34 17 17 34 17 17 34 17 17 34 17 17 34 17 17 34 17 17 34 17 17 34 17 17 34 17 17 34 17 17 34 17 17 34 17 17 34 17 17 34 17 17 34 17 17 34 17 17 34 17 17 34 17 17 34 17 17 34 17 17 34 17 17 34 17 17 34 17 17 34 17 17 34 17 17 34 17 17 34 17 17 34 17 17 34 17 17 34 17 17 34 17 17 34 17 17 34 17 17 34 17 17 34 17 17 34 17 17 34 17 17 34 17 17 34 17 17 34 17 17 34 17 17 34 17 17 34 17 17 34 17 17 34 17 17 34 17 17 34 17 17 34 17 17 34 17 17 34 17 17 34 17 17 34 17 17 34 17 17 34 17 17 34 17 17 34 17 17 34 17 17 34 17 17 34 17 17 34 17 17 34 17 17 34 17 17 34 17 17 34 17 17 34 17 17 34 17 17 34 17 17 34 17 17 34 17 17 34 17 17 34 17 17 34 17 17 34 17 17 34 17 17 34 17 17 34 17 17 34 17 17 34 17 17 34 17 17 34 17 17 34 17 17 34 17 17 34 17 17 34 17 17 34 17 17 34 17 17 34 17 17 34 17 17 34 17 17 34 17 17 34 17 17 34 17 17 34 17 17 34 17 17 34 17 17 34 17 17 34 17 17 34 17 17 34 17 17 34 17 17 34 17 17 34 17 17 34 17 17 34 17 17 34 17 17 34 17 17 34 17 17 34 17 17 34 17 17 34 17 17 34 17 17 34 17 17 34 17 17 34 17 17 34 17 17 34 17 17 34 17 17 34 17 17 34 17 17 34 17 17 34 17 17 34 17 17 34 17 17 34 17 17 34 17 17 34 17 17 34 17 17 34 17 17 34 17 17 34 17 17 34 17 17 34 17 17 34 17 17 34 17 17 34 17 17 34 17 17 34 17 17 34 17 17 34 17 17 34 17 17 34 17 17 34 17 17 34 17 17 34 17 17 34 17 17 34 17 17 34 17 17 34 17 17 34 51 68 85 51 68 85 51 68 85 51 68 85 51 68 85 51 68 85 51 68 85 51 68 85 85 102 119 85 102 119 85 102 119 85 102 119 85 102 119 85 102 119 85 102 119 85 102 119 85 102 119 85 102 119 85 102 119 85 102 119 85 102 119 85 102 119 85 102 119 85 102 119 85 102 119 85 102 119 85 102 119 85 102 119 85 102 119 85 102 119 85 102 119 85 102 119 85 102 119 85 102 119 85 102 119 85 102 119 85 102 119 85 102 119 85 102 119 85 102 119 85 102 119 85 102 119 85 102 119 85 102 119 85 102 119 85 102 119 85 102 119 85 102 119 85 102 119 85 102 119 85 102 119 85 102 119 85 102 119 85 102 119 85 102 119 85 102 119 85 102 119 85 102 119 85 102 119 85 102 119 85 102 119 85 102 119 85 102 119 85 102 119 85 102 119 85 102 119 85 102 119 85 102 119 85 102 119 85 102 119 85 102 119 85 102 119 85 102 119 85 102 119 85 102 119 85 102 119 85 102 119 85 102 119 51 68 85 51 68 85 51 68 85 51 68 85
51 68 85 51 68 85 51 68 85 51 68 85 85 102 119 85 102 119 85 102 119 85 102 119 85 102 119 85 102 119 85 102 119 85 102 119 85 102 119 85 102 119 85 102 119 85 102 119 85 102 119 85 102 119 85 102 119 85 102 119 85 102 119 85 102 119 85 102 119 85 102 119 85 102 119 85 102 119 85 102 119 85 102 119 85 102 119 85 102 119 85 102 119 85 102 119 85 102 119 85 102 119 85 102 119 85 102 119 85 102 119 85 102 119 85 102 119 85 102 119 85 102 119 85 102 119 85 102 119 85 102 119 85 102 119 85 102 119 85 102 119 85 102 119 85 102 119 85 102 119 85 102 119 85 102 119 85 102 119 85 102 119 85 102 119 85 102 119 85 102 119 85 102 119 85 102 119 85 102 119 85 102 119 85 102 119 85 102 119 85 102 119 85 102 119 85 102 119 85 102 119 85 102 119 85 102 119 85 102 119 85 102 119 85 102 119 85 102 119 85 102 119 51 68 85 51 68 85 51 68 85 51 68 85 51 68 85 51 68 85 51 68 85 51 68 85 17 17 34 17 17 34 17 17 34 17 17 34 17 17 34 17 17 34 17 17 34 17 17 34 17 17 34 17 17 34 17 17 34 17 17 34 17 17 34 17 17 34 17 17 34 17 17 34 17 17 34 17 17 34 17 17 34 17 17 34 17 17 34 17 17 34 17 17 34 17 17 34 17 17 34 17 17 34 17 17 34 17 17 34 17 17 34 17 17 34 17 17 34 17 17 34 17 17 34 17 17 34 17 17 34 17 17 34 17 17 34 17 17 34 17 17 34 17 17 34 17 17 34 17 17 34 17 17 34 17 17 34 17 17 34 17 17 34 17 17 34 17 17 34 17 17 34 17 17 34 17 17 34 17 17 34 17 17 34 17 17 34 17 17 34 17 17 34 17 17 34 17 17 34 17 17 34 17 17 34 17 17 34 17 17 34 17 17 34 17 17 34 17 17 34 17 17 34 17 17 34 17 17 34 17 17 34 17 17 34 17 17 34 17 17 34 17 17 34 17 17 34 17 17 34 17 17 34 17 17 34 17 17 34 17 17 34 17 17 34 17 17 34 17 17 34 17 17 34 17 17 34 17 17 34 17 17 34 17 17 34 17 17 34 17 17 34 17 17 34 17 17 34 17 17 34 17 17 34 17 17 34 17 17 34 17 17 34 17 17 34 17 17 34 17 17 34 17 17 34 17 17 34 17 17 34 17 17 34 17 17 34 17 17 34 17 17 34 17 17 34 17 17 34 17 17 34 17 17 34 17 17 34 17 17 34 17 17 34 17 17 34 17 17 34 17 17 34 17 17 34 17 17 34 17 17 34 17 17 34 17 17 34 17 17 34 17 17 34 17 17 34 17 17 34 17 17 34 17 17 34 17 17 34 17 17 34 17 17 34 17 17 34 17 17 34 17 17 34 17 17 34 17 17 34 17 17 34 17 17 34 17 17 34 17 17 34 17 17 34 17 17 34 17 17 34 17 17 34 17 17 34 17 17 34 17 17 34 17 17 34 17 17 34 17 17 34 17 17 34 17 17 34 17 17 34 17 17 34 17 17 34 17 17 34 17 17 34 51 68 85 51 68 85 51 68 85 51 68 85 51 68 85 51 68 85 51 68 85 51 68 85 85 102 119 85 102 119 85 102 119 85 102 119 85 102 119 85 102 119 85 102 119 85 102 119 85 102 119 85 102 119 85 102 119 85 102 119 85 102 119 85 102 119 85 102 119 85 102 119 85 102 119 85 102 119 85 102 119 85 102 119 85 102 119 85 102 119 85 102 119 85 102 119 85 102 119 85 102 119 85 102 119 85 102 119 85 102 119 85 102 119 85 102 119 85 102 119 85 102 119 85 102 119 85 102 119 85 102 119 85 102 119 85 102 119 85 102 119 85 102 119 85 102 119 85 102 119 85 102 119 85 102 119 85 102 119 85 102 119 85 102 119 85 102 119 85 102 119 85 102 119 85 102 119 85 102 119 85 102 119 85 102 119 85 102 119 85 102 119 85 102 119 85 102 119 85 102 119 85 102 119 85 102 119 85 102 119 85 102 119 85 102 119 85 102 119 85 102 119 85 102 119 85 102 119 85 102 119 85 102 119 51 68 85 51 68 85 51 68 85 51 68 85
51 68 85 51 68 85 51 68 85 51 68 85 85 102 119 85 102 119 85 102 119 85 102 119 85 102 119 85 102 119 85 102 119 85 102 119 85 102 119 85 102 119 85 102 119 85 102 119 85 102 119 85 102 119 85 102 119 85 102 119 85 102 119 85 102 119 85 102 119 85 102 119 85 102 119 85 102 119 85 102 119 85 102 119 85 102 119 85 102 119 85 102 119 85 102 119 85 102 119 85 102 119 85 102 119 85 102 119 85 102 119 85 102 119 85 102 119 85 102 119 85 102 119 85 102 119 85 102 119 85 102 119 85 102 119 85 102 119 85 102 119 85 102 119 85 102 119 85 102 119 85 102 119 85 102 119 85 102 119 85 102 119 85 102 119 85 102 119 85 102 119 85 102 119 85 102 119 85 102 119 85 102 119 85 102 119 85 102 119 85 102 119 85 102 119 85 102 119 85 102 119 85 102 119 85 102 119 85 102 119 85 102 119 85 102 119 85 102 119 85 102 119 51 68 85 51 68 85 51 68 85 51 68 85 51 68 85 51 68 85 51 68 85 51 68 85 17 17 34 17 17 34 17 17 34 17 17 34 17 17 34 17 17 34 17 17 34 17 17 34 17 17 34 17 17 34 17 17 34 17 17 34 17 17 34 17 17 34 17 17 34 17 17 34 17 17 34 17 17 34 17 17 34 17 17 34 17 17 34 17 17 34 17 17 34 17 17 34 17 17 34 17 17 34 17 17 34 17 17 34 17 17 34 17 17 34 17 17 34 17 17 34 17 17 34 17 17 34 17 17 34 17 17 34 17 17 34 17 17 34 17 17 34 17 17 34 17 17 34 17 17 34 17 17 34 17 17 34 17 17 34 17 17 34 17 17 34 17 17 34 17 17 34 17 17 34 17 17 34 17 17 34 17 17 34 17 17 34 17 17 34 17 17 34 17 17 34 17 17 34 17 17 34 17 17 34 17 17 34 17 17 34 17 17 34 17 17 34 17 17 34 17 17 34 17 17 34 17 17 34 17 17 34 17 17 34 17 17 34 17 17 34 17 17 34 17 17 34 17 17 34 17 17 34 17 17 34 17 17 34 17 17 34 17 17 34 17 17 34 17 17 34 17 17 34 17 17 34 17 17 34 17 17 34 17 17 34 17 17 34 17 17 34 17 17 34 17 17 34 17 17 34 17 17 34 17 17 34 17 17 34 17 17 34 17 17 34 17 17 34 17 17 34 17 17 34 17 17 34 17 17 34 17 17 34 17 17 34 17 17 34 17 17 34 17 17 34 17 17 34 17 17 34 17 17 34 17 17 34 17 17 34 17 17 34 17 17 34 17 17 34 17 17 34 17 17 34 17 17 34 17 17 34 17 17 34 17 17 34 17 17 34 17 17 34 17 17 34 17 17 34 17 17 34 17 17 34 17 17 34 17 17 34 17 17 34 17 17 34 17 17 34 17 17 34 17 17 34 17 17 34 17 17 34 17 17 34 17 17 34 17 17 34 17 17 34 17 17 34 17 17 34 17 17 34 17 17 34 17 17 34 17 17 34 17 17 34 17 17 34 17 17 34 17 17 34 17 17 34 17 17 34 17 17 34 17 17 34 17 17 34 17 17 34 51 68 85 51 68 85 51 68 85 51 68 85 51 68 85 51 68 85 51 68 85 51 68 85 85 102 119 85 102 119 85 102 119 85 102 119 85 102 119 85 102 119 85 102 119 85 102 119 85 102 119 85 102 119 85 102 119 85 102 119 85 102 119 85 102 119 85 102 119 85 102 119 85 102 119 85 102 119 85 102 119 85 102 119 85 102 119 85 102 119 85 102 119 85 102 119 85 102 119 85 102 119 85 102 119 85 102 119 85 102 119 85 102 119 85 102 119 85 102 119 85 102 119 85 102 119 85 102 119 85 102 119 85 102 119 85 102 119 85 102 119 85 102 119 85 102 119 85 102 119 85 102 119 85 102 119 85 102 119 85 102 119 85 102 119 85 102 119 85 102 119 85 102 119 85 102 119 85 102 119 85 102 119 85 102 119 85 102 119 85 102 119 85 102 119 85 102 119 85 102 119 85 102 119 85 102 119 85 102 119 85 102 119 85 102 119 85 102 119 85 102 119 85 102 119 85 102 119 85 102 119 85 102 119 51 68 85 51 68 85 51 68 85 51 68 85
51 68 85 51 68 85 51 68 85 51 68 85 85 102 119 85 102 119 85 102 119 85 102 119 85 102 119 85 102 119 85 102 119 85 102 119 85 102 119 85 102 119 85 102 119 85 102 119 85 102 119 85 102 119 85 102 119 85 102 119 85 102 119 85 102 119 85 102 119 85 102 119 85 102 119 85 102 119 85 102 119 85 102 119 85 102 119 85 102 119 85 102 119 85 102 119 85 102 119 85 102 119 85 102 119 85 102 119 85 102 119 85 102 119 85 102 119 85 102 119 85 102 119 85 102 119 85 102 119 85 102 119 85 102 119 85 102 119 85 102 119 85 102 119 85 102 119 85 102 119 85 102 119 85 102 119 85 102 119 85 102 119 85 102 119 85 102 119 85 102 119 85 102 119 85 102 119 85 102 119 85 102 119 85 102 119 85 102 119 85 102 119 85 102 119 85 102 119 85 102 119 85 102 119 85 102 119 85 102 119 85 102 119 85 102 119 85 102 119 85 102 119 51 68 85 51 68 85 51 68 85 51 68 85 51 68 85 51 68 85 51 68 85 51 68 85 17 17 34 17 17 34 17 17 34 17 17 34 17 17 34 17 17 34 17 17 34 17 17 34 17 17 34 17 17 34 17 17 34 17 17 34 17 17 34 17 17 34 17 17 34 17 17 34 17 17 34 17 17 34 17 17 34 17 17 34 17 17 34 17 17 34 17 17 34 17 17 34 17 17 34 17 17 34 17 17 34 17 17 34 17 17 34 17 17 34 17 17 34 17 17 34 17 17 34 17 17 34 17 17 34 17 17 34 17 17 34 17 17 34 17 17 34 17 17 34 17 17 34 17 17 34 17 17 34 17 17 34 17 17 34 17 17 34 17 17 34 17 17 34 17 17 34 17 17 34 17 17 34 17 17 34 17 17 34 17 17 34 17 17 34 17 17 34 17 17 34 17 17 34 17 17 34 17 17 34 17 17 34 17 17 34 17 17 34 17 17 34 17 17 34 17 17 34 17 17 34 17 17 34 17 17 34 17 17 34 17 17 34 17 17 34 17 17 34 17 17 34 17 17 34 17 17 34 17 17 34 17 17 34 17 17 34 17 17 34 17 17 34 17 17 34 17 17 34 17 17 34 17 17 34 17 17 34 17 17 34 17 17 34 17 17 34 17 17 34 17 17 34 17 17 34 17 17 34 17 17 34 17 17 34 17 17 34 17 17 34 17 17 34 17 17 34 17 17 34 17 17 34 17 17 34 17 17 34 17 17 34 17 17 34 17 17 34 17 17 34 17 17 34 17 17 34 17 17 34 17 17 34 17 17 34 17 17 34 17 17 34 17 17 34 17 17 34 17 17 34 17 17 34 17 17 34 17 17 34 17 17 34 17 17 34 17 17 34 17 17 34 17 17 34 17 17 34 17 17 34 17 17 34 17 17 34 17 17 34 17 17 34 17 17 34 17 17 34 17 17 34 17 17 34 17 17 34 17 17 34 17 17 34 17 17 34 17 17 34 17 17 34 17 17 34 17 17 34 17 17 34 17 17 34 17 17 34 17 17 34 17 17 34 17 17 34 17 17 34 0 51 102 0 51 102 0 51 102 0 51 102 0 51 102 0 51 102 0 51 102 0 51 102 0 51 102 0 51 102 51 68 85 51 68 85 51 68 85 51 68 85 85 102 119 85 102 119 85 102 119 85 102 119 85 102 119 85 102 119 85 102 119 85 102 119 85 102 119 85 102 119 85 102 119 85 102 119 85 102 119 85 102 119 85 102 119 85 102 119 85 102 119 85 102 119 85 102 119 85 102 119 85 102 119 85 102 119 85 102 119 85 102 119 85 102 119 85 102 119 85 102 119 85 102 119 85 102 119 85 102 119 85 102 119 85 102 119 85 102 119 85 102 119 85 102 119 85 102 119 85 102 119 85 102 119 85 102 119 85 102 119 85 102 119 85 102 119 85 102 119 85 102 119 85 102 119 85 102 119 85 102 119 85 102 119 85 102 119 85 102 119 85 102 119 85 102 119 85 102 119 85 102 119 85 102 119 85 102 119 85 102 119 85 102 119 85 102 119 85 102 119 85 102 119 85 102 119 85 102 119 85 102 119 85 102 119 85 102 119 85 102 119 85 102 119 85 102 119 85 102 119 51 68 85 51 68 85 51 68 85 51 68 85
51 68 85 51 68 85 51 68 85 51 68 85 85 102 119 85 102 119 85 102 119 85 102 119 85 102 119 85 102 119 85 102 119 85 102 119 85 102 119 85 102 119 85 102 119 85 102 119 85 102 119 85 102 119 85 102 119 85 102 119 85 102 119 85 102 119 85 102 119 85 102 119 85 102 119 85 102 119 85 102 119 85 102 119 85 102 119 85 102 119 85 102 119 85 102 119 85 102 119 85 102 119 85 102 119 85 102 119 85 102 119 85 102 119 85 102 119 85 102 119 85 102 119 85 102 119 85 102 119 85 102 119 85 102 119 85 102 119 85 102 119 85 102 119 85 102 119 85 102 119 85 102 119 85 102 119 85 102 119 85 102 119 85 102 119 85 102 119 85 102 119 85 102 119 85 102 119 85 102 119 85 102 119 85 102 119 85 102 119 85 102 119 85 102 119 85 102 119 85 102 119 85 102 119 85 102 119 85 102 119 85 102 119 85 102 119 85 102 119 85 102 119 51 68 85 51 68 85 51 68 85 51 68 85 51 68 85 51 68 85 51 68 85 51 68 85 17 17 34 17 17 34 17 17 34 17 17 34 17 17 34 17 17 34 17 17 34 17 17 34 17 17 34 17 17 34 17 17 34 17 17 34 17 17 34 17 17 34 17 17 34 17 17 34 17 17 34 17 17 34 17 17 34 17 17 34 17 17 34 17 17 34 17 17 34 17 17 34 17 17 34 17 17 34 17 17 34 17 17 34 17 17 34 17 17 34 17 17 34 17 17 34 17 17 34 17 17 34 17 17 34 17 17 34 17 17 34 17 17 34 17 17 34 17 17 34 17 17 34 17 17 34 17 17 34 17 17 34 17 17 34 17 17 34 17 17 34 17 17 34 17 17 34 17 17 34 17 17 34 17 17 34 17 17 34 17 17 34 17 17 34 17 17 34 17 17 34 17 17 34 17 17 34 17 17 34 17 17 34 17 17 34 17 17 34 17 17 34 17 17 34 17 17 34 17 17 34 17 17 34 17 17 34 17 17 34 17 17 34 17 17 34 17 17 34 17 17 34 17 17 34 17 17 34 17 17 34 17 17 34 17 17 34 17 17 34 17 17 34 17 17 34 17 17 34 17 17 34 17 17 34 17 17 34 17 17 34 17 17 34 17 17 34 17 17 34 17 17 34 17 17 34 17 17 34 17 17 34 17 17 34 17 17 34 17 17 34 17 17 34 17 17 34 17 17 34 17 17 34 17 17 34 17 17 34 17 17 34 17 17 34 17 17 34 17 17 34 17 17 34 17 17 34 17 17 34 17 17 34 17 17 34 17 17 34 17 17 34 17 17 34 17 17 34 17 17 34 17 17 34 17 17 34 17 17 34 17 17 34 17 17 34 17 17 34 17 17 34 17 17 34 17 17 34 17 17 34 17 17 34 17 17 34 17 17 34 17 17 34 17 17 34 17 17 34 17 17 34 17 17 34 17 17 34 17 17 34 17 17 34 17 17 34 17 17 34 17 17 34 17 17 34 17 17 34 17 17 34 17 17 34 17 17 34 17 17 34 17 17 34 17 17 34 17 17 34 0 51 102 0 51 102 0 170 221 0 170 221 0 170 221 0 170 221 0 170 221 0 170 221 0 51 102 0 51 102 51 68 85 51 68 85 51 68 85 51 68 85 85 102 119 85 102 119 85 102 119 85 102 119 85 102 119 85 102 119 85 102 119 85 102 119 85 102 119 85 102 119 85 102 119 85 102 119 85 102 119 85 102 119 85 102 119 85 102 119 85 102 119 85 102 119 85 102 119 85 102 119 85 102 119 85 102 119 85 102 119 85 102 119 85 102 119 85 102 119 85 102 119 85 102 119 85 102 119 85 102 119 85 102 119 85 102 119 85 102 119 85 102 119 85 102 119 85 102 119 85 102 119 85 102 119 85 102 119 85 102 119 85 102 119 85 102 119 85 102 119 85 102 119 85 102 119 85 102 119 85 102 119 85 102 119 85 102 119 85 102 119 85 102 119 85 102 119 85 102 119 85 102 119 85 102 119 85 102 119 85 102 119 85 102 119 85 102 119 85 102 119 85 102 119 85 102 119 85 102 119 85 102 119 85 102 119 85 102 119 85 102 119 85 102 119 85 102 119 85 102 119 51 68 85 51 68 85 51 68 85 51 68 85
51 68 85 51 68 85 51 68 85 51 68 85 85 102 119 85 102 119 85 102 119 85 102 119 85 102 119 85 102 119 85 102 119 85 102 119 85 102 119 85 102 119 85 102 119 85 102 119 85 102 119 85 102 119 85 102 119 85 102 119 85 102 119 85 102 119 85 102 119 85 102 119 85 102 119 85 102 119 85 102 119 85 102 119 85 102 119 85 102 119 85 102 119 85 102 119 85 102 119 85 102 119 85 102 119 85 102 119 85 102 119 85 102 119 85 102 119 85 102 119 85 102 119 85 102 119 85 102 119 85 102 119 85 102 119 85 102 119 85 102 119 85 102 119 85 102 119 85 102 119 85 102 119 85 102 119 85 102 119 85 102 119 85 102 119 85 102 119 85 102 119 85 102 119 85 102 119 85 102 119 85 102 119 85 102 119 85 102 119 85 102 119 85 102 119 85 102 119 85 102 119 85 102 119 85 102 119 85 102 119 85 102 119 85 102 119 85 102 119 85 102 119 51 68 85 51 68 85 51 68 85 51 68 85 51 68 85 51 68 85 51 68 85 51 68 85 17 17 34 17 17 34 17 17 34 17 17 34 17 17 34 17 17 34 17 17 34 17 17 34 17 17 34 17 17 34 17 17 34 17 17 34 17 17 34 17 17 34 17 17 34 17 17 34 17 17 34 17 17 34 17 17 34 17 17 34 17 17 34 17 17 34 17 17 34 17 17 34 17 17 34 17 17 34 17 17 34 17 17 34 17 17 34 17 17 34 17 17 34 17 17 34 17 17 34 17 17 34 17 17 34 17 17 34 17 17 34 17 17 34 17 17 34 17 17 34 17 17 34 17 17 34 17 17 34 17 17 34 17 17 34 17 17 34 17 17 34 17 17 34 17 17 34 17 17 34 17 17 34 17 17 34 17 17 34 17 17 34 17 17 34 17 17 34 17 17 34 17 17 34 17 17 34 17 17 34 17 17 34 17 17 34 17 17 34 17 17 34 17 17 34 17 17 34 17 17 34 17 17 34 17 17 34 17 17 34 17 17 34 17 17 34 17 17 34 17 17 34 17 17 34 17 17 34 17 17 34 17 17 34 17 17 34 17 17 34 17 17 34 17 17 34 17 17 34 17 17 34 17 17 34 17 17 34 17 17 34 17 17 34 17 17 34 17 17 34 17 17 34 17 17 34 17 17 34 17 17 34 17 17 34 17 17 34 17 17 34 17 17 34 17 17 34 17 17 34 17 17 34 17 17 34 17 17 34 17 17 34 17 17 34 17 17 34 17 17 34 17 17 34 17 17 34 17 17 34 17 17 34 17 17 34 17 17 34 17 17 34 17 17 34 17 17 34 17 17 34 17 17 34 17 17 34 17 17 34 17 17 34 17 17 34 17 17 34 17 17 34 17 17 34 17 17 34 17 17 34 17 17 34 17 17 34 17 17 34 17 17 34 17 17 34 17 17 34 17 17 34 17 17 34 17 17 34 17 17 34 17 17 34 17 17 34 17 17 34 17 17 34 17 17 34 17 17 34 17 17 34 17 17 34 17 17 34 17 17 34 17 17 34 17 17 34 17 17 34 0 51 102 0 51 102 0 170 221 0 170 221 0 170 221 0 170 221 0 170 221 0 170 221 0 51 102 0 51 102 51 68 85 51 68 85 51 68 85 51 68 85 85 102 119 85 102 119 85 102 119 85 102 119 85 102 119 85 102 119 85 102 119 85 102 119 85 102 119 85 102 119 85 102 119 85 102 119 85 102 119 85 102 119 85 102 119 85 102 119 85 102 119 85 102 119 85 102 119 85 102 119 85 102 119 85 102 119 85 102 119 85 102 119 85 102 119 85 102 119 85 102 119 85 102 119 85 102 119 85 102 119 85 102 119 85 102 119 85 102 119 85 102 119 85 102 119 85 102 119 85 102 119 85 102 119 85 102 119 85 102 119 85 102 119 85 102 119 85 102 119 85 102 119 85 102 119 85 102 119 85 102 119 85 102 119 85 102 119 85 102 119 85 102 119 85 102 119 85 102 119 85 102 119 85 102 119 85 102 119 85 102 119 85 102 119 85 102 119 85 102 119 85 102 119 85 102 119 85 102 119 85 102 119 85 102 119 85 102 119 85 102 119 85 102 119 85 102 119 85 102 119 51 68 85 51 68 85 51 68 85 51 68 85
51 68 85 51 68 85 51 68 85 51 68 85 85 102 119 85 102 119 85 102 119 85 102 119 85 102 119 85 102 119 85 102 119 85 102 119 85 102 119 85 102 119 85 102 119 85 102 119 85 102 119 85 102 119 85 102 119 85 102 119 85 102 119 85 102 119 85 102 119 85 102 119 85 102 119 85 102 119 85 102 119 85 102 119 85 102 119 85 102 119 85 102 119 85 102 119 85 102 119 85 102 119 85 102 119 85 102 119 85 102 119 85 102 119 85 102 119 85 102 119 85 102 119 85 102 119 85 102 119 85 102 119 85 102 119 85 102 119 85 102 119 85 102 119 85 102 119 85 102 119 85 102 119 85 102 119 85 102 119 85 102 119 85 102 119 85 102 119 85 102 119 85 102 119 85 102 119 85 102 119 85 102 119 85 102 119 85 102 119 85 102 119 85 102 119 85 102 119 85 102 119 85 102 119 85 102 119 85 102 119 85 102 119 85 102 119 85 102 119 85 102 119 51 68 85 51 68 85 51 68 85 51 68 85 51 68 85 51 68 85 51 68 85 51 68 85 17 17 34 17 17 34 17 17 34 17 17 34 17 17 34 17 17 34 17 17 34 17 17 34 17 17 34 17 17 34 17 17 34 17 17 34 17 17 34 17 17 34 17 17 34 17 17 34 17 17 34 17 17 34 17 17 34 17 17 34 17 17 34 17 17 34 17 17 34 17 17 34 17 17 34 17 17 34 17 17 34 17 17 34 17 17 34 17 17 34 17 17 34 17 17 34 17 17 34 17 17 34 17 17 34 17 17 34 17 17 34 17 17 34 17 17 34 17 17 34 17 17 34 17 17 34 17 17 34 17 17 34 17 17 34 17 17 34 17 17 34 17 17 34 17 17 34 17 17 34 17 17 34 17 17 34 17 17 34 17 17 34 17 17 34 17 17 34 17 17 34 17 17 34 17 17 34 17 17 34 17 17 34 17 17 34 17 17 34 17 17 34 17 17 34 17 17 34 17 17 34 17 17 34 17 17 34 17 17 34 17 17 34 17 17 34 17 17 34 17 17 34 17 17 34 17 17 34 17 17 34 17 17 34 17 17 34 17 17 34 17 17 34 17 17 34 17 17 34 17 17 34 17 17 34 17 17 34 17 17 34 17 17 34 17 17 34 17 17 34 17 17 34 17 17 34 17 17 34 17 17 34 17 17 34 17 17 34 17 17 34 17 17 34 17 17 34 17 17 34 17 17 34 17 17 34 17 17 34 17 17 34 17 17 34 17 17 34 17 17 34 17 17 34 17 17 34 17 17 34 17 17 34 17 17 34 17 17 34 17 17 34 17 17 34 17 17 34 17 17 34 17 17 34 17 17 34 17 17 34 17 17 34 17 17 34 17 17 34 17 17 34 17 17 34 17 17 34 17 17 34 17 17 34 17 17 34 17 17 34 17 17 34 17 17 34 17 17 34 17 17 34 17 17 34 17 17 34 17 17 34 17 17 34 17 17 34 17 17 34 17 17 34 17 17 34 17 17 34 17 17 34 17 17 34 17 17 34 17 17 34 17 17 34 17 17 34 17 17 34 0 51 102 0 51 102 0 51 102 0 51 102 0 51 102 0 51 102 0 51 102 0 51 102 0 51 102 0 51 102 51 68 85 51 68 85 51 68 85 51 68 85 85 102 119 85 102 119 85 102 119 85 102 119 85 102 119 85 102 119 85 102 119 85 102 119 85 102 119 85 102 119 85 102 119 85 102 119 85 102 119 85 102 119 85 102 119 85 102 119 85 102 119 85 102 119 85 102 119 85 102 119 85 102 119 85 102 119 85 102 119 85 102 119 85 102 119 85 102 119 85 102 119 85 102 119 85 102 119 85 102 119 85 102 119 85 102 119 85 102 119 85 102 119 85 102 119 85 102 119 85 102 119 85 102 119 85 102 119 85 102 119 85 102 119 85 102 119 85 102 119 85 102 119 85 102 119 85 102 119 85 102 119 85 102 119 85 102 119 85 102 119 85 102 119 85 102 119 85 102 119 85 102 119 85 102 119 85 102 119 85 102 119 85 102 119 85 102 119 85 102 119 85 102 119 85 102 119 85 102 119 85 102 119 85 102 119 85 102 119 85 102 119 85 102 119 85 102 119 85 102 119 51 68 85 51 68 85 51 68 85 51 68 85
51 68 85 51 68 85 51 68 85 51 68 85 85 102 119 85 102 119 85 102 119 85 102 119 85 102 119 85 102 119 85 102 119 85 102 119 85 102 119 85 102 119 85 102 119 85 102 119 85 102 119 85 102 119 85 102 119 85 102 119 85 102 119 85 102 119 85 102 119 85 102 119 85 102 119 85 102 119 85 102 119 85 102 119 85 102 119 85 102 119 85 102 119 85 102 119 85 102 119 85 102 119 85 102 119 85 102 119 85 102 119 85 102 119 85 102 119 85 102 119 85 102 119 85 102 119 85 102 119 85 102 119 85 102 119 85 102 119 85 102 119 85 102 119 85 102 119 85 102 119 85 102 119 85 102 119 85 102 119 85 102 119 85 102 119 85 102 119 85 102 119 85 102 119 85 102 119 85 102 119 85 102 119 85 102 119 85 102 119 85 102 119 85 102 119 85 102 119 85 102 119 85 102 119 85 102 119 85 102 119 85 102 119 85 102 119 85 102 119 85 102 119 51 68 85 51 68 85 51 68 85 51 68 85 51 68 85 51 68 85 51 68 85 51 68 85 17 17 34 17 17 34 17 17 34 17 17 34 17 17 34 17 17 34 17 17 34 17 17 34 17 17 34 17 17 34 17 17 34 17 17 34 17 17 34 17 17 34 17 17 34 17 17 34 17 17 34 17 17 34 17 17 34 17 17 34 17 17 34 17 17 34 17 17 34 17 17 34 17 17 34 17 17 34 17 17 34 17 17 34 17 17 34 17 17 34 17 17 34 17 17 34 17 17 34 17 17 34 17 17 34 17 17 34 17 17 34 17 17 34 17 17 34 17 17 34 17 17 34 17 17 34 17 17 34 17 17 34 17 17 34 17 17 34 17 17 34 17 17 34 17 17 34 17 17 34 17 17 34 17 17 34 17 17 34 17 17 34 17 17 34 17 17 34 17 17 34 17 17 34 17 17 34 17 17 34 17 17 34 17 17 34 17 17 34 17 17 34 17 17 34 17 17 34 17 17 34 17 17 34 17 17 34 17 17 34 17 17 34 17 17 34 17 17 34 17 17 34 17 17 34 17 17 34 17 17 34 17 17 34 17 17 34 17 17 34 17 17 34 17 17 34 17 17 34 17 17 34 17 17 34 17 17 34 17 17 34 17 17 34 17 17 34 17 17 34 17 17 34 17 17 34 17 17 34 17 17 34 17 17 34 17 17 34 17 17 34 17 17 34 17 17 34 17 17 34 17 17 34 17 17 34 17 17 34 17 17 34 17 17 34 17 17 34 17 17 34 17 17 34 17 17 34 17 17 34 17 17 34 17 17 34 17 17 34 17 17 34 17 17 34 17 17 34 17 17 34 17 17 34 17 17 34 17 17 34 17 17 34 17 17 34 17 17 34 17 17 34 17 17 34 17 17 34 17 17 34 17 17 34 17 17 34 17 17 34 17 17 34 17 17 34 17 17 34 17 17 34 17 17 34 17 17 34 17 17 34 17 17 34 17 17 34 17 17 34 17 17 34 17 17 34 17 17 34 17 17 34 17 17 34 17 17 34 17 17 34 17 17 34 17 17 34 17 17 34 17 17 34 17 17 34 17 17 34 17 17 34 17 17 34 17 17 34 51 68 85 51 68 85 51 68 85 51 68 85 51 68 85 51 68 85 51 68 85 51 68 85 85 102 119 85 102 119 85 102 119 85 102 119 85 102 119 85 102 119 85 102 119 85 102 119 85 102 119 85 102 119 85 102 119 85 102 119 85 102 119 85 102 119 85 102 119 85 102 119 85 102 119 85 102 119 85 102 119 85 102 119 85 102 119 85 102 119 85 102 119 85 102 119 85 102 119 85 102 119 85 102 119 85 102 119 85 102 119 85 102 119 85 102 119 85 102 119 85 102 119 85 102 119 85 102 119 85 102 119 85 102 119 85 102 119 85 102 119 85 102 119 85 102 119 85 102 119 85 102 119 85 102 119 85 102 119 85 102 119 85 102 119 85 102 119 85 102 119 85 102 119 85 102 119 85 102 119 85 102 119 85 102 119 85 102 119 85 102 119 85 102 119 85 102 119 85 102 119 85 102 119 85 102 119 85 102 119 85 102 119 85 102 119 85 102 119 85 102 119 85 102 119 85 102 119 85 102 119 85 102 119 51 68 85 51 68 85 51 68 85 51 68 85
51 68 85 51 68 85 51 68 85 51 68 85 85 102 119 85 102 119 85 102 119 85 102 119 85 102 119 85 102 119 85 102 119 85 102 119 85 102 119 85 102 119 85 102 119 85 102 119 85 102 119 85 102 119 85 102 119 85 102 119 85 102 119 85 102 119 85 102 119 85 102 119 85 102 119 85 102 119 85 102 119 85 102 119 85 102 119 85 102 119 85 102 119 85 102 119 85 102 119 85 102 119 85 102 119 85 102 119 85 102 119 85 102 119 85 102 119 85 102 119 85 102 119 85 102 119 85 102 119 85 102 119 85 102 119 85 102 119 85 102 119 85 102 119 85 102 119 85 102 119 85 102 119 85 102 119 85 102 119 85 102 119 85 102 119 85 102 119 85 102 119 85 102 119 85 102 119 85 102 119 85 102 119 85 102 119 85 102 119 85 102 119 85 102 119 85 102 119 85 102 119 85 102 119 85 102 119 85 102 119 85 102 119 85 102 119 85 102 119 85 102 119 51 68 85 51 68 85 51 68 85 51 68 85 51 68 85 51 68 85 51 68 85 51 68 85 17 17 34 17 17 34 17 17 34 17 17 34 17 17 34 17 17 34 17 17 34 17 17 34 17 17 34 17 17 34 17 17 34 17 17 34 17 17 34 17 17 34 17 17 34 17 17 34 17 17 34 17 17 34 17 17 34 17 17 34 17 17 34 17 17 34 17 17 34 17 17 34 17 17 34 17 17 34 17 17 34 17 17 34 17 17 34 17 17 34 17 17 34 17 17 34 17 17 34 17 17 34 17 17 34 17 17 34 17 17 34 17 17 34 17 17 34 17 17 34 17 17 34 17 17 34 17 17 34 17 17 34 17 17 34 17 17 34 17 17 34 17 17 34 17 17 34 17 17 34 17 17 34 17 17 34 17 17 34 17 17 34 17 17 34 17 17 34 17 17 34 17 17 34 17 17 34 17 17 34 17 17 34 17 17 34 17 17 34 17 17 34 17 17 34 17 17 34 17 17 34 17 17 34 17 17 34 17 17 34 17 17 34 17 17 34 17 17 34 17 17 34 17 17 34 17 17 34 17 17 34 17 17 34 17 17 34 17 17 34 17 17 34 17 17 34 17 17 34 17 17 34 17 17 34 17 17 34 17 17 34 17 17 34 17 17 34 17 17 34 17 17 34 17 17 34 17 17 34 17 17 34 17 17 34 17 17 34 17 17 34 17 17 34 17 17 34 17 17 34 17 17 34 17 17 34 17 17 34 17 17 34 17 17 34 17 17 34 17 17 34 17 17 34 17 17 34 17 17 34 17 17 34 17 17 34 17 17 34 17 17 34 17 17 34 17 17 34 17 17 34 17 17 34 17 17 34 17 17 34 17 17 34 17 17 34 17 17 34 17 17 34 17 17 34 17 17 34 17 17 34 17 17 34 17 17 34 17 17 34 17 17 34 17 17 34 17 17 34 17 17 34 17 17 34 17 17 34 17 17 34 17 17 34 17 17 34 17 17 34 17 17 34 17 17 34 17 17 34 17 17 34 17 17 34 17 17 34 17 17 34 17 17 34 17 17 34 17 17 34 17 17 34 17 17 34 17 17 34 17 17 34 17 17 34 17 17 34 51 68 85 51 68 85 51 68 85 51 68 85 51 68 85 51 68 85 51 68 85 51 68 85 85 102 119 85 102 119 85 102 119 85 102 119 85 102 119 85 102 119 85 102 119 85 102 119 85 102 119 85 102 119 85 102 119 85 102 119 85 102 119 85 102 119 85 102 119 85 102 119 85 102 119 85 102 119 85 102 119 85 102 119 85 102 119 85 102 119 85 102 119 85 102 119 85 102 119 85 102 119 85 102 119 85 102 119 85 102 119 85 102 119 85 102 119 85 102 119 85 102 119 85 102 119 85 102 119 85 102 119 85 102 119 85 102 119 85 102 119 85 102 119 85 102 119 85 102 119 85 102 119 85 102 119 85 102 119 85 102 119 85 102 119 85 102 119 85 102 119 85 102 119 85 102 119 85 102 119 85 102 119 85 102 119 85 102 119 85 102 119 85 102 119 85 102 119 85 102 119 85 102 119 85 102 119 85 102 119 85 102 119 85 102 119 85 102 119 85 102 119 85 102 119 85 102 119 85 102 119 85 102 119 51 68 85 51 68 85 51 68 85 51 68 85
51 68 85 51 68 85 51 68 85 51 68 85 51 68 85 51 68 85 51 68 85 51 68 85 51 68 85 51 68 85 51 68 85 51 68 85 51 68 85 51 68 85 51 68 85 51 68 85 51 68 85 51 68 85 51 68 85 51 68 85 51 68 85 51 68 85 51 68 85 51 68 85 51 68 85 51 68 85 51 68 85 51 68 85 51 68 85 51 68 85 51 68 85 51 68 85 51 68 85 51 68 85 51 68 85 51 68 85 51 68 85 51 68 85 51 68 85 51 68 85 51 68 85 51 68 85 51 68 85 51 68 85 51 68 85 51 68 85 51 68 85 51 68 85 51 68 85 51 68 85 51 68 85 51 68 85 51 68 85 51 68 85 51 68 85 51 68 85 51 68 85 51 68 85 51 68 85 51 68 85 51 68 85 51 68 85 51 68 85 51 68 85 51 68 85 51 68 85 51 68 85 51 68 85 51 68 85 51 68 85 51 68 85 51 68 85 51 68 85 51 68 85 51 68 85 51 68 85 51 68 85 51 68 85 51 68 85 51 68 85 51 68 85 51 68 85 17 17 34 17 17 34 17 17 34 17 17 34 17 17 34 17 17 34 17 17 34 17 17 34 17 17 34 17 17 34 17 17 34 17 17 34 17 17 34 17 17 34 17 17 34 17 17 34 17 17 34 17 17 34 17 17 34 17 17 34 17 17 34 17 17 34 17 17 34 17 17 34 17 17 34 17 17 34 17 17 34 17 17 34 17 17 34 17 17 34 17 17 34 17 17 34 17 17 34 17 17 34 17 17 34 17 17 34 17 17 34 17 17 34 17 17 34 17 17 34 17 17 34 17 17 34 17 17 34 17 17 34 17 17 34 17 17 34 17 17 34 17 17 34 17 17 34 17 17 34 17 17 34 17 17 34 17 17 34 17 17 34 17 17 34 17 17 34 17 17 34 17 17 34 17 17 34 17 17 34 17 17 34 17 17 34 17 17 34 17 17 34 17 17 34 17 17 34 17 17 34 17 17 34 17 17 34 17 17 34 17 17 34 17 17 34 17 17 34 17 17 34 17 17 34 17 17 34 17 17 34 17 17 34 17 17 34 17 17 34 17 17 34 17 17 34 17 17 34 17 17 34 17 17 34 17 17 34 17 17 34 17 17 34 17 17 34 17 17 34 17 17 34 17 17 34 17 17 34 17 17 34 17 17 34 17 17 34 17 17 34 17 17 34 17 17 34 17 17 34 17 17 34 17 17 34 17 17 34 17 17 34 17 17 34 17 17 34 17 17 34 17 17 34 17 17 34 17 17 34 17 17 34 17 17 34 17 17 34 17 17 34 17 17 34 17 17 34 17 17 34 17 17 34 17 17 34 17 17 34 17 17 34 17 17 34 17 17 34 17 17 34 17 17 34 17 17 34 17 17 34 17 17 34 17 17 34 17 17 34 17 17 34 17 17 34 17 17 34 17 17 34 17 17 34 17 17 34 17 17 34 17 17 34 17 17 34 17 17 34 17 17 34 17 17 34 17 17 34 17 17 34 17 17 34 17 17 34 17 17 34 17 17 34 17 17 34 17 17 34 17 17 34 17 17 34 17 17 34 17 17 34 17 17 34 17 17 34 51 68 85 51 68 85 51 68 85 51 68 85 51 68 85 51 68 85 51 68 85 51 68 85 85 102 119 85 102 119 85 102 119 85 102 119 85 102 119 85 102 119 85 102 119 85 102 119 85 102 119 85 102 119 85 102 119 85 102 119 85 102 119 85 102 119 85 102 119 85 102 119 85 102 119 85 102 119 85 102 119 85 102 119 85 102 119 85 102 119 85 102 119 85 102 119 85 102 119 85 102 119 85 102 119 85 102 119 85 102 119 85 102 119 85 102 119 85 102 119 85 102 119 85 102 119 85 102 119 85 102 119 85 102 119 85 102 119 85 102 119 85 102 119 85 102 119 85 102 119 85 102 119 85 102 119 85 102 119 85 102 119 85 102 119 85 102 119 85 102 119 85 102 119 85 102 119 85 102 119 85 102 119 85 102 119 85 102 119 85 102 119 85 102 119 85 102 119 85 102 119 85 102 119 85 102 119 85 102 119 85 102 119 85 102 119 85 102 119 85 102 119 85 102 119 85 102 119 85 102 119 85 102 119 51 68 85 51 68 85 51 68 85 51 68 85
51 68 85 51 68 85 51 68 85 51 68 85 51 68 85 51 68 85 51 68 85 51 68 85 51 68 85 51 68 85 51 68 85 51 68 85 51 68 85 51 68 85 51 68 85 51 68 85 51 68 85 51 68 85 51 68 85 51 68 85 51 68 85 51 68 85 51 68 85 51 68 85 51 68 85 51 68 85 51 68 85 51 68 85 51 68 85 51 68 85 51 68 85 51 68 85 51 68 85 51 68 85 51 68 85 51 68 85 51 68 85 51 68 85 51 68 85 51 68 85 51 68 85 51 68 85 51 68 85 51 68 85 51 68 85 51 68 85 51 68 85 51 68 85 51 68 85 51 68 85 51 68 85 51 68 85 51 68 85 51 68 85 51 68 85 51 68 85 51 68 85 51 68 85 51 68 85 51 68 85 51 68 85 51 68 85 51 68 85 51 68 85 51 68 85 51 68 85 51 68 85 51 68 85 51 68 85 51 68 85 51 68 85 51 68 85 51 68 85 51 68 85 51 68 85 51 68 85 51 68 85 51 68 85 51 68 85 51 68 85 51 68 85 51 68 85 17 17 34 17 17 34 17 17 34 17 17 34 17 17 34 17 17 34 17 17 34 17 17 34 17 17 34 17 17 34 17 17 34 17 17 34 17 17 34 17 17 34 17 17 34 17 17 34 17 17 34 17 17 34 17 17 34 17 17 34 17 17 34 17 17 34 17 17 34 17 17 34 17 17 34 17 17 34 17 17 34 17 17 34 17 17 34 17 17 34 17 17 34 17 17 34 17 17 34 17 17 34 17 17 34 17 17 34 17 17 34 17 17 34 17 17 34 17 17 34 17 17 34 17 17 34 17 17 34 17 17 34 17 17 34 17 17 34 17 17 34 17 17 34 17 17 34 17 17 34 17 17 34 17 17 34 17 17 34 17 17 34 17 17 34 17 17 34 17 17 34 17 17 34 17 17 34 17 17 34 17 17 34 17 17 34 17 17 34 17 17 34 17 17 34 17 17 34 17 17 34 17 17 34 17 17 34 17 17 34 17 17 34 17 17 34 17 17 34 17 17 34 17 17 34 17 17 34 17 17 34 17 17 34 17 17 34 17 17 34 17 17 34 17 17 34 17 17 34 17 17 34 17 17 34 17 17 34 17 17 34 17 17 34 17 17 34 17 17 34 17 17 34 17 17 34 17 17 34 17 17 34 17 17 34 17 17 34 17 17 34 17 17 34 17 17 34 17 17 34 17 17 34 17 17 34 17 17 34 17 17 34 17 17 34 17 17 34 17 17 34 17 17 34 17 17 34 17 17 34 17 17 34 17 17 34 17 17 34 17 17 34 17 17 34 17 17 34 17 17 34 17 17 34 17 17 34 17 17 34 17 17 34 17 17 34 17 17 34 17 17 34 17 17 34 17 17 34 17 17 34 17 17 34 17 17 34 17 17 34 17 17 34 17 17 34 17 17 34 17 17 34 17 17 34 17 17 34 17 17 34 17 17 34 17 17 34 17 17 34 17 17 34 17 17 34 17 17 34 17 17 34 17 17 34 17 17 34 17 17 34 17 17 34 17 17 34 17 17 34 17 17 34 17 17 34 17 17 34 17 17 34 17 17 34 17 17 34 51 68 85 51 68 85 51 68 85 51 68 85 51 68 85 51 68 85 51 68 85 51 68 85 85 102 119 85 102 119 85 102 119 85 102 119 85 102 119 85 102 119 85 102 119 85 102 119 85 102 119 85 102 119 85 102 119 85 102 119 85 102 119 85 102 119 85 102 119 85 102 119 85 102 119 85 102 119 85 102 119 85 102 119 85 102 119 85 102 119 85 102 119 85 102 119 85 102 119 85 102 119 85 102 119 85 102 119 85 102 119 85 102 119 85 102 119 85 102 119 85 102 119 85 102 119 85 102 119 85 102 119 85 102 119 85 102 119 85 102 119 85 102 119 85 102 119 85 102 119 85 102 119 85 102 119 85 102 119 85 102 119 85 102 119 85 102 119 85 102 119 85 102 119 85 102 119 85 102 119 85 102 119 85 102 119 85 102 119 85 102 119 85 102 119 85 102 119 85 102 119 85 102 119 85 102 119 85 102 119 85 102 119 85 102 119 85 102 119 85 102 119 85 102 119 85 102 119 85 102 119 85 102 119 51 68 85 51 68 85 51 68 85 51 68 85
51 68 85 51 68 85 51 68 85 51 68 85 51 68 85 51 68 85 51 68 85 51 68 85 51 68 85 51 68 85 51 68 85 51 68 85 51 68 85 51 68 85 51 68 85 51 68 85 51 68 85 51 68 85 51 68 85 51 68 85 51 68 85 51 68 85 51 68 85 51 68 85 51 68 85 51 68 85 51 68 85 51 68 85 51 68 85 51 68 85 51 68 85 51 68 85 51 68 85 51 68 85 51 68 85 51 68 85 51 68 85 51 68 85 51 68 85 51 68 85 51 68 85 51 68 85 51 68 85 51 68 85 51 68 85 51 68 85 51 68 85 51 68 85 51 68 85 51 68 85 51 68 85 51 68 85 51 68 85 51 68 85 51 68 85 51 68 85 51 68 85 51 68 85 51 68 85 51 68 85 51 68 85 51 68 85 51 68 85 51 68 85 51 68 85 51 68 85 51 68 85 51 68 85 51 68 85 51 68 85 51 68 85 51 68 85 51 68 85 51 68 85 51 68 85 51 68 85 51 68 85 51 68 85 51 68 85 51 68 85 51 68 85 51 68 85 17 17 34 17 17 34 17 17 34 17 17 34 17 17 34 17 17 34 17 17 34 17 17 34 17 17 34 17 17 34 17 17 34 17 17 34 17 17 34 17 17 34 17 17 34 17 17 34 17 17 34 17 17 34 17 17 34 17 17 34 17 17 34 17 17 34 17 17 34 17 17 34 17 17 34 17 17 34 17 17 34 17 17 34 17 17 34 17 17 34 17 17 34 17 17 34 17 17 34 17 17 34 17 17 34 17 17 34 17 17 34 17 17 34 17 17 34 17 17 34 17 17 34 17 17 34 17 17 34 17 17 34 17 17 34 17 17 34 17 17 34 17 17 34 17 17 34 17 17 34 17 17 34 17 17 34 17 17 34 17 17 34 17 17 34 17 17 34 17 17 34 17 17 34 17 17 34 17 17 34 17 17 34 17 17 34 17 17 34 17 17 34 17 17 34 17 17 34 17 17 34 17 17 34 17 17 34 17 17 34 17 17 34 17 17 34 17 17 34 17 17 34 17 17 34 17 17 34 17 17 34 17 17 34 17 17 34 17 17 34 17 17 34 17 17 34 17 17 34 17 17 34 17 17 34 17 17 34 17 17 34 17 17 34 17 17 34 17 17 34 17 17 34 17 17 34 17 17 34 17 17 34 17 17 34 17 17 34 17 17 34 17 17 34 17 17 34 17 17 34 17 17 34 17 17 34 17 17 34 17 17 34 17 17 34 17 17 34 17 17 34 17 17 34 17 17 34 17 17 34 17 17 34 17 17 34 17 17 34 17 17 34 17 17 34 17 17 34 17 17 34 17 17 34 17 17 34 17 17 34 17 17 34 17 17 34 17 17 34 17 17 34 17 17 34 17 17 34 17 17 34 17 17 34 17 17 34 17 17 34 17 17 34 17 17 34 17 17 34 17 17 34 17 17 34 17 17 34 17 17 34 17 17 34 17 17 34 17 17 34 17 17 34 17 17 34 17 17 34 17 17 34 17 17 34 17 17 34 17 17 34 17 17 34 17 17 34 17 17 34 17 17 34 17 17 34 17 17 34 17 17 34 17 17 34 17 17 34 51 68 85 51 68 85 51 68 85 51 68 85 51 68 85 51 68 85 51 68 85 51 68 85 85 102 119 85 102 119 85 102 119 85 102 119 85 102 119 85 102 119 85 102 119 85 102 119 85 102 119 85 102 119 85 102 119 85 102 119 85 102 119 85 102 119 85 102 119 85 102 119 85 102 119 85 102 119 85 102 119 85 102 119 85 102 119 85 102 119 85 102 119 85 102 119 85 102 119 85 102 119 85 102 119 85 102 119 85 102 119 85 102 119 85 102 119 85 102 119 85 102 119 85 102 119 85 102 119 85 102 119 85 102 119 85 102 119 85 102 119 85 102 119 85 102 119 85 102 119 85 102 119 85 102 119 85 102 119 85 102 119 85 102 119 85 102 119 85 102 119 85 102 119 85 102 119 85 102 119 85 102 119 85 102 119 85 102 119 85 102 119 85 102 119 85 102 119 85 102 119 85 102 119 85 102 119 85 102 119 85 102 119 85 102 119 85 102 119 85 102 119 85 102 119 85 102 119 85 102 119 85 102 119 51 68 85 51 68 85 51 68 85 51 68 85
51 68 85 51 68 85 51 68 85 51 68 85 51 68 85 51 68 85 51 68 85 51 68 85 51 68 85 51 68 85 51 68 85 51 68 85 51 68 85 51 68 85 51 68 85 51 68 85 51 68 85 51 68 85 51 68 85 51 68 85 51 68 85 51 68 85 51 68 85 51 68 85 51 68 85 51 68 85 51 68 85 51 68 85 51 68 85 51 68 85 51 68 85 51 68 85 51 68 85 51 68 85 51 68 85 51 68 85 51 68 85 51 68 85 51 68 85 51 68 85 51 68 85 51 68 85 51 68 85 51 68 85 51 68 85 51 68 85 51 68 85 51 68 85 51 68 85 51 68 85 51 68 85 51 68 85 51 68 85 51 68 85 51 68 85 51 68 85 51 68 85 51 68 85 51 68 85 51 68 85 51 68 85 51 68 85 51 68 85 51 68 85 51 68 85 51 68 85 51 68 85 51 68 85 51 68 85 51 68 85 51 68 85 51 68 85 51 68 85 51 68 85 51 68 85 51 68 85 51 68 85 51 68 85 51 68 85 51 68 85 51 68 85 51 68 85 17 17 34 17 17 34 17 17 34 17 17 34 17 17 34 17 17 34 17 17 34 17 17 34 17 17 34 17 17 34 17 17 34 17 17 34 17 17 34 17 17 34 17 17 34 17 17 34 17 17 34 17 17 34 17 17 34 17 17 34 17 17 34 17 17 34 17 17 34 17 17 34 17 17 34 17 17 34 17 17 34 17 17 34 17 17 34 17 17 34 17 17 34 17 17 34 17 17 34 17 17 34 17 17 34 17 17 34 17 17 34 17 17 34 17 17 34 17 17 34 17 17 34 17 17 34 17 17 34 17 17 34 17 17 34 17 17 34 17 17 34 17 17 34 17 17 34 17 17 34 17 17 34 17 17 34 17 17 34 17 17 34 17 17 34 17 17 34 17 17 34 17 17 34 17 17 34 17 17 34 17 17 34 17 17 34 17 17 34 17 17 34 17 17 34 17 17 34 17 17 34 17 17 34 17 17 34 17 17 34 17 17 34 17 17 34 17 17 34 17 17 34 17 17 34 17 17 34 17 17 34 17 17 34 17 17 34 17 17 34 17 17 34 17 17 34 17 17 34 17 17 34 17 17 34 17 17 34 17 17 34 17 17 34 17 17 34 17 17 34 17 17 34 17 17 34 17 17 34 17 17 34 17 17 34 17 17 34 17 17 34 17 17 34 17 17 34 17 17 34 17 17 34 17 17 34 17 17 34 17 17 34 17 17 34 17 17 34 17 17 34 17 17 34 17 17 34 17 17 34 17 17 34 17 17 34 17 17 34 17 17 34 17 17 34 17 17 34 17 17 34 17 17 34 17 17 34 17 17 34 17 17 34 17 17 34 17 17 34 17 17 34 17 17 34 17 17 34 17 17 34 17 17 34 17 17 34 17 17 34 17 17 34 17 17 34 17 17 34 17 17 34 17 17 34 17 17 34 17 17 34 17 17 34 17 17 34 17 17 34 17 17 34 17 17 34 17 17 34 17 17 34 17 17 34 17 17 34 17 17 34 17 17 34 17 17 34 17 17 34 17 17 34 17 17 34 17 17 34 17 17 34 17 17 34 17 17 34 51 68 85 51 68 85 51 68 85 51 68 85 51 68 85 51 68 85 51 68 85 51 68 85 85 102 119 85 102 119 85 102 119 85 102 119 85 102 119 85 102 119 85 102 119 85 102 119 85 102 119 85 102 119 85 102 119 85 102 119 85 102 119 85 102 119 85 102 119 85 102 119 85 102 119 85 102 119 85 102 119 85 102 119 85 102 119 85 102 119 85 102 119 85 102 119 85 102 119 85 102 119 85 102 119 85 102 119 85 102 119 85 102 119 85 102 119 85 102 119 85 102 119 85 102 119 85 102 119 85 102 119 85 102 119 85 102 119 85 102 119 85 102 119 85 102 119 85 102 119 85 102 119 85 102 119 85 102 119 85 102 119 85 102 119 85 102 119 85 102 119 85 102 119 85 102 119 85 102 119 85 102 119 85 102 119 85 102 119 85 102 119 85 102 119 85 102 119 85 102 119 85 102 119 85 102 119 85 102 119 85 102 119 85 102 119 85 102 119 85 102 119 85 102 119 85 102 119 85 102 119 85 102 119 51 68 85 51 68 85 51 68 85 51 68 85
17 17 34 17 17 34 17 17 34 17 17 34 17 17 34 17 17 34 17 17 34 17 17 34 17 17 34 17 17 34 17 17 34 17 17 34 17 17 34 17 17 34 17 17 34 17 17 34 17 17 34 17 17 34 17 17 34 17 17 34 17 17 34 17 17 34 17 17 34 17 17 34 17 17 34 17 17 34 17 17 34 17 17 34 17 17 34 17 17 34 17 17 34 17 17 34 17 17 34 17 17 34 17 17 34 17 17 34 17 17 34 17 17 34 17 17 34 17 17 34 17 17 34 17 17 34 17 17 34 17 17 34 17 17 34 17 17 34 17 17 34 17 17 34 17 17 34 17 17 34 17 17 34 17 17 34 17 17 34 17 17 34 17 17 34 17 17 34 17 17 34 17 17 34 17 17 34 17 17 34 17 17 34 17 17 34 17 17 34 17 17 34 17 17 34 17 17 34 17 17 34 17 17 34 17 17 34 17 17 34 17 17 34 17 17 34 17 17 34 17 17 34 17 17 34 17 17 34 17 17 34 17 17 34 17 17 34 17 17 34 17 17 34 17 17 34 17 17 34 17 17 34 17 17 34 17 17 34 17 17 34 17 17 34 17 17 34 17 17 34 17 17 34 17 17 34 17 17 34 17 17 34 17 17 34 17 17 34 17 17 34 17 17 34 17 17 34 17 17 34 17 17 34 17 17 34 17 17 34 17 17 34 17 17 34 17 17 34 17 17 34 17 17 34 17 17 34 17 17 34 17 17 34 17 17 34 17 17 34 17 17 34 17 17 34 17 17 34 17 17 34 17 17 34 17 17 34 17 17 34 17 17 34 17 17 34 17 17 34 17 17 34 17 17 34 17 17 34 17 17 34 17 17 34 17 17 34 17 17 34 17 17 34 17 17 34 17 17 34 17 17 34 17 17 34 17 17 34 17 17 34 17 17 34 17 17 34 17 17 34 17 17 34 17 17 34 17 17 34 17 17 34 17 17 34 17 17 34 17 17 34 17 17 34 17 17 34 17 17 34 17 17 34 17 17 34 17 17 34 17 17 34 17 17 34 17 17 34 17 17 34 17 17 34 17 17 34 17 17 34 17 17 34 17 17 34 17 17 34 17 17 34 17 17 34 17 17 34 17 17 34 17 17 34 17 17 34 17 17 34 17 17 34 17 17 34 17 17 34 17 17 34 17 17 34 17 17 34 17 17 34 17 17 34 17 17 34 17 17 34 17 17 34 17 17 34 17 17 34 17 17 34 17 17 34 17 17 34 17 17 34 17 17 34 17 17 34 17 17 34 17 17 34 17 17 34 17 17 34 17 17 34 17 17 34 17 17 34 17 17 34 17 17 34 17 17 34 17 17 34 17 17 34 17 17 34 17 17 34 17 17 34 17 17 34 17 17 34 17 17 34 17 17 34 17 17 34 17 17 34 17 17 34 17 17 34 17 17 34 17 17 34 17 17 34 17 17 34 17 17 34 17 17 34 17 17 34 17 17 34 17 17 34 17 17 34 17 17 34 17 17 34 17 17 34 17 17 34 17 17 34 17 17 34 17 17 34 17 17 34 17 17 34 17 17 34 17 17 34 17 17 34 17 17 34 17 17 34 17 17 34 17 17 34 51 68 85 51 68 85 51 68 85 51 68 85 51 68 85 51 68 85 51 68 85 51 68 85 51 68 85 51 68 85 51 68 85 51 68 85 51 68 85 51 68 85 51 68 85 51 68 85 51 68 85 51 68 85 51 68 85 51 68 85 51 68 85 51 68 85 51 68 85 51 68 85 51 68 85 51 68 85 51 68 85 51 68 85 51 68 85 51 68 85 51 68 85 51 68 85 51 68 85 51 68 85 51 68 85 51 68 85 51 68 85 51 68 85 51 68 85 51 68 85 51 68 85 51 68 85 51 68 85 51 68 85 51 68 85 51 68 85 51 68 85 51 68 85 51 68 85 51 68 85 51 68 85 51 68 85 51 68 85 51 68 85 51 68 85 51 68 85 51 68 85 51 68 85 51 68 85 51 68 85 51 68 85 51 68 85 51 68 85 51 68 85 51 68 85 51 68 85 51 68 85 51 68 85 51 68 85 51 68 85 51 68 85 51 68 85 51 68 85 51 68 85 51 68 85 51 68 85 51 68 85 51 68 85 51 68 85 51 68 85 51 68 85 51 68 85
17 17 34 17 17 34 17 17 34 17 17 34 17 17 34 17 17 34 17 17 34 17 17 34 17 17 34 17 17 34 17 17 34 17 17 34 17 17 34 17 17 34 17 17 34 17 17 34 17 17 34 17 17 34 17 17 34 17 17 34 17 17 34 17 17 34 17 17 34 17 17 34 17 17 34 17 17 34 17 17 34 17 17 34 17 17 34 17 17 34 17 17 34 17 17 34 17 17 34 17 17 34 17 17 34 17 17 34 17 17 34 17 17 34 17 17 34 17 17 34 17 17 34 17 17 34 17 17 34 17 17 34 17 17 34 17 17 34 17 17 34 17 17 34 17 17 34 17 17 34 17 17 34 17 17 34 17 17 34 17 17 34 17 17 34 17 17 34 17 17 34 17 17 34 17 17 34 17 17 34 17 17 34 17 17 34 17 17 34 17 17 34 17 17 34 17 17 34 17 17 34 17 17 34 17 17 34 17 17 34 17 17 34 17 17 34 17 17 34 17 17 34 17 17 34 17 17 34 17 17 34 17 17 34 17 17 34 17 17 34 17 17 34 17 17 34 17 17 34 17 17 34 17 17 34 17 17 34 17 17 34 17 17 34 17 17 34 17 17 34 17 17 34 17 17 34 17 17 34 17 17 34 17 17 34 17 17 34 17 17 34 17 17 34 17 17 34 17 17 34 17 17 34 17 17 34 17 17 34 17 17 34 17 17 34 17 17 34 17 17 34 17 17 34 17 17 34 17 17 34 17 17 34 17 17 34 17 17 34 17 17 34 17 17 34 17 17 34 17 17 34 17 17 34 17 17 34 17 17 34 17 17 34 17 17 34 17 17 34 17 17 34 17 17 34 17 17 34 17 17 34 17 17 34 17 17 34 17 17 34 17 17 34 17 17 34 17 17 34 17 17 34 17 17 34 17 17 34 17 17 34 17 17 34 17 17 34 17 17 34 17 17 34 17 17 34 17 17 34 17 17 34 17 17 34 17 17 34 17 17 34 17 17 34 17 17 34 17 17 34 17 17 34 17 17 34 17 17 34 17 17 34 17 17 34 17 17 34 17 17 34 17 17 34 17 17 34 17 17 34 17 17 34 17 17 34 17 17 34 17 17 34 17 17 34 17 17 34 17 17 34 17 17 34 17 17 34 17 17 34 17 17 34 17 17 34 17 17 34 17 17 34 17 17 34 17 17 34 17 17 34 17 17 34 17 17 34 17 17 34 17 17 34 17 17 34 17 17 34 17 17 34 17 17 34 17 17 34 17 17 34 17 17 34 17 17 34 17 17 34 17 17 34 17 17 34 17 17 34 17 17 34 17 17 34 17 17 34 17 17 34 17 17 34 17 17 34 17 17 34 17 17 34 17 17 34 17 17 34 17 17 34 17 17 34 17 17 34 17 17 34 17 17 34 17 17 34 17 17 34 17 17 34 17 17 34 17 17 34 17 17 34 17 17 34 17 17 34 17 17 34 17 17 34 17 17 34 17 17 34 17 17 34 17 17 34 17 17 34 17 17 34 17 17 34 17 17 34 17 17 34 17 17 34 17 17 34 17 17 34 17 17 34 17 17 34 17 17 34 17 17 34 17 17 34 17 17 34 17 17 34 17 17 34 51 68 85 51 68 85 51 68 85 51 68 85 51 68 85 51 68 85 51 68 85 51 68 85 51 68 85 51 68 85 51 68 85 51 68 85 51 68 85 51 68 85 51 68 85 51 68 85 51 68 85 51 68 85 51 68 85 51 68 85 51 68 85 51 68 85 51 68 85 51 68 85 51 68 85 51 68 85 51 68 85 51 68 85 51 68 85 51 68 85 51 68 85 51 68 85 51 68 85 51 68 85 51 68 85 51 68 85 51 68 85 51 68 85 51 68 85 51 68 85 51 68 85 51 68 85 51 68 85 51 68 85 51 68 85 51 68 85 51 68 85 51 68 85 51 68 85 51 68 85 51 68 85 51 68 85 51 68 85 51 68 85 51 68 85 51 68 85 51 68 85 51 68 85 51 68 85 51 68 85 51 68 85 51 68 85 51 68 85 51 68 85 51 68 85 51 68 85 51 68 85 51 68 85 51 68 85 51 68 85 51 68 85 51 68 85 51 68 85 51 68 85 51 68 85 51 68 85 51 68 85 51 68 85 51 68 85 51 68 85 51 68 85 51 68 85
17 17 34 17 17 34 17 17 34 17 17 34 17 17 34 17 17 34 17 17 34 17 17 34 17 17 34 17 17 34 17 17 34 17 17 34 17 17 34 17 17 34 17 17 34 17 17 34 17 17 34 17 17 34 17 17 34 17 17 34 17 17 34 17 17 34 17 17 34 17 17 34 17 17 34 17 17 34 17 17 34 17 17 34 17 17 34 17 17 34 17 17 34 17 17 34 17 17 34 17 17 34 17 17 34 17 17 34 17 17 34 17 17 34 17 17 34 17 17 34 17 17 34 17 17 34 17 17 34 17 17 34 17 17 34 17 17 34 17 17 34 17 17 34 17 17 34 17 17 34 17 17 34 17 17 34 17 17 34 17 17 34 17 17 34 17 17 34 17 17 34 17 17 34 17 17 34 17 17 34 17 17 34 17 17 34 17 17 34 17 17 34 17 17 34 17 17 34 17 17 34 17 17 34 17 17 34 17 17 34 17 17 34 17 17 34 17 17 34 17 17 34 17 17 34 17 17 34 17 17 34 17 17 34 17 17 34 17 17 34 17 17 34 17 17 34 17 17 34 17 17 34 17 17 34 17 17 34 17 17 34 17 17 34 17 17 34 17 17 34 17 17 34 17 17 34 17 17 34 17 17 34 17 17 34 17 17 34 17 17 34 17 17 34 17 17 34 17 17 34 17 17 34 17 17 34 17 17 34 17 17 34 17 17 34 17 17 34 17 17 34 17 17 34 17 17 34 17 17 34 17 17 34 17 17 34 17 17 34 17 17 34 17 17 34 17 17 34 17 17 34 17 17 34 17 17 34 17 17 34 17 17 34 17 17 34 17 17 34 17 17 34 17 17 34 17 17 34 17 17 34 17 17 34 17 17 34 17 17 34 17 17 34 17 17 34 17 17 34 17 17 34 17 17 34 17 17 34 17 17 34 17 17 34 17 17 34 17 17 34 17 17 34 17 17 34 17 17 34 17 17 34 17 17 34 17 17 34 17 17 34 17 17 34 17 17 34 17 17 34 17 17 34 17 17 34 17 17 34 17 17 34 17 17 34 17 17 34 17 17 34 17 17 34 17 17 34 17 17 34 17 17 34 17 17 34 17 17 34 17 17 34 17 17 34 17 17 34 17 17 34 17 17 34 17 17 34 17 17 34 17 17 34 17 17 34 17 17 34 17 17 34 17 17 34 17 17 34 17 17 34 17 17 34 17 17 34 17 17 34 17 17 34 17 17 34 17 17 34 17 17 34 17 17 34 17 17 34 17 17 34 17 17 34 17 17 34 17 17 34 17 17 34 17 17 34 17 17 34 17 17 34 17 17 34 17 17 34 17 17 34 17 17 34 17 17 34 17 17 34 17 17 34 17 17 34 17 17 34 17 17 34 17 17 34 17 17 34 17 17 34 17 17 34 17 17 34 17 17 34 17 17 34 17 17 34 17 17 34 17 17 34 17 17 34 17 17 34 17 17 34 17 17 34 17 17 34 17 17 34 17 17 34 17 17 34 17 17 34 17 17 34 17 17 34 17 17 34 17 17 34 17 17 34 17 17 34 17 17 34 17 17 34 17 17 34 17 17 34 17 17 34 17 17 34 17 17 34 17 17 34 17 17 34 51 68 85 51 68 85 51 68 85 51 68 85 51 68 85 51 68 85 51 68 85 51 68 85 51 68 85 51 68 85 51 68 85 51 68 85 51 68 85 51 68 85 51 68 85 51 68 85 51 68 85 51 68 85 51 68 85 51 68 85 51 68 85 51 68 85 51 68 85 51 68 85 51 68 85 51 68 85 51 68 85 51 68 85 51 68 85 51 68 85 51 68 85 51 68 85 51 68 85 51 68 85 51 68 85 51 68 85 51 68 85 51 68 85 51 68 85 51 68 85 51 68 85 51 68 85 51 68 85 51 68 85 51 68 85 51 68 85 51 68 85 51 68 85 51 68 85 51 68 85 51 68 85 51 68 85 51 68 85 51 68 85 51 68 85 51 68 85 51 68 85 51 68 85 51 68 85 51 68 85 51 68 85 51 68 85 51 68 85 51 68 85 51 68 85 51 68 85 51 68 85 51 68 85 51 68 85 51 68 85 51 68 85 51 68 85 51 68 85 51 68 85 51 68 85 51 68 85 51 68 85 51 68 85 51 68 85 51 68 85 51 68 85 51 68 85
17 17 34 17 17 34 17 17 34 17 17 34 17 17 34 17 17 34 17 17 34 17 17 34 17 17 34 17 17 34 17 17 34 17 17 34 17 17 34 17 17 34 17 17 34 17 17 34 17 17 34 17 17 34 17 17 34 17 17 34 17 17 34 17 17 34 17 17 34 17 17 34 17 17 34 17 17 34 17 17 34 17 17 34 17 17 34 17 17 34 17 17 34 17 17 34 17 17 34 17 17 34 17 17 34 17 17 34 17 17 34 17 17 34 17 17 34 17 17 34 17 17 34 17 17 34 17 17 34 17 17 34 17 17 34 17 17 34 17 17 34 17 17 34 17 17 34 17 17 34 17 17 34 17 17 34 17 17 34 17 17 34 17 17 34 17 17 34 17 17 34 17 17 34 17 17 34 17 17 34 17 17 34 17 17 34 17 17 34 17 17 34 17 17 34 17 17 34 17 17 34 17 17 34 17 17 34 17 17 34 17 17 34 17 17 34 17 17 34 17 17 34 17 17 34 17 17 34 17 17 34 17 17 34 17 17 34 17 17 34 17 17 34 17 17 34 17 17 34 17 17 34 17 17 34 17 17 34 17 17 34 17 17 34 17 17 34 17 17 34 17 17 34 17 17 34 17 17 34 17 17 34 17 17 34 17 17 34 17 17 34 17 17 34 17 17 34 17 17 34 17 17 34 17 17 34 17 17 34 17 17 34 17 17 34 17 17 34 17 17 34 17 17 34 17 17 34 17 17 34 17 17 34 17 17 34 17 17 34 17 17 34 17 17 34 17 17 34 17 17 34 17 17 34 17 17 34 17 17 34 17 17 34 17 17 34 17 17 34 17 17 34 17 17 34 17 17 34 17 17 34 17 17 34 17 17 34 17 17 34 17 17 34 17 17 34 17 17 34 17 17 34 17 17 34 17 17 34 17 17 34 17 17 34 17 17 34 17 17 34 17 17 34 17 17 34 17 17 34 17 17 34 17 17 34 17 17 34 17 17 34 17 17 34 17 17 34 17 17 34 17 17 34 17 17 34 17 17 34 17 17 34 17 17 34 17 17 34 17 17 34 17 17 34 17 17 34 17 17 34 17 17 34 17 17 34 17 17 34 17 17 34 17 17 34 17 17 34 17 17 34 17 17 34 17 17 34 17 17 34 17 17 34 17 17 34 17 17 34 17 17 34 17 17 34 17 17 34 17 17 34 17 17 34 17 17 34 17 17 34 17 17 34 17 17 34 17 17 34 17 17 34 17 17 34 17 17 34 17 17 34 17 17 34 17 17 34 17 17 34 17 17 34 17 17 34 17 17 34 17 17 34 17 17 34 17 17 34 17 17 34 17 17 34 17 17 34 17 17 34 17 17 34 17 17 34 17 17 34 17 17 34 17 17 34 17 17 34 17 17 34 17 17 34 17 17 34 17 17 34 17 17 34 17 17 34 17 17 34 17 17 34 17 17 34 17 17 34 17 17 34 17 17 34 17 17 34 17 17 34 17 17 34 17 17 34 17 17 34 17 17 34 17 17 34 17 17 34 17 17 34 17 17 34 17 17 34 17 17 34 17 17 34 17 17 34 17 17 34 17 17 34 17 17 34 17 17 34 17 17 34 17 17 34 51 68 85 51 68 85 51 68 85 51 68 85 51 68 85 51 68 85 51 68 85 51 68 85 51 68 85 51 68 85 51 68 85 51 68 85 51 68 85 51 68 85 51 68 85 51 68 85 51 68 85 51 68 85 51 68 85 51 68 85 51 68 85 51 68 85 51 68 85 51 68 85 51 68 85 51 68 85 51 68 85 51 68 85 51 68 85 51 68 85 51 68 85 51 68 85 51 68 85 51 68 85 51 68 85 51 68 85 51 68 85 51 68 85 51 68 85 51 68 85 51 68 85 51 68 85 51 68 85 51 68 85 51 68 85 51 68 85 51 68 85 51 68 85 51 68 85 51 68 85 51 68 85 51 68 85 51 68 85 51 68 85 51 68 85 51 68 85 51 68 85 51 68 85 51 68 85 51 68 85 51 68 85 51 68 85 51 68 85 51 68 85 51 68 85 51 68 85 51 68 85 51 68 85 51 68 85 51 68 85 51 68 85 51 68 85 51 68 85 51 68 85 51 68 85 51 68 85 51 68 85 51 68 85 51 68 85 51 68 85 51 68 85 51 68 85
51 68 85 51 68 85 51 68 85 51 68 85 51 68 85 51 68 85 51 68 85 51 68 85 51 68 85 51 68 85 51 68 85 51 68 85 51 68 85 51 68 85 51 68 85 51 68 85 51 68 85 51 68 85 51 68 85 51 68 85 51 68 85 51 68 85 51 68 85 51 68 85 51 68 85 51 68 85 51 68 85 51 68 85 51 68 85 51 68 85 51 68 85 51 68 85 51 68 85 51 68 85 51 68 85 51 68 85 51 68 85 51 68 85 51 68 85 51 68 85 51 68 85 51 68 85 51 68 85 51 68 85 51 68 85 51 68 85 51 68 85 51 68 85 51 68 85 51 68 85 51 68 85 51 68 85 51 68 85 51 68 85 51 68 85 51 68 85 51 68 85 51 68 85 51 68 85 51 68 85 51 68 85 51 68 85 51 68 85 51 68 85 51 68 85 51 68 85 51 68 85 51 68 85 51 68 85 51 68 85 51 68 85 51 68 85 51 68 85 51 68 85 51 68 85 51 68 85 51 68 85 51 68 85 51 68 85 51 68 85 51 68 85 51 68 85 17 17 34 17 17 34 17 17 34 17 17 34 17 17 34 17 17 34 17 17 34 17 17 34 17 17 34 17 17 34 17 17 34 17 17 34 17 17 34 17 17 34 17 17 34 17 17 34 17 17 34 17 17 34 17 17 34 17 17 34 17 17 34 17 17 34 17 17 34 17 17 34 17 17 34 17 17 34 17 17 34 17 17 34 17 17 34 17 17 34 17 17 34 17 17 34 17 17 34 17 17 34 17 17 34 17 17 34 17 17 34 17 17 34 17 17 34 17 17 34 17 17 34 17 17 34 17 17 34 17 17 34 17 17 34 17 17 34 17 17 34 17 17 34 17 17 34 17 17 34 17 17 34 17 17 34 17 17 34 17 17 34 17 17 34 17 17 34 17 17 34 17 17 34 17 17 34 17 17 34 17 17 34 17 17 34 17 17 34 17 17 34 17 17 34 17 17 34 17 17 34 17 17 34 17 17 34 17 17 34 17 17 34 17 17 34 17 17 34 17 17 34 17 17 34 17 17 34 17 17 34 17 17 34 17 17 34 17 17 34 17 17 34 17 17 34 17 17 34 17 17 34 17 17 34 17 17 34 17 17 34 17 17 34 17 17 34 17 17 34 17 17 34 17 17 34 17 17 34 17 17 34 17 17 34 17 17 34 17 17 34 17 17 34 17 17 34 17 17 34 17 17 34 17 17 34 17 17 34 17 17 34 17 17 34 17 17 34 17 17 34 17 17 34 17 17 34 17 17 34 17 17 34 17 17 34 17 17 34 17 17 34 17 17 34 17 17 34 17 17 34 17 17 34 17 17 34 17 17 34 17 17 34 17 17 34 17 17 34 17 17 34 17 17 34 17 17 34 17 17 34 17 17 34 17 17 34 17 17 34 17 17 34 17 17 34 17 17 34 17 17 34 17 17 34 17 17 34 17 17 34 17 17 34 17 17 34 17 17 34 17 17 34 17 17 34 17 17 34 17 17 34 17 17 34 17 17 34 17 17 34 17 17 34 17 17 34 17 17 34 17 17 34 17 17 34 17 17 34 17 17 34 17 17 34 17 17 34 17 17 34 17 17 34 17 17 34 17 17 34 17 17 34 17 17 34 17 17 34 17 17 34 17 17 34 17 17 34 17 17 34 17 17 34 17 17 34 17 17 34 17 17 34 17 17 34 17 17 34 17 17 34 17 17 34 17 17 34 17 17 34 17 17 34 17 17 34 17 17 34 17 17 34 17 17 34 17 17 34 17 17 34 17 17 34 17 17 34 17 17 34 17 17 34 17 17 34 17 17 34 17 17 34 17 17 34 17 17 34 17 17 34 17 17 34 17 17 34 17 17 34 17 17 34 17 17 34 17 17 34 17 17 34 17 17 34 17 17 34 17 17 34 17 17 34 17 17 34 17 17 34 17 17 34 17 17 34 17 17 34 17 17 34 17 17 34 17 17 34 17 17 34 17 17 34 17 17 34 17 17 34 17 17 34 17 17 34 17 17 34 17 17 34 17 17 34 17 17 34 17 17 34 17 17 34 17 17 34 17 17 34 17 17 34 17 17 34 17 17 34 17 17 34 17 17 34 17 17 34 17 17 34 17 17 34 17 17 34 17 17 34 17 17 34
51 68 85 51 68 85 51 68 85 51 68 85 51 68 85 51 68 85 51 68 85 51 68 85 51 68 85 51 68 85 51 68 85 51 68 85 51 68 85 51 68 85 51 68 85 51 68 85 51 68 85 51 68 85 51 68 85 51 68 85 51 68 85 51 68 85 51 68 85 51 68 85 51 68 85 51 68 85 51 68 85 51 68 85 51 68 85 51 68 85 51 68 85 51 68 85 51 68 85 51 68 85 51 68 85 51 68 85 51 68 85 51 68 85 51 68 85 51 68 85 51 68 85 51 68 85 51 68 85 51 68 85 51 68 85 51 68 85 51 68 85 51 68 85 51 68 85 51 68 85 51 68 85 51 68 85 51 68 85 51 68 85 51 68 85 51 68 85 51 68 85 51 68 85 51 68 85 51 68 85 51 68 85 51 68 85 51 68 85 51 68 85 51 68 85 51 68 85 51 68 85 51 68 85 51 68 85 51 68 85 51 68 85 51 68 85 51 68 85 51 68 85 51 68 85 51 68 85 51 68 85 51 68 85 51 68 85 51 68 85 51 68 85 51 68 85 17 17 34 17 17 34 17 17 34 17 17 34 17 17 34 17 17 34 17 17 34 17 17 34 17 17 34 17 17 34 17 17 34 17 17 34 17 17 34 17 17 34 17 17 34 17 17 34 17 17 34 17 17 34 17 17 34 17 17 34 17 17 34 17 17 34 17 17 34 17 17 34 17 17 34 17 17 34 17 17 34 17 17 34 17 17 34 17 17 34 17 17 34 17 17 34 17 17 34 17 17 34 17 17 34 17 17 34 17 17 34 17 17 34 17 17 34 17 17 34 17 17 34 17 17 34 17 17 34 17 17 34 17 17 34 17 17 34 17 17 34 17 17 34 17 17 34 17 17 34 17 17 34 17 17 34 17 17 34 17 17 34 17 17 34 17 17 34 17 17 34 17 17 34 17 17 34 17 17 34 17 17 34 17 17 34 17 17 34 17 17 34 17 17 34 17 17 34 17 17 34 17 17 34 17 17 34 17 17 34 17 17 34 17 17 34 17 17 34 17 17 34 17 17 34 17 17 34 17 17 34 17 17 34 17 17 34 17 17 34 17 17 34 17 17 34 17 17 34 17 17 34 17 17 34 17 17 34 17 17 34 17 17 34 17 17 34 17 17 34 17 17 34 17 17 34 17 17 34 17 17 34 17 17 34 17 17 34 17 17 34 17 17 34 17 17 34 17 17 34 17 17 34 17 17 34 17 17 34 17 17 34 17 17 34 17 17 34 17 17 34 17 17 34 17 17 34 17 17 34 17 17 34 17 17 34 17 17 34 17 17 34 17 17 34 17 17 34 17 17 34 17 17 34 17 17 34 17 17 34 17 17 34 17 17 34 17 17 34 17 17 34 17 17 34 17 17 34 17 17 34 17 17 34 17 17 34 17 17 34 17 17 34 17 17 34 17 17 34 17 17 34 17 17 34 17 17 34 17 17 34 17 17 34 17 17 34 17 17 34 17 17 34 17 17 34 17 17 34 17 17 34 17 17 34 17 17 34 17 17 34 17 17 34 17 17 34 17 17 34 17 17 34 17 17 34 17 17 34 17 17 34 17 17 34 17 17 34 17 17 34 17 17 34 17 17 34 17 17 34 17 17 34 17 17 34 17 17 34 17 17 34 17 17 34 17 17 34 17 17 34 17 17 34 17 17 34 17 17 34 17 17 34 17 17 34 17 17 34 17 17 34 17 17 34 17 17 34 17 17 34 17 17 34 17 17 34 17 17 34 17 17 34 17 17 34 17 17 34 17 17 34 17 17 34 17 17 34 17 17 34 17 17 34 17 17 34 17 17 34 17 17 34 17 17 34 17 17 34 17 17 34 17 17 34 17 17 34 17 17 34 17 17 34 17 17 34 17 17 34 17 17 34 17 17 34 17 17 34 17 17 34 17 17 34 17 17 34 17 17 34 17 17 34 17 17 34 17 17 34 17 17 34 17 17 34 17 17 34 17 17 34 17 17 34 17 17 34 17 17 34 17 17 34 17 17 34 17 17 34 17 17 34 17 17 34 17 17 34 17 17 34 17 17 34 17 17 34 17 17 34 17 17 34 17 17 34 17 17 34 17 17 34 17 17 34 17 17 34 17 17 34 17 17 34 17 17 34 17 17 34 17 17 34
51 68 85 51 68 85 51 68 85 51 68 85 51 68 85 51 68 85 51 68 85 51 68 85 51 68 85 51 68 85 51 68 85 51 68 85 51 68 85 51 68 85 51 68 85 51 68 85 51 68 85 51 68 85 51 68 85 51 68 85 51 68 85 51 68 85 51 68 85 51 68 85 51 68 85 51 68 85 51 68 85 51 68 85 51 68 85 51 68 85 51 68 85 51 68 85 51 68 85 51 68 85 51 68 85 51 68 85 51 68 85 51 68 85 51 68 85 51 68 85 51 68 85 51 68 85 51 68 85 51 68 85 51 68 85 51 68 85 51 68 85 51 68 85 51 68 85 51 68 85 51 68 85 51 68 85 51 68 85 51 68 85 51 68 85 51 68 85 51 68 85 51 68 85 51 68 85 51 68 85 51 68 85 51 68 85 51 68 85 51 68 85 51 68 85 51 68 85 51 68 85 51 68 85 51 68 85 51 68 85 51 68 85 51 68 85 51 68 85 51 68 85 51 68 85 51 68 85 51 68 85 51 68 85 51 68 85 51 68 85 51 68 85 51 68 85 17 17 34 17 17 34 17 17 34 17 17 34 17 17 34 17 17 34 17 17 34 17 17 34 17 17 34 17 17 34 17 17 34 17 17 34 17 17 34 17 17 34 17 17 34 17 17 34 17 17 34 17 17 34 17 17 34 17 17 34 17 17 34 17 17 34 17 17 34 17 17 34 17 17 34 17 17 34 17 17 34 17 17 34 17 17 34 17 17 34 17 17 34 17 17 34 17 17 34 17 17 34 17 17 34 17 17 34 17 17 34 17 17 34 17 17 34 17 17 34 17 17 34 17 17 34 17 17 34 17 17 34 17 17 34 17 17 34 17 17 34 17 17 34 17 17 34 17 17 34 17 17 34 17 17 34 17 17 34 17 17 34 17 17 34 17 17 34 17 17 34 17 17 34 17 17 34 17 17 34 17 17 34 17 17 34 17 17 34 17 17 34 17 17 34 17 17 34 17 17 34 17 17 34 17 17 34 17 17 34 17 17 34 17 17 34 17 17 34 17 17 34 17 17 34 17 17 34 17 17 34 17 17 34 17 17 34 17 17 34 17 17 34 17 17 34 17 17 34 17 17 34 17 17 34 17 17 34 17 17 34 17 17 34 17 17 34 17 17 34 17 17 34 17 17 34 17 17 34 17 17 34 17 17 34 17 17 34 17 17 34 17 17 34 17 17 34 17 17 34 17 17 34 17 17 34 17 17 34 17 17 34 17 17 34 17 17 34 17 17 34 17 17 34 17 17 34 17 17 34 17 17 34 17 17 34 17 17 34 17 17 34 17 17 34 17 17 34 17 17 34 17 17 34 17 17 34 17 17 34 17 17 34 17 17 34 17 17 34 17 17 34 17 17 34 17 17 34 17 17 34 17 17 34 17 17 34 17 17 34 17 17 34 17 17 34 17 17 34 17 17 34 17 17 34 17 17 34 17 17 34 17 17 34 17 17 34 17 17 34 17 17 34 17 17 34 17 17 34 17 17 34 17 17 34 17 17 34 17 17 34 17 17 34 17 17 34 17 17 34 17 17 34 17 17 34 17 17 34 17 17 34 17 17 34 17 17 34 17 17 34 17 17 34 17 17 34 17 17 34 17 17 34 17 17 34 17 17 34 17 17 34 17 17 34 17 17 34 17 17 34 17 17 34 17 17 34 17 17 34 17 17 34 17 17 34 17 17 34 17 17 34 17 17 34 17 17 34 17 17 34 17 17 34 17 17 34 17 17 34 17 17 34 17 17 34 17 17 34 17 17 34 17 17 34 17 17 34 17 17 34 17 17 34 17 17 34 17 17 34 17 17 34 17 17 34 17 17 34 17 17 34 17 17 34 17 17 34 17 17 34 17 17 34 17 17 34 17 17 34 17 17 34 17 17 34 17 17 34 17 17 34 17 17 34 17 17 34 17 17 34 17 17 34 17 17 34 17 17 34 17 17 34 17 17 34 17 17 34 17 17 34 17 17 34 17 17 34 17 17 34 17 17 34 17 17 34 17 17 34 17 17 34 17 17 34 17 17 34 17 17 34 17 17 34 17 17 34 17 17 34 17 17 34 17 17 34 17 17 34 17 17 34 17 17 34 17 17 34 17 17 34 17 17 34 17 17 34 17 17 34 17 17 34
51 68 85 51 68 85 51 68 85 51 68 85 51 68 85 51 68 85 51 68 85 51 68 85 51 68 85 51 68 85 51 68 85 51 68 85 51 68 85 51 68 85 51 68 85 51 68 85 51 68 85 51 68 85 51 68 85 51 68 85 51 68 85 51 68 85 51 68 85 51 68 85 51 68 85 51 68 85 51 68 85 51 68 85 51 68 85 51 68 85 51 68 85 51 68 85 51 68 85 51 68 85 51 68 85 51 68 85 51 68 85 51 68 85 51 68 85 51 68 85 51 68 85 51 68 85 51 68 85 51 68 85 51 68 85 51 68 85 51 68 85 51 68 85 51 68 85 51 68 85 51 68 85 51 68 85 51 68 85 51 68 85 51 68 85 51 68 85 51 68 85 51 68 85 51 68 85 51 68 85 51 68 85 51 68 85 51 68 85 51 68 85 51 68 85 51 68 85 51 68 85 51 68 85 51 68 85 51 68 85 51 68 85 51 68 85 51 68 85 51 68 85 51 68 85 51 68 85 51 68 85 51 68 85 51 68 85 51 68 85 51 68 85 51 68 85 17 17 34 17 17 34 17 17 34 17 17 34 17 17 34 17 17 34 17 17 34 17 17 34 17 17 34 17 17 34 17 17 34 17 17 34 17 17 34 17 17 34 17 17 34 17 17 34 17 17 34 17 17 34 17 17 34 17 17 34 17 17 34 17 17 34 17 17 34 17 17 34 17 17 34 17 17 34 17 17 34 17 17 34 17 17 34 17 17 34 17 17 34 17 17 34 17 17 34 17 17 34 17 17 34 17 17 34 17 17 34 17 17 34 17 17 34 17 17 34 17 17 34 17 17 34 17 17 34 17 17 34 17 17 34 17 17 34 17 17 34 17 17 34 17 17 34 17 17 34 17 17 34 17 17 34 17 17 34 17 17 34 17 17 34 17 17 34 17 17 34 17 17 34 17 17 34 17 17 34 17 17 34 17 17 34 17 17 34 17 17 34 17 17 34 17 17 34 17 17 34 17 17 34 17 17 34 17 17 34 17 17 34 17 17 34 17 17 34 17 17 34 17 17 34 17 17 34 17 17 34 17 17 34 17 17 34 17 17 34 17 17 34 17 17 34 17 17 34 17 17 34 17 17 34 17 17 34 17 17 34 17 17 34 17 17 34 17 17 34 17 17 34 17 17 34 17 17 34 17 17 34 17 17 34 17 17 34 17 17 34 17 17 34 17 17 34 17 17 34 17 17 34 17 17 34 17 17 34 17 17 34 17 17 34 17 17 34 17 17 34 17 17 34 17 17 34 17 17 34 17 17 34 17 17 34 17 17 34 17 17 34 17 17 34 17 17 34 17 17 34 17 17 34 17 17 34 17 17 34 17 17 34 17 17 34 17 17 34 17 17 34 17 17 34 17 17 34 17 17 34 17 17 34 17 17 34 17 17 34 17 17 34 17 17 34 17 17 34 17 17 34 17 17 34 17 17 34 17 17 34 17 17 34 17 17 34 17 17 34 17 17 34 17 17 34 17 17 34 17 17 34 17 17 34 17 17 34 17 17 34 17 17 34 17 17 34 17 17 34 17 17 34 17 17 34 17 17 34 17 17 34 17 17 34 17 17 34 17 17 34 17 17 34 17 17 34 17 17 34 17 17 34 17 17 34 17 17 34 17 17 34 17 17 34 17 17 34 17 17 34 17 17 34 17 17 34 17 17 34 17 17 34 17 17 34 17 17 34 17 17 34 17 17 34 17 17 34 17 17 34 17 17 34 17 17 34 17 17 34 17 17 34 17 17 34 17 17 34 17 17 34 17 17 34 17 17 34 17 17 34 17 17 34 17 17 34 17 17 34 17 17 34 17 17 34 17 17 34 17 17 34 17 17 34 17 17 34 17 17 34 17 17 34 17 17 34 17 17 34 17 17 34 17 17 34 17 17 34 17 17 34 17 17 34 17 17 34 17 17 34 17 17 34 17 17 34 17 17 34 17 17 34 17 17 34 17 17 34 17 17 34 17 17 34 17 17 34 17 17 34 17 17 34 17 17 34 17 17 34 17 17 34 17 17 34 17 17 34 17 17 34 17 17 34 17 17 34 17 17 34 17 17 34 17 17 34 17 17 34 17 17 34 17 17 34 17 17 34 17 17 34 17 17 34 17 17 34 17 17 34 17 17 34
51 68 85 51 68 85 51 68 85 51 68 85 85 102 119 85 102 119 85 102 119 85 102 119 85 102 119 85 102 119 85 102 119 85 102 119 85 102 119 85 102 119 85 102 119 85 102 119 85 102 119 85 102 119 85 102 119 85 102 119 85 102 119 85 102 119 85 102 119 85 102 119 85 102 119 85 102 119 85 102 119 85 102 119 85 102 119 85 102 119 85 102 119 85 102 119 85 102 119 85 102 119 85 102 119 85 102 119 85 102 119 85 102 119 85 102 119 85 102 119 85 102 119 85 102 119 85 102 119 85 102 119 85 102 119 85 102 119 85 102 119 85 102 119 85 102 119 85 102 119 85 102 119 85 102 119 85 102 119 85 102 119 85 102 119 85 102 119 85 102 119 85 102 119 85 102 119 85 102 119 85 102 119 85 102 119 85 102 119 85 102 119 85 102 119 85 102 119 85 102 119 85 102 119 85 102 119 85 102 119 85 102 119 85 102 119 85 102 119 85 102 119 51 68 85 51 68 85 51 68 85 51 68 85 51 68 85 51 68 85 51 68 85 51 68 85 17 17 34 17 17 34 17 17 34 17 17 34 17 17 34 17 17 34 17 17 34 17 17 34 17 17 34 17 17 34 17 17 34 17 17 34 17 17 34 17 17 34 17 17 34 17 17 34 17 17 34 17 17 34 17 17 34 17 17 34 17 17 34 17 17 34 17 17 34 17 17 34 17 17 34 17 17 34 17 17 34 17 17 34 17 17 34 17 17 34 17 17 34 17 17 34 17 17 34 17 17 34 17 17 34 17 17 34 17 17 34 17 17 34 17 17 34 17 17 34 17 17 34 17 17 34 17 17 34 17 17 34 17 17 34 17 17 34 17 17 34 17 17 34 17 17 34 17 17 34 17 17 34 17 17 34 17 17 34 17 17 34 17 17 34 17 17 34 17 17 34 17 17 34 17 17 34 17 17 34 17 17 34 17 17 34 17 17 34 17 17 34 17 17 34 17 17 34 17 17 34 17 17 34 17 17 34 17 17 34 17 17 34 17 17 34 17 17 34 17 17 34 17 17 34 17 17 34 17 17 34 17 17 34 17 17 34 17 17 34 17 17 34 17 17 34 17 17 34 17 17 34 17 17 34 17 17 34 17 17 34 17 17 34 17 17 34 17 17 34 17 17 34 17 17 34 17 17 34 17 17 34 17 17 34 17 17 34 17 17 34 17 17 34 17 17 34 17 17 34 17 17 34 17 17 34 17 17 34 17 17 34 17 17 34 17 17 34 17 17 34 17 17 34 17 17 34 17 17 34 17 17 34 17 17 34 17 17 34 17 17 34 17 17 34 17 17 34 17 17 34 17 17 34 17 17 34 17 17 34 17 17 34 17 17 34 17 17 34 17 17 34 17 17 34 17 17 34 17 17 34 17 17 34 17 17 34 17 17 34 17 17 34 17 17 34 17 17 34 17 17 34 17 17 34 17 17 34 17 17 34 17 17 34 17 17 34 17 17 34 17 17 34 17 17 34 17 17 34 17 17 34 17 17 34 17 17 34 17 17 34 17 17 34 17 17 34 17 17 34 17 17 34 17 17 34 17 17 34 17 17 34 17 17 34 17 17 34 17 17 34 17 17 34 17 17 34 17 17 34 17 17 34 17 17 34 17 17 34 17 17 34 17 17 34 17 17 34 17 17 34 17 17 34 17 17 34 17 17 34 17 17 34 17 17 34 17 17 34 17 17 34 17 17 34 17 17 34 17 17 34 17 17 34 17 17 34 17 17 34 17 17 34 17 17 34 17 17 34 17 17 34 17 17 34 17 17 34 17 17 34 17 17 34 17 17 34 17 17 34 17 17 34 17 17 34 17 17 34 17 17 34 17 17 34 17 17 34 17 17 34 17 17 34 17 17 34 17 17 34 17 17 34 17 17 34 17 17 34 17 17 34 17 17 34 17 17 34 17 17 34 17 17 34 17 17 34 17 17 34 17 17 34 17 17 34 17 17 34 17 17 34 17 17 34 17 17 34 17 17 34 17 17 34 17 17 34 17 17 34 17 17 34 17 17 34 17 17 34 17 17 34 17 17 34 17 17 34 17 17 34 17 17 34 17 17 34 17 17 34 17 17 34 17 17 34 17 17 34 17 17 34 17 17 34 17 17 34 17 17 34 17 17 34
51 68 85 51 68 85 51 68 85 51 68 85 85 102 119 85 102 119 85 102 119 85 102 119 85 102 119 85 102 119 85 102 119 85 102 119 85 102 119 85 102 119 85 102 119 85 102 119 85 102 119 85 102 119 85 102 119 85 102 119 85 102 119 85 102 119 85 102 119 85 102 119 85 102 119 85 102 119 85 102 119 85 102 119 85 102 119 85 102 119 85 102 119 85 102 119 85 102 119 85 102 119 85 102 119 85 102 119 85 102 119 85 102 119 85 102 119 85 102 119 85 102 119 85 102 119 85 102 119 85 102 119 85 102 119 85 102 119 85 102 119 85 102 119 85 102 119 85 102 119 85 102 119 85 102 119 85 102 119 85 102 119 85 102 119 85 102 119 85 102 119 85 102 119 85 102 119 85 102 119 85 102 119 85 102 119 85 102 119 85 102 119 85 102 119 85 102 119 85 102 119 85 102 119 85 102 119 85 102 119 85 102 119 85 102 119 85 102 119 85 102 119 51 68 85 51 68 85 51 68 85 51 68 85 51 68 85 51 68 85 51 68 85 51 68 85 17 17 34 17 17 34 17 17 34 17 17 34 17 17 34 17 17 34 17 17 34 17 17 34 17 17 34 17 17 34 17 17 34 17 17 34 17 17 34 17 17 34 17 17 34 17 17 34 17 17 34 17 17 34 17 17 34 17 17 34 17 17 34 17 17 34 17 17 34 17 17 34 17 17 34 17 17 34 17 17 34 17 17 34 17 17 34 17 17 34 17 17 34 17 17 34 17 17 34 17 17 34 17 17 34 17 17 34 17 17 34 17 17 34 17 17 34 17 17 34 17 17 34 17 17 34 17 17 34 17 17 34 17 17 34 17 17 34 17 17 34 17 17 34 17 17 34 17 17 34 17 17 34 17 17 34 17 17 34 17 17 34 17 17 34 17 17 34 17 17 34 17 17 34 17 17 34 17 17 34 17 17 34 17 17 34 17 17 34 17 17 34 17 17 34 17 17 34 17 17 34 17 17 34 17 17 34 17 17 34 17 17 34 17 17 34 17 17 34 17 17 34 17 17 34 17 17 34 17 17 34 17 17 34 17 17 34 17 17 34 17 17 34 17 17 34 17 17 34 17 17 34 17 17 34 17 17 34 17 17 34 17 17 34 17 17 34 17 17 34 17 17 34 17 17 34 17 17 34 17 17 34 17 17 34 17 17 34 17 17 34 17 17 34 17 17 34 17 17 34 17 17 34 17 17 34 17 17 34 17 17 34 17 17 34 17 17 34 17 17 34 17 17 34 17 17 34 17 17 34 17 17 34 17 17 34 17 17 34 17 17 34 17 17 34 17 17 34 17 17 34 17 17 34 17 17 34 17 17 34 17 17 34 17 17 34 17 17 34 17 17 34 17 17 34 17 17 34 17 17 34 17 17 34 17 17 34 17 17 34 17 17 34 17 17 34 17 17 34 17 17 34 17 17 34 17 17 34 17 17 34 17 17 34 17 17 34 17 17 34 17 17 34 17 17 34 17 17 34 17 17 34 17 17 34 17 17 34 17 17 34 17 17 34 17 17 34 17 17 34 17 17 34 17 17 34 17 17 34 17 17 34 17 17 34 17 17 34 17 17 34 17 17 34 17 17 34 17 17 34 17 17 34 17 17 34 17 17 34 17 17 34 17 17 34 17 17 34 17 17 34 17 17 34 17 17 34 17 17 34 17 17 34 17 17 34 17 17 34 17 17 34 17 17 34 17 17 34 17 17 34 17 17 34 17 17 34 17 17 34 17 17 34 17 17 34 17 17 34 17 17 34 17 17 34 17 17 34 17 17 34 17 17 34 17 17 34 17 17 34 17 17 34 17 17 34 17 17 34 17 17 34 17 17 34 17 17 34 17 17 34 17 17 34 17 17 34 17 17 34 17 17 34 17 17 34 17 17 34 17 17 34 17 17 34 17 17 34 17 17 34 17 17 34 17 17 34 17 17 34 17 17 34 17 17 34 17 17 34 17 17 34 17 17 34 17 17 34 17 17 34 17 17 34 17 17 34 17 17 34 17 17 34 17 17 34 17 17 34 17 17 34 17 17 34 17 17 34 17 17 34 17 17 34 17 17 34 17 17 34 17 17 34 17 17 34 17 17 34 17 17 34 17 17 34 17 17 34 17 17 34 17 17 34
51 68 85 51 68 85 51 68 85 51 68 85 85 102 119 85 102 119 85 102 119 85 102 119 85 102 119 85 102 119 85 102 119 85 102 119 85 102 119 85 102 119 85 102 119 85 102 119 85 102 119 85 102 119 85 102 119 85 102 119 85 102 119 85 102 119 85 102 119 85 102 119 85 102 119 85 102 119 85 102 119 85 102 119 85 102 119 85 102 119 85 102 119 85 102 119 85 102 119 85 102 119 85 102 119 85 102 119 85 102 119 85 102 119 85 102 119 85 102 119 85 102 119 85 102 119 85 102 119 85 102 119 85 102 119 85 102 119 85 102 119 85 102 119 85 102 119 85 102 119 85 102 119 85 102 119 85 102 119 85 102 119 85 102 119 85 102 119 85 102 119 85 102 119 85 102 119 85 102 119 85 102 119 85 102 119 85 102 119 85 102 119 85 102 119 85 102 119 85 102 119 85 102 119 85 102 119 85 102 119 85 102 119 85 102 119 85 102 119 85 102 119 51 68 85 51 68 85 51 68 85 51 68 85 51 68 85 51 68 85 51 68 85 51 68 85 17 17 34 17 17 34 17 17 34 17 17 34 17 17 34 17 17 34 17 17 34 17 17 34 17 17 34 17 17 34 17 17 34 17 17 34 17 17 34 17 17 34 17 17 34 17 17 34 17 17 34 17 17 34 17 17 34 17 17 34 17 17 34 17 17 34 17 17 34 17 17 34 17 17 34 17 17 34 17 17 34 17 17 34 17 17 34 17 17 34 17 17 34 17 17 34 17 17 34 17 17 34 17 17 34 17 17 34 17 17 34 17 17 34 17 17 34 17 17 34 17 17 34 17 17 34 17 17 34 17 17 34 17 17 34 17 17 34 17 17 34 17 17 34 17 17 34 17 17 34 17 17 34 17 17 34 17 17 34 17 17 34 17 17 34 17 17 34 17 17 34 17 17 34 17 17 34 17 17 34 17 17 34 17 17 34 17 17 34 17 17 34 17 17 34 17 17 34 17 17 34 17 17 34 17 17 34 17 17 34 17 17 34 17 17 34 17 17 34 17 17 34 17 17 34 17 17 34 17 17 34 17 17 34 17 17 34 17 17 34 17 17 34 17 17 34 17 17 34 17 17 34 17 17 34 17 17 34 17 17 34 17 17 34 17 17 34 17 17 34 17 17 34 17 17 34 17 17 34 17 17 34 17 17 34 17 17 34 17 17 34 17 17 34 17 17 34 17 17 34 17 17 34 17 17 34 17 17 34 17 17 34 17 17 34 17 17 34 17 17 34 17 17 34 17 17 34 17 17 34 17 17 34 17 17 34 17 17 34 17 17 34 17 17 34 17 17 34 17 17 34 17 17 34 17 17 34 17 17 34 17 17 34 17 17 34 17 17 34 17 17 34 17 17 34 17 17 34 17 17 34 17 17 34 17 17 34 17 17 34 17 17 34 17 17 34 17 17 34 17 17 34 17 17 34 17 17 34 17 17 34 17 17 34 17 17 34 17 17 34 17 17 34 17 17 34 17 17 34 17 17 34 17 17 34 17 17 34 17 17 34 17 17 34 17 17 34 17 17 34 17 17 34 17 17 34 17 17 34 17 17 34 17 17 34 17 17 34 17 17 34 17 17 34 17 17 34 17 17 34 17 17 34 17 17 34 17 17 34 17 17 34 17 17 34 17 17 34 17 17 34 17 17 34 17 17 34 17 17 34 17 17 34 17 17 34 17 17 34 17 17 34 17 17 34 17 17 34 17 17 34 17 17 34 17 17 34 17 17 34 17 17 34 17 17 34 17 17 34 17 17 34 17 17 34 17 17 34 17 17 34 17 17 34 17 17 34 17 17 34 17 17 34 17 17 34 17 17 34 17 17 34 17 17 34 17 17 34 17 17 34 17 17 34 17 17 34 17 17 34 17 17 34 17 17 34 17 17 34 17 17 34 17 17 34 17 17 34 17 17 34 17 17 34 17 17 34 17 17 34 17 17 34 17 17 34 17 17 34 17 17 34 17 17 34 17 17 34 17 17 34 17 17 34 17 17 34 17 17 34 17 17 34 17 17 34 17 17 34 17 17 34 17 17 34 17 17 34 17 17 34 17 17 34 17 17 34 17 17 34 17 17 34 17 17 34 17 17 34 17 17 34 17 17 34 17 17 34 17 17 34 17 17 34
51 68 85 51 68 85 51 68 85 51 68 85 85 102 119 85 102 119 85 102 119 85 102 119 85 102 119 85 102 119 85 102 119 85 102 119 85 102 119 85 102 119 85 102 119 85 102 119 85 102 119 85 102 119 85 102 119 85 102 119 85 102 119 85 102 119 85 102 119 85 102 119 85 102 119 85 102 119 85 102 119 85 102 119 85 102 119 85 102 119 85 102 119 85 102 119 85 102 119 85 102 119 85 102 119 85 102 119 85 102 119 85 102 119 85 102 119 85 102 119 85 102 119 85 102 119 85 102 119 85 102 119 85 102 119 85 102 119 85 102 119 85 102 119 85 102 119 85 102 119 85 102 119 85 102 119 85 102 119 85 102 119 85 102 119 85 102 119 85 102 119 85 102 119 85 102 119 85 102 119 85 102 119 85 102 119 85 102 119 85 102 119 85 102 119 85 102 119 85 102 119 85 102 119 85 102 119 85 102 119 85 102 119 85 102 119 85 102 119 85 102 119 51 68 85 51 68 85 51 68 85 51 68 85 51 68 85 51 68 85 51 68 85 51 68 85 17 17 34 17 17 34 17 17 34 17 17 34 17 17 34 17 17 34 17 17 34 17 17 34 17 17 34 17 17 34 17 17 34 17 17 34 17 17 34 17 17 34 17 17 34 17 17 34 17 17 34 17 17 34 17 17 34 17 17 34 17 17 34 17 17 34 17 17 34 17 17 34 17 17 34 17 17 34 17 17 34 17 17 34 17 17 34 17 17 34 17 17 34 17 17 34 17 17 34 17 17 34 17 17 34 17 17 34 17 17 34 17 17 34 17 17 34 17 17 34 17 17 34 17 17 34 17 17 34 17 17 34 17 17 34 17 17 34 17 17 34 17 17 34 17 17 34 17 17 34 17 17 34 17 17 34 17 17 34 17 17 34 17 17 34 17 17 34 17 17 34 17 17 34 17 17 34 17 17 34 17 17 34 17 17 34 17 17 34 17 17 34 17 17 34 17 17 34 17 17 34 17 17 34 17 17 34 17 17 34 17 17 34 17 17 34 17 17 34 17 17 34 17 17 34 17 17 34 17 17 34 17 17 34 17 17 34 17 17 34 17 17 34 17 17 34 17 17 34 17 17 34 17 17 34 17 17 34 17 17 34 17 17 34 17 17 34 17 17 34 17 17 34 17 17 34 17 17 34 17 17 34 17 17 34 17 17 34 17 17 34 17 17 34 17 17 34 17 17 34 17 17 34 17 17 34 17 17 34 17 17 34 17 17 34 17 17 34 17 17 34 17 17 34 17 17 34 17 17 34 17 17 34 17 17 34 17 17 34 17 17 34 17 17 34 17 17 34 17 17 34 17 17 34 17 17 34 17 17 34 17 17 34 17 17 34 17 17 34 17 17 34 17 17 34 17 17 34 17 17 34 17 17 34 17 17 34 17 17 34 17 17 34 17 17 34 17 17 34 17 17 34 17 17 34 17 17 34 17 17 34 17 17 34 17 17 34 17 17 34 17 17 34 17 17 34 17 17 34 17 17 34 17 17 34 17 17 34 17 17 34 17 17 34 17 17 34 17 17 34 17 17 34 17 17 34 17 17 34 17 17 34 17 17 34 17 17 34 17 17 34 17 17 34 17 17 34 17 17 34 17 17 34 17 17 34 17 17 34 17 17 34 17 17 34 17 17 34 17 17 34 17 17 34 17 17 34 17 17 34 17 17 34 17 17 34 17 17 34 17 17 34 17 17 34 17 17 34 17 17 34 17 17 34 17 17 34 17 17 34 17 17 34 17 17 34 17 17 34 17 17 34 17 17 34 17 17 34 17 17 34 17 17 34 17 17 34 17 17 34 17 17 34 17 17 34 17 17 34 17 17 34 17 17 34 17 17 34 17 17 34 17 17 34 17 17 34 17 17 34 17 17 34 17 17 34 17 17 34 17 17 34 17 17 34 17 17 34 17 17 34 17 17 34 17 17 34 17 17 34 17 17 34 17 17 34 17 17 34 17 17 34 17 17 34 17 17 34 17 17 34 17 17 34 17 17 34 17 17 34 17 17 34 17 17 34 17 17 34 17 17 34 17 17 34 17 17 34 17 17 34 17 17 34 17 17 34 17 17 34 17 17 34 17 17 34 17 17 34 17 17 34 17 17 34 17 17 34 17 17 34 17 17 34
51 68 85 51 68 85 51 68 85 51 68 85 85 102 119 85 102 119 85 102 119 85 102 119 85 102 119 85 102 119 85 102 119 85 102 119 85 102 119 85 102 119 85 102 119 85 102 119 85 102 119 85 102 119 85 102 119 85 102 119 85 102 119 85 102 119 85 102 119 85 102 119 85 102 119 85 102 119 85 102 119 85 102 119 85 102 119 85 102 119 85 102 119 85 102 119 85 102 119 85 102 119 85 102 119 85 102 119 85 102 119 85 102 119 85 102 119 85 102 119 85 102 119 85 102 119 85 102 119 85 102 119 85 102 119 85 102 119 85 102 119 85 102 119 85 102 119 85 102 119 85 102 119 85 102 119 85 102 119 85 102 119 85 102 119 85 102 119 85 102 119 85 102 119 85 102 119 85 102 119 85 102 119 85 102 119 85 102 119 85 102 119 85 102 119 85 102 119 85 102 119 85 102 119 85 102 119 85 102 119 85 102 119 85 102 119 85 102 119 85 102 119 51 68 85 51 68 85 51 68 85 51 68 85 51 68 85 51 68 85 51 68 85 51 68 85 17 17 34 17 17 34 17 17 34 17 17 34 17 17 34 17 17 34 17 17 34 17 17 34 17 17 34 17 17 34 17 17 34 17 17 34 17 17 34 17 17 34 17 17 34 17 17 34 17 17 34 17 17 34 17 17 34 17 17 34 17 17 34 17 17 34 17 17 34 17 17 34 17 17 34 17 17 34 17 17 34 17 17 34 17 17 34 17 17 34 17 17 34 17 17 34 17 17 34 17 17 34 17 17 34 17 17 34 17 17 34 17 17 34 17 17 34 17 17 34 17 17 34 17 17 34 17 17 34 17 17 34 17 17 34 17 17 34 17 17 34 17 17 34 17 17 34 17 17 34 17 17 34 17 17 34 17 17 34 17 17 34 17 17 34 17 17 34 17 17 34 17 17 34 17 17 34 17 17 34 17 17 34 17 17 34 17 17 34 17 17 34 17 17 34 17 17 34 17 17 34 17 17 34 17 17 34 17 17 34 17 17 34 17 17 34 17 17 34 17 17 34 17 17 34 17 17 34 17 17 34 17 17 34 17 17 34 17 17 34 17 17 34 17 17 34 17 17 34 17 17 34 17 17 34 17 17 34 17 17 34 17 17 34 17 17 34 17 17 34 17 17 34 17 17 34 17 17 34 17 17 34 17 17 34 17 17 34 17 17 34 17 17 34 17 17 34 17 17 34 17 17 34 17 17 34 17 17 34 17 17 34 17 17 34 17 17 34 17 17 34 17 17 34 17 17 34 17 17 34 17 17 34 17 17 34 17 17 34 17 17 34 17 17 34 17 17 34 17 17 34 17 17 34 17 17 34 17 17 34 17 17 34 17 17 34 17 17 34 17 17 34 17 17 34 17 17 34 17 17 34 17 17 34 17 17 34 17 17 34 17 17 34 17 17 34 17 17 34 17 17 34 17 17 34 17 17 34 17 17 34 17 17 34 17 17 34 17 17 34 17 17 34 17 17 34 17 17 34 17 17 34 17 17 34 17 17 34 17 17 34 17 17 34 17 17 34 17 17 34 17 17 34 17 17 34 17 17 34 17 17 34 17 17 34 17 17 34 51 68 85 51 68 85 51 68 85 51 68 85 51 68 85 51 68 85 51 68 85 51 68 85 51 68 85 51 68 85 51 68 85 51 68 85 51 68 85 51 68 85 51 68 85 51 68 85 51 68 85 51 68 85 51 68 85 51 68 85 51 68 85 51 68 85 51 68 85 51 68 85 51 68 85 51 68 85 51 68 85 51 68 85 51 68 85 51 68 85 51 68 85 51 68 85 51 68 85 51 68 85 51 68 85 51 68 85 51 68 85 51 68 85 51 68 85 51 68 85 51 68 85 51 68 85 51 68 85 51 68 85 51 68 85 51 68 85 51 68 85 51 68 85 51 68 85 51 68 85 51 68 85 51 68 85 51 68 85 51 68 85 51 68 85 51 68 85 51 68 85 51 68 85 51 68 85 51 68 85 51 68 85 51 68 85 51 68 85 51 68 85 51 68 85 51 68 85 51 68 85 51 68 85 51 68 85 51 68 85 51 68 85 51 68 85 51 68 85 51 68 85 51 68 85 51 68 85 51 68 85 51 68 85 51 68 85 51 68 85 51 68 85 51 68 85
51 68 85 51 68 85 51 68 85 51 68 85 85 102 119 85 102 119 85 102 119 85 102 119 85 102 119 85 102 119 85 102 119 85 102 119 85 102 119 85 102 119 85 102 119 85 102 119 85 102 119 85 102 119 85 102 119 85 102 119 85 102 119 85 102 119 85 102 119 85 102 119 85 102 119 85 102 119 85 102 119 85 102 119 85 102 119 85 102 119 85 102 119 85 102 119 85 102 119 85 102 119 85 102 119 85 102 119 85 102 119 85 102 119 85 102 119 85 102 119 85 102 119 85 102 119 85 102 119 85 102 119 85 102 119 85 102 119 85 102 119 85 102 119 85 102 119 85 102 119 85 102 119 85 102 119 85 102 119 85 102 119 85 102 119 85 102 119 85 102 119 85 102 119 85 102 119 85 102 119 85 102 119 85 102 119 85 102 119 85 102 119 85 102 119 85 102 119 85 102 119 85 102 119 85 102 119 85 102 119 85 102 119 85 102 119 85 102 119 85 102 119 51 68 85 51 68 85 51 68 85 51 68 85 51 68 85 51 68 85 51 68 85 51 68 85 17 17 34 17 17 34 17 17 34 17 17 34 17 17 34 17 17 34 17 17 34 17 17 34 17 17 34 17 17 34 17 17 34 17 17 34 17 17 34 17 17 34 17 17 34 17 17 34 17 17 34 17 17 34 17 17 34 17 17 34 17 17 34 17 17 34 17 17 34 17 17 34 17 17 34 17 17 34 17 17 34 17 17 34 17 17 34 17 17 34 17 17 34 17 17 34 17 17 34 17 17 34 17 17 34 17 17 34 17 17 34 17 17 34 17 17 34 17 17 34 17 17 34 17 17 34 17 17 34 17 17 34 17 17 34 17 17 34 17 17 34 17 17 34 17 17 34 17 17 34 17 17 34 17 17 34 17 17 34 17 17 34 17 17 34 17 17 34 17 17 34 17 17 34 17 17 34 17 17 34 17 17 34 17 17 34 17 17 34 17 17 34 17 17 34 17 17 34 17 17 34 17 17 34 17 17 34 17 17 34 17 17 34 17 17 34 17 17 34 17 17 34 17 17 34 17 17 34 17 17 34 17 17 34 17 17 34 17 17 34 17 17 34 17 17 34 17 17 34 17 17 34 17 17 34 17 17 34 17 17 34 17 17 34 17 17 34 17 17 34 17 17 34 17 17 34 17 17 34 17 17 34 17 17 34 17 17 34 17 17 34 17 17 34 17 17 34 17 17 34 17 17 34 17 17 34 17 17 34 17 17 34 17 17 34 17 17 34 17 17 34 17 17 34 17 17 34 17 17 34 17 17 34 17 17 34 17 17 34 17 17 34 17 17 34 17 17 34 17 17 34 17 17 34 17 17 34 17 17 34 17 17 34 17 17 34 17 17 34 17 17 34 17 17 34 17 17 34 17 17 34 17 17 34 17 17 34 17 17 34 17 17 34 17 17 34 17 17 34 17 17 34 17 17 34 17 17 34 17 17 34 17 17 34 17 17 34 17 17 34 17 17 34 17 17 34 17 17 34 17 17 34 17 17 34 17 17 34 17 17 34 17 17 34 17 17 34 17 17 34 17 17 34 17 17 34 17 17 34 17 17 34 17 17 34 17 17 34 51 68 85 51 68 85 51 68 85 51 68 85 51 68 85 51 68 85 51 68 85 51 68 85 51 68 85 51 68 85 51 68 85 51 68 85 51 68 85 51 68 85 51 68 85 51 68 85 51 68 85 51 68 85 51 68 85 51 68 85 51 68 85 51 68 85 51 68 85 51 68 85 51 68 85 51 68 85 51 68 85 51 68 85 51 68 85 51 68 85 51 68 85 51 68 85 51 68 85 51 68 85 51 68 85 51 68 85 51 68 85 51 68 85 51 68 85 51 68 85 51 68 85 51 68 85 51 68 85 51 68 85 51 68 85 51 68 85 51 68 85 51 68 85 51 68 85 51 68 85 51 68 85 51 68 85 51 68 85 51 68 85 51 68 85 51 68 85 51 68 85 51 68 85 51 68 85 51 68 85 51 68 85 51 68 85 51 68 85 51 68 85 51 68 85 51 68 85 51 68 85 51 68 85 51 68 85 51 68 85 51 68 85 51 68 85 51 68 85 51 68 85 51 68 85 51 68 85 51 68 85 51 68 85 51 68 85 51 68 85 51 68 85 51 68 85
51 68 85 51 68 85 51 68 85 51 68 85 85 102 119 85 102 119 85 102 119 85 102 119 85 102 119 85 102 119 85 102 119 85 102 119 85 102 119 85 102 119 85 102 119 85 102 119 85 102 119 85 102 119 85 102 119 85 102 119 85 102 119 85 102 119 85 102 119 85 102 119 85 102 119 85 102 119 85 102 119 85 102 119 85 102 119 85 102 119 85 102 119 85 102 119 85 102 119 85 102 119 85 102 119 85 102 119 85 102 119 85 102 119 85 102 119 85 102 119 85 102 119 85 102 119 85 102 119 85 102 119 85 102 119 85 102 119 85 102 119 85 102 119 85 102 119 85 102 119 85 102 119 85 102 119 85 102 119 85 102 119 85 102 119 85 102 119 85 102 119 85 102 119 85 102 119 85 102 119 85 102 119 85 102 119 85 102 119 85 102 119 85 102 119 85 102 119 85 102 119 85 102 119 85 102 119 85 102 119 85 102 119 85 102 119 85 102 119 85 102 119 51 68 85 51 68 85 51 68 85 51 68 85 0 51 102 0 51 102 0 51 102 0 51 102 0 51 102 0 51 102 0 51 102 0 51 102 0 51 102 0 51 102 17 17 34 17 17 34 17 17 34 17 17 34 17 17 34 17 17 34 17 17 34 17 17 34 17 17 34 17 17 34 17 17 34 17 17 34 17 17 34 17 17 34 17 17 34 17 17 34 17 17 34 17 17 34 17 17 34 17 17 34 17 17 34 17 17 34 17 17 34 17 17 34 17 17 34 17 17 34 17 17 34 17 17 34 17 17 34 17 17 34 17 17 34 17 17 34 17 17 34 17 17 34 17 17 34 17 17 34 17 17 34 17 17 34 17 17 34 17 17 34 17 17 34 17 17 34 17 17 34 17 17 34 17 17 34 17 17 34 17 17 34 17 17 34 17 17 34 17 17 34 17 17 34 17 17 34 17 17 34 17 17 34 17 17 34 17 17 34 17 17 34 17 17 34 17 17 34 17 17 34 17 17 34 17 17 34 17 17 34 17 17 34 17 17 34 17 17 34 17 17 34 17 17 34 17 17 34 17 17 34 17 17 34 17 17 34 17 17 34 17 17 34 17 17 34 17 17 34 17 17 34 17 17 34 17 17 34 17 17 34 17 17 34 17 17 34 17 17 34 17 17 34 17 17 34 17 17 34 17 17 34 17 17 34 17 17 34 17 17 34 17 17 34 17 17 34 17 17 34 17 17 34 17 17 34 17 17 34 17 17 34 17 17 34 17 17 34 17 17 34 17 17 34 17 17 34 17 17 34 17 17 34 17 17 34 17 17 34 17 17 34 17 17 34 17 17 34 17 17 34 17 17 34 17 17 34 17 17 34 17 17 34 17 17 34 17 17 34 17 17 34 17 17 34 17 17 34 17 17 34 17 17 34 17 17 34 17 17 34 17 17 34 17 17 34 17 17 34 17 17 34 17 17 34 17 17 34 17 17 34 17 17 34 17 17 34 17 17 34 17 17 34 17 17 34 17 17 34 17 17 34 17 17 34 17 17 34 17 17 34 17 17 34 17 17 34 17 17 34 17 17 34 17 17 34 17 17 34 17 17 34 17 17 34 17 17 34 17 17 34 51 68 85 51 68 85 51 68 85 51 68 85 51 68 85 51 68 85 51 68 85 51 68 85 51 68 85 51 68 85 51 68 85 51 68 85 51 68 85 51 68 85 51 68 85 51 68 85 51 68 85 51 68 85 51 68 85 51 68 85 51 68 85 51 68 85 51 68 85 51 68 85 51 68 85 51 68 85 51 68 85 51 68 85 51 68 85 51 68 85 51 68 85 51 68 85 51 68 85 51 68 85 51 68 85 51 68 85 51 68 85 51 68 85 51 68 85 51 68 85 51 68 85 51 68 85 51 68 85 51 68 85 51 68 85 51 68 85 51 68 85 51 68 85 51 68 85 51 68 85 51 68 85 51 68 85 51 68 85 51 68 85 51 68 85 51 68 85 51 68 85 51 68 85 51 68 85 51 68 85 51 68 85 51 68 85 51 68 85 51 68 85 51 68 85 51 68 85 51 68 85 51 68 85 51 68 85 51 68 85 51 68 85 51 68 85 51 68 85 51 68 85 51 68 85 51 68 85 51 68 85 51 68 85 51 68 85 51 68 85 51 68 85 51 68 85
51 68 85 51 68 85 51 68 85 51 68 85 85 102 119 85 102 119 85 102 119 85 102 119 85 102 119 85 102 119 85 102 119 85 102 119 85 102 119 85 102 119 85 102 119 85 102 119 85 102 119 85 102 119 85 102 119 85 102 119 85 102 119 85 102 119 85 102 119 85 102 119 85 102 119 85 102 119 85 102 119 85 102 119 85 102 119 85 102 119 85 102 119 85 102 119 85 102 119 85 102 119 85 102 119 85 102 119 85 102 119 85 102 119 85 102 119 85 102 119 85 102 119 85 102 119 85 102 119 85 102 119 85 102 119 85 102 119 85 102 119 85 102 119 85 102 119 85 102 119 85 102 119 85 102 119 85 102 119 85 102 119 85 102 119 85 102 119 85 102 119 85 102 119 85 102 119 85 102 119 85 102 119 85 102 119 85 102 119 85 102 119 85 102 119 85 102 119 85 102 119 85 102 119 85 102 119 85 102 119 85 102 119 85 102 119 85 102 119 85 102 119 51 68 85 51 68 85 51 68 85 51 68 85 0 51 102 0 51 102 0 170 221 0 170 221 0 170 221 0 170 221 0 170 221 0 170 221 0 51 102 0 51 102 17 17 34 17 17 34 17 17 34 17 17 34 17 17 34 17 17 34 17 17 34 17 17 34 17 17 34 17 17 34 17 17 34 17 17 34 17 17 34 17 17 34 17 17 34 17 17 34 17 17 34 17 17 34 17 17 34 17 17 34 17 17 34 17 17 34 17 17 34 17 17 34 17 17 34 17 17 34 17 17 34 17 17 34 17 17 34 17 17 34 17 17 34 17 17 34 17 17 34 17 17 34 17 17 34 17 17 34 17 17 34 17 17 34 17 17 34 17 17 34 17 17 34 17 17 34 17 17 34 17 17 34 17 17 34 17 17 34 17 17 34 17 17 34 17 17 34 17 17 34 17 17 34 17 17 34 17 17 34 17 17 34 17 17 34 17 17 34 17 17 34 17 17 34 17 17 34 17 17 34 17 17 34 17 17 34 17 17 34 17 17 34 17 17 34 17 17 34 17 17 34 17 17 34 17 17 34 17 17 34 17 17 34 17 17 34 17 17 34 17 17 34 17 17 34 17 17 34 17 17 34 17 17 34 17 17 34 17 17 34 17 17 34 17 17 34 17 17 34 17 17 34 17 17 34 17 17 34 17 17 34 17 17 34 17 17 34 17 17 34 17 17 34 17 17 34 17 17 34 17 17 34 17 17 34 17 17 34 17 17 34 17 17 34 17 17 34 17 17 34 17 17 34 17 17 34 17 17 34 17 17 34 17 17 34 17 17 34 17 17 34 17 17 34 17 17 34 17 17 34 17 17 34 17 17 34 17 17 34 17 17 34 17 17 34 17 17 34 17 17 34 17 17 34 17 17 34 17 17 34 17 17 34 17 17 34 17 17 34 17 17 34 17 17 34 17 17 34 17 17 34 17 17 34 17 17 34 17 17 34 17 17 34 17 17 34 17 17 34 17 17 34 17 17 34 17 17 34 17 17 34 17 17 34 17 17 34 17 17 34 17 17 34 17 17 34 17 17 34 17 17 34 17 17 34 17 17 34 17 17 34 17 17 34 17 17 34 17 17 34 51 68 85 51 68 85 51 68 85 51 68 85 51 68 85 51 68 85 51 68 85 51 68 85 51 68 85 51 68 85 51 68 85 51 68 85 51 68 85 51 68 85 51 68 85 51 68 85 51 68 85 51 68 85 51 68 85 51 68 85 51 68 85 51 68 85 51 68 85 51 68 85 51 68 85 51 68 85 51 68 85 51 68 85 51 68 85 51 68 85 51 68 85 51 68 85 51 68 85 51 68 85 51 68 85 51 68 85 51 68 85 51 68 85 51 68 85 51 68 85 51 68 85 51 68 85 51 68 85 51 68 85 51 68 85 51 68 85 51 68 85 51 68 85 51 68 85 51 68 85 51 68 85 51 68 85 51 68 85 51 68 85 51 68 85 51 68 85 51 68 85 51 68 85 51 68 85 51 68 85 51 68 85 51 68 85 51 68 85 51 68 85 51 68 85 51 68 85 51 68 85 51 68 85 51 68 85 51 68 85 51 68 85 51 68 85 51 68 85 51 68 85 51 68 85 51 68 85 51 68 85 51 68 85 51 68 85 51 68 85 51 68 85 51 68 85
51 68 85 51 68 85 51 68 85 51 68 85 85 102 119 85 102 119 85 102 119 85 102 119 85 102 119 85 102 119 85 102 119 85 102 119 85 102 119 85 102 119 85 102 119 85 102 119 85 102 119 85 102 119 85 102 119 85 102 119 85 102 119 85 102 119 85 102 119 85 102 119 85 102 119 85 102 119 85 102 119 85 102 119 85 102 119 85 102 119 85 102 119 85 102 119 85 102 119 85 102 119 85 102 119 85 102 119 85 102 119 85 102 119 85 102 119 85 102 119 85 102 119 85 102 119 85 102 119 85 102 119 85 102 119 85 102 119 85 102 119 85 102 119 85 102 119 85 102 119 85 102 119 85 102 119 85 102 119 85 102 119 85 102 119 85 102 119 85 102 119 85 102 119 85 102 119 85 102 119 85 102 119 85 102 119 85 102 119 85 102 119 85 102 119 85 102 119 85 102 119 85 102 119 85 102 119 85 102 119 85 102 119 85 102 119 85 102 119 85 102 119 51 68 85 51 68 85 51 68 85 51 68 85 0 51 102 0 51 102 0 170 221 0 170 221 0 170 221 0 170 221 0 170 221 0 170 221 0 51 102 0 51 102 17 17 34 17 17 34 17 17 34 17 17 34 17 17 34 17 17 34 17 17 34 17 17 34 17 17 34 17 17 34 17 17 34 17 17 34 17 17 34 17 17 34 17 17 34 17 17 34 17 17 34 17 17 34 17 17 34 17 17 34 17 17 34 17 17 34 17 17 34 17 17 34 17 17 34 17 17 34 17 17 34 17 17 34 17 17 34 17 17 34 17 17 34 17 17 34 17 17 34 17 17 34 17 17 34 17 17 34 17 17 34 17 17 34 17 17 34 17 17 34 17 17 34 17 17 34 17 17 34 17 17 34 17 17 34 17 17 34 17 17 34 17 17 34 17 17 34 17 17 34 17 17 34 17 17 34 17 17 34 17 17 34 17 17 34 17 17 34 17 17 34 17 17 34 17 17 34 17 17 34 17 17 34 17 17 34 17 17 34 17 17 34 17 17 34 17 17 34 17 17 34 17 17 34 17 17 34 17 17 34 17 17 34 17 17 34 17 17 34 17 17 34 17 17 34 17 17 34 17 17 34 17 17 34 17 17 34 17 17 34 17 17 34 17 17 34 17 17 34 17 17 34 17 17 34 17 17 34 17 17 34 17 17 34 17 17 34 17 17 34 17 17 34 17 17 34 17 17 34 17 17 34 17 17 34 17 17 34 17 17 34 17 17 34 17 17 34 17 17 34 17 17 34 17 17 34 17 17 34 17 17 34 17 17 34 17 17 34 17 17 34 17 17 34 17 17 34 17 17 34 17 17 34 17 17 34 17 17 34 17 17 34 17 17 34 17 17 34 17 17 34 17 17 34 17 17 34 17 17 34 17 17 34 17 17 34 17 17 34 17 17 34 17 17 34 17 17 34 17 17 34 17 17 34 17 17 34 17 17 34 17 17 34 17 17 34 17 17 34 17 17 34 17 17 34 17 17 34 17 17 34 17 17 34 17 17 34 17 17 34 17 17 34 17 17 34 17 17 34 17 17 34 17 17 34 17 17 34 17 17 34 17 17 34 17 17 34 17 17 34 51 68 85 51 68 85 51 68 85 51 68 85 51 68 85 51 68 85 51 68 85 51 68 85 85 102 119 85 102 119 85 102 119 85 102 119 85 102 119 85 102 119 85 102 119 85 102 119 85 102 119 85 102 119 85 102 119 85 102 119 85 102 119 85 102 119 85 102 119 85 102 119 85 102 119 85 102 119 85 102 119 85 102 119 85 102 119 85 102 119 85 102 119 85 102 119 85 102 119 85 102 119 85 102 119 85 102 119 85 102 119 85 102 119 85 102 119 85 102 119 85 102 119 85 102 119 85 102 119 85 102 119 85 102 119 85 102 119 85 102 119 85 102 119 85 102 119 85 102 119 85 102 119 85 102 119 85 102 119 85 102 119 85 102 119 85 102 119 85 102 119 85 102 119 85 102 119 85 102 119 85 102 119 85 102 119 85 102 119 85 102 119 85 102 119 85 102 119 85 102 119 85 102 119 85 102 119 85 102 119 85 102 119 85 102 119 85 102 119 85 102 119 85 102 119 85 102 119 85 102 119 85 102 119 51 68 85 51 68 85 51 68 85 51 68 85
51 68 85 51 68 85 51 68 85 51 68 85 85 102 119 85 102 119 85 102 119 85 102 119 85 102 119 85 102 119 85 102 119 85 102 119 85 102 119 85 102 119 85 102 119 85 102 119 85 102 119 85 102 119 85 102 119 85 102 119 85 102 119 85 102 119 85 102 119 85 102 119 85 102 119 85 102 119 85 102 119 85 102 119 85 102 119 85 102 119 85 102 119 85 102 119 85 102 119 85 102 119 85 102 119 85 102 119 85 102 119 85 102 119 85 102 119 85 102 119 85 102 119 85 102 119 85 102 119 85 102 119 85 102 119 85 102 119 85 102 119 85 102 119 85 102 119 85 102 119 85 102 119 85 102 119 85 102 119 85 102 119 85 102 119 85 102 119 85 102 119 85 102 119 85 102 119 85 102 119 85 102 119 85 102 119 85 102 119 85 102 119 85 102 119 85 102 119 85 102 119 85 102 119 85 102 119 85 102 119 85 102 119 85 102 119 85 102 119 85 102 119 51 68 85 51 68 85 51 68 85 51 68 85 0 51 102 0 51 102 0 51 102 0 51 102 0 51 102 0 51 102 0 51 102 0 51 102 0 51 102 0 51 102 17 17 34 17 17 34 17 17 34 17 17 34 17 17 34 17 17 34 17 17 34 17 17 34 17 17 34 17 17 34 17 17 34 17 17 34 17 17 34 17 17 34 17 17 34 17 17 34 17 17 34 17 17 34 17 17 34 17 17 34 17 17 34 17 17 34 17 17 34 17 17 34 17 17 34 17 17 34 17 17 34 17 17 34 17 17 34 17 17 34 17 17 34 17 17 34 17 17 34 17 17 34 17 17 34 17 17 34 17 17 34 17 17 34 17 17 34 17 17 34 17 17 34 17 17 34 17 17 34 17 17 34 17 17 34 17 17 34 17 17 34 17 17 34 17 17 34 17 17 34 17 17 34 17 17 34 17 17 34 17 17 34 17 17 34 17 17 34 17 17 34 17 17 34 17 17 34 17 17 34 17 17 34 17 17 34 17 17 34 17 17 34 17 17 34 17 17 34 17 17 34 17 17 34 17 17 34 17 17 34 17 17 34 17 17 34 17 17 34 17 17 34 17 17 34 17 17 34 17 17 34 17 17 34 17 17 34 17 17 34 17 17 34 17 17 34 17 17 34 17 17 34 17 17 34 17 17 34 17 17 34 17 17 34 17 17 34 17 17 34 17 17 34 17 17 34 17 17 34 17 17 34 17 17 34 17 17 34 17 17 34 17 17 34 17 17 34 17 17 34 17 17 34 17 17 34 17 17 34 17 17 34 17 17 34 17 17 34 17 17 34 17 17 34 17 17 34 17 17 34 17 17 34 17 17 34 17 17 34 17 17 34 17 17 34 17 17 34 17 17 34 17 17 34 17 17 34 17 17 34 17 17 34 17 17 34 17 17 34 17 17 34 17 17 34 17 17 34 17 17 34 17 17 34 17 17 34 17 17 34 17 17 34 17 17 34 17 17 34 17 17 34 17 17 34 17 17 34 17 17 34 17 17 34 17 17 34 17 17 34 17 17 34 17 17 34 17 17 34 17 17 34 17 17 34 17 17 34 17 17 34 17 17 34 17 17 34 17 17 34 51 68 85 51 68 85 51 68 85 51 68 85 51 68 85 51 68 85 51 68 85 51 68 85 85 102 119 85 102 119 85 102 119 85 102 119 85 102 119 85 102 119 85 102 119 85 102 119 85 102 119 85 102 119 85 102 119 85 102 119 85 102 119 85 102 119 85 102 119 85 102 119 85 102 119 85 102 119 85 102 119 85 102 119 85 102 119 85 102 119 85 102 119 85 102 119 85 102 119 85 102 119 85 102 119 85 102 119 85 102 119 85 102 119 85 102 119 85 102 119 85 102 119 85 102 119 85 102 119 85 102 119 85 102 119 85 102 119 85 102 119 85 102 119 85 102 119 85 102 119 85 102 119 85 102 119 85 102 119 85 102 119 85 102 119 85 102 119 85 102 119 85 102 119 85 102 119 85 102 119 85 102 119 85 102 119 85 102 119 85 102 119 85 102 119 85 102 119 85 102 119 85 102 119 85 102 119 85 102 119 85 102 119 85 102 119 85 102 119 85 102 119 85 102 119 85 102 119 85 102 119 85 102 119 51 68 85 51 68 85 51 68 85 51 68 85
51 68 85 51 68 85 51 68 85 51 68 85 85 102 119 85 102 119 85 102 119 85 102 119 85 102 119 85 102 119 85 102 119 85 102 119 85 102 119 85 102 119 85 102 119 85 102 119 85 102 119 85 102 119 85 102 119 85 102 119 85 102 119 85 102 119 85 102 119 85 102 119 85 102 119 85 102 119 85 102 119 85 102 119 85 102 119 85 102 119 85 102 119 85 102 119 85 102 119 85 102 119 85 102 119 85 102 119 85 102 119 85 102 119 85 102 119 85 102 119 85 102 119 85 102 119 85 102 119 85 102 119 85 102 119 85 102 119 85 102 119 85 102 119 85 102 119 85 102 119 85 102 119 85 102 119 85 102 119 85 102 119 85 102 119 85 102 119 85 102 119 85 102 119 85 102 119 85 102 119 85 102 119 85 102 119 85 102 119 85 102 119 85 102 119 85 102 119 85 102 119 85 102 119 85 102 119 85 102 119 85 102 119 85 102 119 85 102 119 85 102 119 51 68 85 51 68 85 51 68 85 51 68 85 51 68 85 51 68 85 51 68 85 51 68 85 17 17 34 17 17 34 17 17 34 17 17 34 17 17 34 17 17 34 17 17 34 17 17 34 17 17 34 17 17 34 17 17 34 17 17 34 17 17 34 17 17 34 17 17 34 17 17 34 17 17 34 17 17 34 17 17 34 17 17 34 17 17 34 17 17 34 17 17 34 17 17 34 17 17 34 17 17 34 17 17 34 17 17 34 17 17 34 17 17 34 17 17 34 17 17 34 17 17 34 17 17 34 17 17 34 17 17 34 17 17 34 17 17 34 17 17 34 17 17 34 17 17 34 17 17 34 17 17 34 17 17 34 17 17 34 17 17 34 17 17 34 17 17 34 17 17 34 17 17 34 17 17 34 17 17 34 17 17 34 17 17 34 17 17 34 17 17 34 17 17 34 17 17 34 17 17 34 17 17 34 17 17 34 17 17 34 17 17 34 17 17 34 17 17 34 17 17 34 17 17 34 17 17 34 17 17 34 17 17 34 17 17 34 17 17 34 17 17 34 17 17 34 17 17 34 17 17 34 17 17 34 17 17 34 17 17 34 17 17 34 17 17 34 17 17 34 17 17 34 17 17 34 17 17 34 17 17 34 17 17 34 17 17 34 17 17 34 17 17 34 17 17 34 17 17 34 17 17 34 17 17 34 17 17 34 17 17 34 17 17 34 17 17 34 17 17 34 17 17 34 17 17 34 17 17 34 17 17 34 17 17 34 17 17 34 17 17 34 17 17 34 17 17 34 17 17 34 17 17 34 17 17 34 17 17 34 17 17 34 17 17 34 17 17 34 17 17 34 17 17 34 17 17 34 17 17 34 17 17 34 17 17 34 17 17 34 17 17 34 17 17 34 17 17 34 17 17 34 17 17 34 17 17 34 17 17 34 17 17 34 17 17 34 17 17 34 17 17 34 17 17 34 17 17 34 17 17 34 17 17 34 17 17 34 17 17 34 17 17 34 17 17 34 17 17 34 17 17 34 17 17 34 17 17 34 17 17 34 17 17 34 17 17 34 17 17 34 17 17 34 17 17 34 17 17 34 17 17 34 17 17 34 17 17 34 17 17 34 51 68 85 51 68 85 51 68 85 51 68 85 51 68 85 51 68 85 51 68 85 51 68 85 85 102 119 85 102 119 85 102 119 85 102 119 85 102 119 85 102 119 85 102 119 85 102 119 85 102 119 85 102 119 85 102 119 85 102 119 85 102 119 85 102 119 85 102 119 85 102 119 85 102 119 85 102 119 85 102 119 85 102 119 85 102 119 85 102 119 85 102 119 85 102 119 85 102 119 85 102 119 85 102 119 85 102 119 85 102 119 85 102 119 85 102 119 85 102 119 85 102 119 85 102 119 85 102 119 85 102 119 85 102 119 85 102 119 85 102 119 85 102 119 85 102 119 85 102 119 85 102 119 85 102 119 85 102 119 85 102 119 85 102 119 85 102 119 85 102 119 85 102 119 85 102 119 85 102 119 85 102 119 85 102 119 85 102 119 85 102 119 85 102 119 85 102 119 85 102 119 85 102 119 85 102 119 85 102 119 85 102 119 85 102 119 85 102 119 85 102 119 85 102 119 85 102 119 85 102 119 85 102 119 51 68 85 51 68 85 51 68 85 51 68 85
51 68 85 51 68 85 51 68 85 51 68 85 85 102 119 85 102 119 85 102 119 85 102 119 85 102 119 85 102 119 85 102 119 85 102 119 85 102 119 85 102 119 85 102 119 85 102 119 85 102 119 85 102 119 85 102 119 85 102 119 85 102 119 85 102 119 85 102 119 85 102 119 85 102 119 85 102 119 85 102 119 85 102 119 85 102 119 85 102 119 85 102 119 85 102 119 85 102 119 85 102 119 85 102 119 85 102 119 85 102 119 85 102 119 85 102 119 85 102 119 85 102 119 85 102 119 85 102 119 85 102 119 85 102 119 85 102 119 85 102 119 85 102 119 85 102 119 85 102 119 85 102 119 85 102 119 85 102 119 85 102 119 85 102 119 85 102 119 85 102 119 85 102 119 85 102 119 85 102 119 85 102 119 85 102 119 85 102 119 85 102 119 85 102 119 85 102 119 85 102 119 85 102 119 85 102 119 85 102 119 85 102 119 85 102 119 85 102 119 85 102 119 51 68 85 51 68 85 51 68 85 51 68 85 51 68 85 51 68 85 51 68 85 51 68 85 17 17 34 17 17 34 17 17 34 17 17 34 17 17 34 17 17 34 17 17 34 17 17 34 17 17 34 17 17 34 17 17 34 17 17 34 17 17 34 17 17 34 17 17 34 17 17 34 17 17 34 17 17 34 17 17 34 17 17 34 17 17 34 17 17 34 17 17 34 17 17 34 17 17 34 17 17 34 17 17 34 17 17 34 17 17 34 17 17 34 17 17 34 17 17 34 17 17 34 17 17 34 17 17 34 17 17 34 17 17 34 17 17 34 17 17 34 17 17 34 17 17 34 17 17 34 17 17 34 17 17 34 17 17 34 17 17 34 17 17 34 17 17 34 17 17 34 17 17 34 17 17 34 17 17 34 17 17 34 17 17 34 17 17 34 17 17 34 17 17 34 17 17 34 17 17 34 17 17 34 17 17 34 17 17 34 17 17 34 17 17 34 17 17 34 17 17 34 17 17 34 17 17 34 17 17 34 17 17 34 17 17 34 17 17 34 17 17 34 17 17 34 17 17 34 17 17 34 17 17 34 17 17 34 17 17 34 17 17 34 17 17 34 17 17 34 17 17 34 17 17 34 17 17 34 17 17 34 17 17 34 17 17 34 17 17 34 17 17 34 17 17 34 17 17 34 17 17 34 17 17 34 17 17 34 17 17 34 17 17 34 17 17 34 17 17 34 17 17 34 17 17 34 17 17 34 17 17 34 17 17 34 17 17 34 17 17 34 17 17 34 17 17 34 17 17 34 17 17 34 17 17 34 17 17 34 17 17 34 17 17 34 17 17 34 17 17 34 17 17 34 17 17 34 17 17 34 17 17 34 17 17 34 17 17 34 17 17 34 17 17 34 17 17 34 17 17 34 17 17 34 17 17 34 17 17 34 17 17 34 17 17 34 17 17 34 17 17 34 17 17 34 17 17 34 17 17 34 17 17 34 17 17 34 17 17 34 17 17 34 17 17 34 17 17 34 17 17 34 17 17 34 17 17 34 17 17 34 17 17 34 17 17 34 17 17 34 17 17 34 17 17 34 17 17 34 17 17 34 17 17 34 17 17 34 17 17 34 51 68 85 51 68 85 51 68 85 51 68 85 51 68 85 51 68 85 51 68 85 51 68 85 85 102 119 85 102 119 85 102 119 85 102 119 85 102 119 85 102 119 85 102 119 85 102 119 85 102 119 85 102 119 85 102 119 85 102 119 85 102 119 85 102 119 85 102 119 85 102 119 85 102 119 85 102 119 85 102 119 85 102 119 85 102 119 85 102 119 85 102 119 85 102 119 85 102 119 85 102 119 85 102 119 85 102 119 85 102 119 85 102 119 85 102 119 85 102 119 85 102 119 85 102 119 85 102 119 85 102 119 85 102 119 85 102 119 85 102 119 85 102 119 85 102 119 85 102 119 85 102 119 85 102 119 85 102 119 85 102 119 85 102 119 85 102 119 85 102 119 85 102 119 85 102 119 85 102 119 85 102 119 85 102 119 85 102 119 85 102 119 85 102 119 85 102 119 85 102 119 85 102 119 85 102 119 85 102 119 85 102 119 85 102 119 85 102 119 85 102 119 85 102 119 85 102 119 85 102 119 85 102 119 51 68 85 51 68 85 51 68 85 51 68 85
51 68 85 51 68 85 51 68 85 51 68 85 85 102 119 85 102 119 85 102 119 85 102 119 85 102 119 85 102 119 85 102 119 85 102 119 85 102 119 85 102 119 85 102 119 85 102 119 85 102 119 85 102 119 85 102 119 85 102 119 85 102 119 85 102 119 85 102 119 85 102 119 85 102 119 85 102 119 85 102 119 85 102 119 85 102 119 85 102 119 85 102 119 85 102 119 85 102 119 85 102 119 85 102 119 85 102 119 85 102 119 85 102 119 85 102 119 85 102 119 85 102 119 85 102 119 85 102 119 85 102 119 85 102 119 85 102 119 85 102 119 85 102 119 85 102 119 85 102 119 85 102 119 85 102 119 85 102 119 85 102 119 85 102 119 85 102 119 85 102 119 85 102 119 85 102 119 85 102 119 85 102 119 85 102 119 85 102 119 85 102 119 85 102 119 85 102 119 85 102 119 85 102 119 85 102 119 85 102 119 85 102 119 85 102 119 85 102 119 85 102 119 51 68 85 51 68 85 51 68 85 51 68 85 51 68 85 51 68 85 51 68 85 51 68 85 17 17 34 17 17 34 17 17 34 17 17 34 17 17 34 17 17 34 17 17 34 17 17 34 17 17 34 17 17 34 17 17 34 17 17 34 17 17 34 17 17 34 17 17 34 17 17 34 51 68 85 51 68 85 51 68 85 51 68 85 51 68 85 51 68 85 51 68 85 51 68 85 51 68 85 51 68 85 51 68 85 51 68 85 51 68 85 51 68 85 17 17 34 17 17 34 17 17 34 17 17 34 17 17 34 17 17 34 17 17 34 17 17 34 17 17 34 17 17 34 17 17 34 17 17 34 17 17 34 17 17 34 17 17 34 17 17 34 17 17 34 17 17 34 17 17 34 17 17 34 17 17 34 17 17 34 17 17 34 17 17 34 17 17 34 17 17 34 17 17 34 17 17 34 17 17 34 17 17 34 17 17 34 17 17 34 17 17 34 17 17 34 17 17 34 17 17 34 17 17 34 17 17 34 17 17 34 17 17 34 17 17 34 17 17 34 17 17 34 17 17 34 17 17 34 17 17 34 17 17 34 17 17 34 17 17 34 17 17 34 17 17 34 17 17 34 17 17 34 17 17 34 17 17 34 17 17 34 17 17 34 17 17 34 17 17 34 17 17 34 17 17 34 17 17 34 17 17 34 17 17 34 17 17 34 17 17 34 17 17 34 17 17 34 17 17 34 17 17 34 17 17 34 17 17 34 17 17 34 17 17 34 17 17 34 17 17 34 17 17 34 17 17 34 17 17 34 17 17 34 17 17 34 17 17 34 17 17 34 17 17 34 17 17 34 17 17 34 17 17 34 17 17 34 17 17 34 17 17 34 17 17 34 17 17 34 17 17 34 17 17 34 17 17 34 17 17 34 17 17 34 17 17 34 17 17 34 17 17 34 17 17 34 17 17 34 17 17 34 17 17 34 17 17 34 17 17 34 17 17 34 17 17 34 17 17 34 17 17 34 17 17 34 17 17 34 17 17 34 17 17 34 17 17 34 17 17 34 17 17 34 17 17 34 17 17 34 17 17 34 17 17 34 17 17 34 17 17 34 17 17 34 17 17 34 17 17 34 51 68 85 51 68 85 51 68 85 51 68 85 51 68 85 51 68 85 51 68 85 51 68 85 85 102 119 85 102 119 85 102 119 85 102 119 85 102 119 85 102 119 85 102 119 85 102 119 85 102 119 85 102 119 85 102 119 85 102 119 85 102 119 85 102 119 85 102 119 85 102 119 85 102 119 85 102 119 85 102 119 85 102 119 85 102 119 85 102 119 85 102 119 85 102 119 85 102 119 85 102 119 85 102 119 85 102 119 85 102 119 85 102 119 85 102 119 85 102 119 85 102 119 85 102 119 85 102 119 85 102 119 85 102 119 85 102 119 85 102 119 85 102 119 85 102 119 85 102 119 85 102 119 85 102 119 85 102 119 85 102 119 85 102 119 85 102 119 85 102 119 85 102 119 85 102 119 85 102 119 85 102 119 85 102 119 85 102 119 85 102 119 85 102 119 85 102 119 85 102 119 85 102 119 85 102 119 85 102 119 85 102 119 85 102 119 85 102 119 85 102 119 85 102 119 85 102 119 85 102 119 85 102 119 51 68 85 51 68 85 51 68 85 51 68 85
51 68 85 51 68 85 51 68 85 51 68 85 85 102 119 85 102 119 85 102 119 85 102 119 85 102 119 85 102 119 85 102 119 85 102 119 85 102 119 85 102 119 85 102 119 85 102 119 85 102 119 85 102 119 85 102 119 85 102 119 85 102 119 85 102 119 85 102 119 85 102 119 85 102 119 85 102 119 85 102 119 85 102 119 85 102 119 85 102 119 85 102 119 85 102 119 85 102 119 85 102 119 85 102 119 85 102 119 85 102 119 85 102 119 85 102 119 85 102 119 85 102 119 85 102 119 85 102 119 85 102 119 85 102 119 85 102 119 85 102 119 85 102 119 85 102 119 85 102 119 85 102 119 85 102 119 85 102 119 85 102 119 85 102 119 85 102 119 85 102 119 85 102 119 85 102 119 85 102 119 85 102 119 85 102 119 85 102 119 85 102 119 85 102 119 85 102 119 85 102 119 85 102 119 85 102 119 85 102 119 85 102 119 85 102 119 85 102 119 85 102 119 51 68 85 51 68 85 51 68 85 51 68 85 51 68 85 51 68 85 51 68 85 51 68 85 17 17 34 17 17 34 17 17 34 17 17 34 17 17 34 17 17 34 17 17 34 17 17 34 17 17 34 17 17 34 17 17 34 17 17 34 17 17 34 17 17 34 17 17 34 17 17 34 51 68 85 51 68 85 51 68 85 51 68 85 51 68 85 51 68 85 51 68 85 51 68 85 51 68 85 51 68 85 51 68 85 51 68 85 51 68 85 51 68 85 17 17 34 17 17 34 17 17 34 17 17 34 17 17 34 17 17 34 17 17 34 17 17 34 17 17 34 17 17 34 17 17 34 17 17 34 17 17 34 17 17 34 17 17 34 17 17 34 17 17 34 17 17 34 17 17 34 17 17 34 17 17 34 17 17 34 17 17 34 17 17 34 17 17 34 17 17 34 17 17 34 17 17 34 17 17 34 17 17 34 17 17 34 17 17 34 17 17 34 17 17 34 17 17 34 17 17 34 17 17 34 17 17 34 17 17 34 17 17 34 17 17 34 17 17 34 17 17 34 17 17 34 17 17 34 17 17 34 17 17 34 17 17 34 17 17 34 17 17 34 17 17 34 17 17 34 17 17 34 17 17 34 17 17 34 17 17 34 17 17 34 17 17 34 17 17 34 17 17 34 17 17 34 17 17 34 17 17 34 17 17 34 17 17 34 17 17 34 17 17 34 17 17 34 17 17 34 17 17 34 17 17 34 17 17 34 17 17 34 17 17 34 17 17 34 17 17 34 17 17 34 17 17 34 17 17 34 17 17 34 17 17 34 17 17 34 17 17 34 17 17 34 17 17 34 17 17 34 17 17 34 17 17 34 17 17 34 17 17 34 17 17 34 17 17 34 17 17 34 17 17 34 17 17 34 17 17 34 17 17 34 17 17 34 17 17 34 17 17 34 17 17 34 17 17 34 17 17 34 17 17 34 17 17 34 17 17 34 17 17 34 17 17 34 17 17 34 17 17 34 17 17 34 17 17 34 17 17 34 17 17 34 17 17 34 17 17 34 17 17 34 17 17 34 17 17 34 17 17 34 17 17 34 17 17 34 17 17 34 17 17 34 17 17 34 17 17 34 51 68 85 51 68 85 51 68 85 51 68 85 51 68 85 51 68 85 51 68 85 51 68 85 85 102 119 85 102 119 85 102 119 85 102 119 85 102 119 85 102 119 85 102 119 85 102 119 85 102 119 85 102 119 85 102 119 85 102 119 85 102 119 85 102 119 85 102 119 85 102 119 85 102 119 85 102 119 85 102 119 85 102 119 85 102 119 85 102 119 85 102 119 85 102 119 85 102 119 85 102 119 85 102 119 85 102 119 85 102 119 85 102 119 85 102 119 85 102 119 85 102 119 85 102 119 85 102 119 85 102 119 85 102 119 85 102 119 85 102 119 85 102 119 85 102 119 85 102 119 85 102 119 85 102 119 85 102 119 85 102 119 85 102 119 85 102 119 85 102 119 85 102 119 85 102 119 85 102 119 85 102 119 85 102 119 85 102 119 85 102 119 85 102 119 85 102 119 85 102 119 85 102 119 85 102 119 85 102 119 85 102 119 85 102 119 85 102 119 85 102 119 85 102 119 85 102 119 85 102 119 85 102 119 51 68 85 51 68 85 51 68 85 51 68 85
51 68 85 51 68 85 51 68 85 51 68 85 85 102 119 85 102 119 85 102 119 85 102 119 85 102 119 85 102 119 85 102 119 85 102 119 85 102 119 85 102 119 85 102 119 85 102 119 85 102 119 85 102 119 85 102 119 85 102 119 85 102 119 85 102 119 85 102 119 85 102 119 85 102 119 85 102 119 85 102 119 85 102 119 85 102 119 85 102 119 85 102 119 85 102 119 85 102 119 85 102 119 85 102 119 85 102 119 85 102 119 85 102 119 85 102 119 85 102 119 85 102 119 85 102 119 85 102 119 85 102 119 85 102 119 85 102 119 85 102 119 85 102 119 85 102 119 85 102 119 85 102 119 85 102 119 85 102 119 85 102 119 85 102 119 85 102 119 85 102 119 85 102 119 85 102 119 85 102 119 85 102 119 85 102 119 85 102 119 85 102 119 85 102 119 85 102 119 85 102 119 85 102 119 85 102 119 85 102 119 85 102 119 85 102 119 85 102 119 85 102 119 51 68 85 51 68 85 51 68 85 51 68 85 51 68 85 51 68 85 51 68 85 51 68 85 17 17 34 17 17 34 17 17 34 17 17 34 17 17 34 17 17 34 17 17 34 17 17 34 17 17 34 17 17 34 17 17 34 17 17 34 17 17 34 17 17 34 17 17 34 17 17 34 51 68 85 51 68 85 51 68 85 51 68 85 51 68 85 51 68 85 51 68 85 51 68 85 51 68 85 51 68 85 51 68 85 51 68 85 51 68 85 51 68 85 17 17 34 17 17 34 17 17 34 17 17 34 17 17 34 17 17 34 17 17 34 17 17 34 17 17 34 17 17 34 17 17 34 17 17 34 17 17 34 17 17 34 17 17 34 17 17 34 17 17 34 17 17 34 17 17 34 17 17 34 17 17 34 17 17 34 17 17 34 17 17 34 17 17 34 17 17 34 17 17 34 17 17 34 17 17 34 17 17 34 17 17 34 17 17 34 17 17 34 17 17 34 17 17 34 17 17 34 17 17 34 17 17 34 17 17 34 17 17 34 17 17 34 17 17 34 17 17 34 17 17 34 17 17 34 17 17 34 17 17 34 17 17 34 17 17 34 17 17 34 17 17 34 17 17 34 17 17 34 17 17 34 17 17 34 17 17 34 17 17 34 17 17 34 17 17 34 17 17 34 17 17 34 17 17 34 17 17 34 17 17 34 17 17 34 17 17 34 17 17 34 17 17 34 17 17 34 17 17 34 17 17 34 17 17 34 17 17 34 17 17 34 17 17 34 17 17 34 17 17 34 17 17 34 17 17 34 17 17 34 17 17 34 17 17 34 17 17 34 17 17 34 17 17 34 17 17 34 17 17 34 17 17 34 17 17 34 17 17 34 17 17 34 17 17 34 17 17 34 17 17 34 17 17 34 17 17 34 17 17 34 17 17 34 17 17 34 17 17 34 17 17 34 17 17 34 17 17 34 17 17 34 17 17 34 17 17 34 17 17 34 17 17 34 17 17 34 17 17 34 17 17 34 17 17 34 17 17 34 17 17 34 17 17 34 17 17 34 17 17 34 17 17 34 17 17 34 17 17 34 0 51 102 0 51 102 0 51 102 0 51 102 0 51 102 0 51 102 0 51 102 0 51 102 0 51 102 0 51 102 51 68 85 51 68 85 51 68 85 51 68 85 85 102 119 85 102 119 85 102 119 85 102 119 85 102 119 85 102 119 85 102 119 85 102 119 85 102 119 85 102 119 85 102 119 85 102 119 85 102 119 85 102 119 85 102 119 85 102 119 85 102 119 85 102 119 85 102 119 85 102 119 85 102 119 85 102 119 85 102 119 85 102 119 85 102 119 85 102 119 85 102 119 85 102 119 85 102 119 85 102 119 85 102 119 85 102 119 85 102 119 85 102 119 85 102 119 85 102 119 85 102 119 85 102 119 85 102 119 85 102 119 85 102 119 85 102 119 85 102 119 85 102 119 85 102 119 85 102 119 85 102 119 85 102 119 85 102 119 85 102 119 85 102 119 85 102 119 85 102 119 85 102 119 85 102 119 85 102 119 85 102 119 85 102 119 85 102 119 85 102 119 85 102 119 85 102 119 85 102 119 85 102 119 85 102 119 85 102 119 85 102 119 85 102 119 85 102 119 85 102 119 51 68 85 51 68 85 51 68 85 51 68 85
51 68 85 51 68 85 51 68 85 51 68 85 85 102 119 85 102 119 85 102 119 85 102 119 85 102 119 85 102 119 85 102 119 85 102 119 85 102 119 85 102 119 85 102 119 85 102 119 85 102 119 85 102 119 85 102 119 85 102 119 85 102 119 85 102 119 85 102 119 85 102 119 85 102 119 85 102 119 85 102 119 85 102 119 85 102 119 85 102 119 85 102 119 85 102 119 85 102 119 85 102 119 85 102 119 85 102 119 85 102 119 85 102 119 85 102 119 85 102 119 85 102 119 85 102 119 85 102 119 85 102 119 85 102 119 85 102 119 85 102 119 85 102 119 85 102 119 85 102 119 85 102 119 85 102 119 85 102 119 85 102 119 85 102 119 85 102 119 85 102 119 85 102 119 85 102 119 85 102 119 85 102 119 85 102 119 85 102 119 85 102 119 85 102 119 85 102 119 85 102 119 85 102 119 85 102 119 85 102 119 85 102 119 85 102 119 85 102 119 85 102 119 51 68 85 51 68 85 51 68 85 51 68 85 51 68 85 51 68 85 51 68 85 51 68 85 17 17 34 17 17 34 17 17 34 17 17 34 17 17 34 17 17 34 17 17 34 17 17 34 17 17 34 17 17 34 17 17 34 17 17 34 17 17 34 17 17 34 17 17 34 17 17 34 51 68 85 51 68 85 51 68 85 51 68 85 51 68 85 51 68 85 51 68 85 51 68 85 51 68 85 51 68 85 51 68 85 51 68 85 51 68 85 51 68 85 17 17 34 17 17 34 17 17 34 17 17 34 17 17 34 17 17 34 17 17 34 17 17 34 17 17 34 17 17 34 17 17 34 17 17 34 17 17 34 17 17 34 17 17 34 17 17 34 17 17 34 17 17 34 17 17 34 17 17 34 17 17 34 17 17 34 17 17 34 17 17 34 17 17 34 17 17 34 17 17 34 17 17 34 17 17 34 17 17 34 17 17 34 17 17 34 17 17 34 17 17 34 17 17 34 17 17 34 17 17 34 17 17 34 17 17 34 17 17 34 17 17 34 17 17 34 17 17 34 17 17 34 17 17 34 17 17 34 17 17 34 17 17 34 17 17 34 17 17 34 17 17 34 17 17 34 17 17 34 17 17 34 17 17 34 17 17 34 17 17 34 17 17 34 17 17 34 17 17 34 17 17 34 17 17 34 17 17 34 17 17 34 17 17 34 17 17 34 17 17 34 17 17 34 17 17 34 17 17 34 17 17 34 17 17 34 17 17 34 17 17 34 17 17 34 17 17 34 17 17 34 17 17 34 17 17 34 17 17 34 17 17 34 17 17 34 17 17 34 17 17 34 17 17 34 17 17 34 17 17 34 17 17 34 17 17 34 17 17 34 17 17 34 17 17 34 17 17 34 17 17 34 17 17 34 17 17 34 17 17 34 17 17 34 17 17 34 17 17 34 17 17 34 17 17 34 17 17 34 17 17 34 17 17 34 17 17 34 17 17 34 17 17 34 17 17 34 17 17 34 17 17 34 17 17 34 17 17 34 17 17 34 17 17 34 17 17 34 17 17 34 17 17 34 17 17 34 17 17 34 0 51 102 0 51 102 0 170 221 0 170 221 0 170 221 0 170 221 0 170 221 0 170 221 0 51 102 0 51 102 51 68 85 51 68 85 51 68 85 51 68 85 85 102 119 85 102 119 85 102 119 85 102 119 85 102 119 85 102 119 85 102 119 85 102 119 85 102 119 85 102 119 85 102 119 85 102 119 85 102 119 85 102 119 85 102 119 85 102 119 85 102 119 85 102 119 85 102 119 85 102 119 85 102 119 85 102 119 85 102 119 85 102 119 85 102 119 85 102 119 85 102 119 85 102 119 85 102 119 85 102 119 85 102 119 85 102 119 85 102 119 85 102 119 85 102 119 85 102 119 85 102 119 85 102 119 85 102 119 85 102 119 85 102 119 85 102 119 85 102 119 85 102 119 85 102 119 85 102 119 85 102 119 85 102 119 85 102 119 85 102 119 85 102 119 85 102 119 85 102 119 85 102 119 85 102 119 85 102 119 85 102 119 85 102 119 85 102 119 85 102 119 85 102 119 85 102 119 85 102 119 85 102 119 85 102 119 85 102 119 85 102 119 85 102 119 85 102 119 85 102 119 51 68 85 51 68 85 51 68 85 51 68 85
51 68 85 51 68 85 51 68 85 51 68 85 85 102 119 85 102 119 85 102 119 85 102 119 85 102 119 85 102 119 85 102 119 85 102 119 85 102 119 85 102 119 85 102 119 85 102 119 85 102 119 85 102 119 85 102 119 85 102 119 85 102 119 85 102 119 85 102 119 85 102 119 85 102 119 85 102 119 85 102 119 85 102 119 85 102 119 85 102 119 85 102 119 85 102 119 85 102 119 85 102 119 85 102 119 85 102 119 85 102 119 85 102 119 85 102 119 85 102 119 85 102 119 85 102 119 85 102 119 85 102 119 85 102 119 85 102 119 85 102 119 85 102 119 85 102 119 85 102 119 85 102 119 85 102 119 85 102 119 85 102 119 85 102 119 85 102 119 85 102 119 85 102 119 85 102 119 85 102 119 85 102 119 85 102 119 85 102 119 85 102 119 85 102 119 85 102 119 85 102 119 85 102 119 85 102 119 85 102 119 85 102 119 85 102 119 85 102 119 85 102 119 51 68 85 51 68 85 51 68 85 51 68 85 51 68 85 51 68 85 51 68 85 51 68 85 17 17 34 17 17 34 17 17 34 17 17 34 17 17 34 17 17 34 17 17 34 17 17 34 17 17 34 17 17 34 17 17 34 17 17 34 85 102 119 85 102 119 85 102 119 85 102 119 85 102 119 85 102 119 85 102 119 85 102 119 85 102 119 85 102 119 85 102 119 85 102 119 85 102 119 85 102 119 85 102 119 85 102 119 85 102 119 85 102 119 85 102 119 85 102 119 85 102 119 85 102 119 17 17 34 17 17 34 17 17 34 17 17 34 17 17 34 17 17 34 17 17 34 17 17 34 17 17 34 17 17 34 17 17 34 17 17 34 17 17 34 17 17 34 17 17 34 17 17 34 17 17 34 17 17 34 17 17 34 17 17 34 17 17 34 17 17 34 17 17 34 17 17 34 17 17 34 17 17 34 17 17 34 17 17 34 17 17 34 17 17 34 17 17 34 17 17 34 17 17 34 17 17 34 17 17 34 17 17 34 17 17 34 17 17 34 17 17 34 17 17 34 17 17 34 17 17 34 17 17 34 17 17 34 17 17 34 17 17 34 17 17 34 17 17 34 17 17 34 17 17 34 17 17 34 17 17 34 17 17 34 17 17 34 17 17 34 17 17 34 17 17 34 17 17 34 17 17 34 17 17 34 17 17 34 17 17 34 17 17 34 17 17 34 17 17 34 17 17 34 17 17 34 17 17 34 17 17 34 17 17 34 17 17 34 17 17 34 17 17 34 17 17 34 17 17 34 17 17 34 17 17 34 17 17 34 17 17 34 17 17 34 17 17 34 17 17 34 17 17 34 17 17 34 17 17 34 17 17 34 17 17 34 17 17 34 17 17 34 17 17 34 17 17 34 17 17 34 17 17 34 17 17 34 17 17 34 17 17 34 17 17 34 17 17 34 17 17 34 17 17 34 17 17 34 17 17 34 17 17 34 17 17 34 17 17 34 17 17 34 17 17 34 17 17 34 17 17 34 17 17 34 17 17 34 17 17 34 17 17 34 17 17 34 17 17 34 17 17 34 0 51 102 0 51 102 0 170 221 0 170 221 0 170 221 0 170 221 0 170 221 0 170 221 0 51 102 0 51 102 51 68 85 51 68 85 51 68 85 51 68 85 85 102 119 85 102 119 85 102 119 85 102 119 85 102 119 85 102 119 85 102 119 85 102 119 85 102 119 85 102 119 85 102 119 85 102 119 85 102 119 85 102 119 85 102 119 85 102 119 85 102 119 85 102 119 85 102 119 85 102 119 85 102 119 85 102 119 85 102 119 85 102 119 85 102 119 85 102 119 85 102 119 85 102 119 85 102 119 85 102 119 85 102 119 85 102 119 85 102 119 85 102 119 85 102 119 85 102 119 85 102 119 85 102 119 85 102 119 85 102 119 85 102 119 85 102 119 85 102 119 85 102 119 85 102 119 85 102 119 85 102 119 85 102 119 85 102 119 85 102 119 85 102 119 85 102 119 85 102 119 85 102 119 85 102 119 85 102 119 85 102 119 85 102 119 85 102 119 85 102 119 85 102 119 85 102 119 85 102 119 85 102 119 85 102 119 85 102 119 85 102 119 85 102 119 85 102 119 85 102 119 51 68 85 51 68 85 51 68 85 51 68 85
51 68 85 51 68 85 51 68 85 51 68 85 85 102 119 85 102 119 85 102 119 85 102 119 85 102 119 85 102 119 85 102 119 85 102 119 85 102 119 85 102 119 85 102 119 85 102 119 85 102 119 85 102 119 85 102 119 85 102 119 85 102 119 85 102 119 85 102 119 85 102 119 85 102 119 85 102 119 85 102 119 85 102 119 85 102 119 85 102 119 85 102 119 85 102 119 85 102 119 85 102 119 85 102 119 85 102 119 85 102 119 85 102 119 85 102 119 85 102 119 85 102 119 85 102 119 85 102 119 85 102 119 85 102 119 85 102 119 85 102 119 85 102 119 85 102 119 85 102 119 85 102 119 85 102 119 85 102 119 85 102 119 85 102 119 85 102 119 85 102 119 85 102 119 85 102 119 85 102 119 85 102 119 85 102 119 85 102 119 85 102 119 85 102 119 85 102 119 85 102 119 85 102 119 85 102 119 85 102 119 85 102 119 85 102 119 85 102 119 85 102 119 51 68 85 51 68 85 51 68 85 51 68 85 51 68 85 51 68 85 51 68 85 51 68 85 17 17 34 17 17 34 17 17 34 17 17 34 17 17 34 17 17 34 17 17 34 17 17 34 17 17 34 17 17 34 17 17 34 17 17 34 85 102 119 85 102 119 85 102 119 85 102 119 85 102 119 85 102 119 85 102 119 85 102 119 85 102 119 221 51 68 221 51 68 221 51 68 221 51 68 85 102 119 85 102 119 85 102 119 85 102 119 85 102 119 85 102 119 85 102 119 85 102 119 85 102 119 17 17 34 17 17 34 17 17 34 17 17 34 17 17 34 17 17 34 17 17 34 17 17 34 17 17 34 17 17 34 17 17 34 17 17 34 17 17 34 17 17 34 17 17 34 17 17 34 17 17 34 17 17 34 17 17 34 17 17 34 17 17 34 17 17 34 17 17 34 17 17 34 17 17 34 17 17 34 17 17 34 17 17 34 17 17 34 17 17 34 17 17 34 17 17 34 17 17 34 17 17 34 17 17 34 17 17 34 17 17 34 17 17 34 17 17 34 17 17 34 17 17 34 17 17 34 17 17 34 17 17 34 17 17 34 17 17 34 17 17 34 17 17 34 17 17 34 17 17 34 17 17 34 17 17 34 17 17 34 17 17 34 17 17 34 17 17 34 17 17 34 17 17 34 17 17 34 17 17 34 17 17 34 17 17 34 17 17 34 17 17 34 17 17 34 17 17 34 17 17 34 17 17 34 17 17 34 17 17 34 17 17 34 17 17 34 17 17 34 17 17 34 17 17 34 17 17 34 17 17 34 17 17 34 17 17 34 17 17 34 17 17 34 17 17 34 17 17 34 17 17 34 17 17 34 17 17 34 17 17 34 17 17 34 17 17 34 17 17 34 17 17 34 17 17 34 17 17 34 17 17 34 17 17 34 17 17 34 17 17 34 17 17 34 17 17 34 17 17 34 17 17 34 17 17 34 17 17 34 17 17 34 17 17 34 17 17 34 17 17 34 17 17 34 17 17 34 17 17 34 17 17 34 17 17 34 17 17 34 17 17 34 17 17 34 17 17 34 0 51 102 0 51 102 0 51 102 0 51 102 0 51 102 0 51 102 0 51 102 0 51 102 0 51 102 0 51 102 51 68 85 51 68 85 51 68 85 51 68 85 85 102 119 85 102 119 85 102 119 85 102 119 85 102 119 85 102 119 85 102 119 85 102 119 85 102 119 85 102 119 85 102 119 85 102 119 85 102 119 85 102 119 85 102 119 85 102 119 85 102 119 85 102 119 85 102 119 85 102 119 85 102 119 85 102 119 85 102 119 85 102 119 85 102 119 85 102 119 85 102 119 85 102 119 85 102 119 85 102 119 85 102 119 85 102 119 85 102 119 85 102 119 85 102 119 85 102 119 85 102 119 85 102 119 85 102 119 85 102 119 85 102 119 85 102 119 85 102 119 85 102 119 85 102 119 85 102 119 85 102 119 85 102 119 85 102 119 85 102 119 85 102 119 85 102 119 85 102 119 85 102 119 85 102 119 85 102 119 85 102 119 85 102 119 85 102 119 85 102 119 85 102 119 85 102 119 85 102 119 85 102 119 85 102 119 85 102 119 85 102 119 85 102 119 85 102 119 85 102 119 51 68 85 51 68 85 51 68 85 51 68 85
51 68 85 51 68 85 51 68 85 51 68 85 85 102 119 85 102 119 85 102 119 85 102 119 85 102 119 85 102 119 85 102 119 85 102 119 85 102 119 85 102 119 85 102 119 85 102 119 85 102 119 85 102 119 85 102 119 85 102 119 85 102 119 85 102 119 85 102 119 85 102 119 85 102 119 85 102 119 85 102 119 85 102 119 85 102 119 85 102 119 85 102 119 85 102 119 85 102 119 85 102 119 85 102 119 85 102 119 85 102 119 85 102 119 85 102 119 85 102 119 85 102 119 85 102 119 85 102 119 85 102 119 85 102 119 85 102 119 85 102 119 85 102 119 85 102 119 85 102 119 85 102 119 85 102 119 85 102 119 85 102 119 85 102 119 85 102 119 85 102 119 85 102 119 85 102 119 85 102 119 85 102 119 85 102 119 85 102 119 85 102 119 85 102 119 85 102 119 85 102 119 85 102 119 85 102 119 85 102 119 85 102 119 85 102 119 85 102 119 85 102 119 51 68 85 51 68 85 51 68 85 51 68 85 51 68 85 51 68 85 51 68 85 51 68 85 17 17 34 17 17 34 17 17 34 17 17 34 17 17 34 17 17 34 17 17 34 17 17 34 17 17 34 17 17 34 17 17 34 17 17 34 85 102 119 85 102 119 85 102 119 85 102 119 85 102 119 85 102 119 85 102 119 85 102 119 85 102 119 221 51 68 221 51 68 221 51 68 221 51 68 85 102 119 85 102 119 85 102 119 85 102 119 85 102 119 85 102 119 85 102 119 85 102 119 85 102 119 17 17 34 17 17 34 17 17 34 17 17 34 17 17 34 17 17 34 17 17 34 17 17 34 17 17 34 17 17 34 17 17 34 17 17 34 17 17 34 17 17 34 17 17 34 17 17 34 17 17 34 17 17 34 17 17 34 17 17 34 17 17 34 17 17 34 17 17 34 17 17 34 17 17 34 17 17 34 17 17 34 17 17 34 17 17 34 17 17 34 17 17 34 17 17 34 17 17 34 17 17 34 17 17 34 17 17 34 17 17 34 17 17 34 17 17 34 17 17 34 17 17 34 17 17 34 17 17 34 17 17 34 17 17 34 17 17 34 17 17 34 17 17 34 17 17 34 17 17 34 17 17 34 17 17 34 17 17 34 17 17 34 17 17 34 17 17 34 17 17 34 17 17 34 17 17 34 17 17 34 17 17 34 17 17 34 17 17 34 17 17 34 17 17 34 17 17 34 17 17 34 17 17 34 17 17 34 17 17 34 17 17 34 17 17 34 17 17 34 17 17 34 17 17 34 17 17 34 17 17 34 17 17 34 17 17 34 17 17 34 17 17 34 17 17 34 17 17 34 17 17 34 17 17 34 17 17 34 17 17 34 17 17 34 17 17 34 17 17 34 17 17 34 17 17 34 17 17 34 17 17 34 17 17 34 17 17 34 17 17 34 17 17 34 17 17 34 17 17 34 17 17 34 17 17 34 17 17 34 17 17 34 17 17 34 17 17 34 17 17 34 17 17 34 17 17 34 17 17 34 17 17 34 17 17 34 17 17 34 17 17 34 17 17 34 17 17 34 17 17 34 17 17 34 17 17 34 17 17 34 17 17 34 17 17 34 51 68 85 51 68 85 51 68 85 51 68 85 51 68 85 51 68 85 51 68 85 51 68 85 85 102 119 85 102 119 85 102 119 85 102 119 85 102 119 85 102 119 85 102 119 85 102 119 85 102 119 85 102 119 85 102 119 85 102 119 85 102 119 85 102 119 85 102 119 85 102 119 85 102 119 85 102 119 85 102 119 85 102 119 85 102 119 85 102 119 85 102 119 85 102 119 85 102 119 85 102 119 85 102 119 85 102 119 85 102 119 85 102 119 85 102 119 85 102 119 85 102 119 85 102 119 85 102 119 85 102 119 85 102 119 85 102 119 85 102 119 85 102 119 85 102 119 85 102 119 85 102 119 85 102 119 85 102 119 85 102 119 85 102 119 85 102 119 85 102 119 85 102 119 85 102 119 85 102 119 85 102 119 85 102 119 85 102 119 85 102 119 85 102 119 85 102 119 85 102 119 85 102 119 85 102 119 85 102 119 85 102 119 85 102 119 85 102 119 85 102 119 85 102 119 85 102 119 85 102 119 85 102 119 51 68 85 51 68 85 51 68 85 51 68 85
51 68 85 51 68 85 51 68 85 51 68 85 85 102 119 85 102 119 85 102 119 85 102 119 85 102 119 85 102 119 85 102 119 85 102 119 85 102 119 85 102 119 85 102 119 85 102 119 85 102 119 85 102 119 85 102 119 85 102 119 85 102 119 85 102 119 85 102 119 85 102 119 85 102 119 85 102 119 85 102 119 85 102 119 85 102 119 85 102 119 85 102 119 85 102 119 85 102 119 85 102 119 85 102 119 85 102 119 85 102 119 85 102 119 85 102 119 85 102 119 85 102 119 85 102 119 85 102 119 85 102 119 85 102 119 85 102 119 85 102 119 85 102 119 85 102 119 85 102 119 85 102 119 85 102 119 85 102 119 85 102 119 85 102 119 85 102 119 85 102 119 85 102 119 85 102 119 85 102 119 85 102 119 85 102 119 85 102 119 85 102 119 85 102 119 85 102 119 85 102 119 85 102 119 85 102 119 85 102 119 85 102 119 85 102 119 85 102 119 85 102 119 51 68 85 51 68 85 51 68 85 51 68 85 51 68 85 51 68 85 51 68 85 51 68 85 17 17 34 17 17 34 17 17 34 17 17 34 17 17 34 17 17 34 17 17 34 17 17 34 17 17 34 17 17 34 17 17 34 17 17 34 85 102 119 85 102 119 85 102 119 85 102 119 85 102 119 85 102 119 85 102 119 85 102 119 85 102 119 221 51 68 221 51 68 221 51 68 221 51 68 85 102 119 85 102 119 85 102 119 85 102 119 85 102 119 85 102 119 85 102 119 85 102 119 85 102 119 17 17 34 17 17 34 17 17 34 17 17 34 17 17 34 17 17 34 17 17 34 17 17 34 17 17 34 17 17 34 17 17 34 17 17 34 17 17 34 17 17 34 17 17 34 17 17 34 17 17 34 17 17 34 17 17 34 17 17 34 17 17 34 17 17 34 17 17 34 17 17 34 17 17 34 17 17 34 17 17 34 17 17 34 17 17 34 17 17 34 17 17 34 17 17 34 17 17 34 17 17 34 17 17 34 17 17 34 17 17 34 17 17 34 17 17 34 17 17 34 17 17 34 17 17 34 17 17 34 17 17 34 17 17 34 17 17 34 17 17 34 17 17 34 17 17 34 17 17 34 17 17 34 17 17 34 17 17 34 17 17 34 17 17 34 17 17 34 17 17 34 17 17 34 17 17 34 17 17 34 17 17 34 17 17 34 17 17 34 17 17 34 17 17 34 17 17 34 17 17 34 17 17 34 17 17 34 17 17 34 17 17 34 17 17 34 17 17 34 17 17 34 17 17 34 17 17 34 17 17 34 17 17 34 17 17 34 17 17 34 17 17 34 17 17 34 17 17 34 17 17 34 17 17 34 17 17 34 17 17 34 17 17 34 17 17 34 17 17 34 17 17 34 17 17 34 17 17 34 17 17 34 17 17 34 17 17 34 17 17 34 17 17 34 17 17 34 17 17 34 17 17 34 17 17 34 17 17 34 17 17 34 17 17 34 17 17 34 17 17 34 17 17 34 17 17 34 17 17 34 17 17 34 17 17 34 17 17 34 17 17 34 17 17 34 17 17 34 17 17 34 17 17 34 17 17 34 17 17 34 17 17 34 17 17 34 51 68 85 51 68 85 51 68 85 51 68 85 51 68 85 51 68 85 51 68 85 51 68 85 85 102 119 85 102 119 85 102 119 85 102 119 85 102 119 85 102 119 85 102 119 85 102 119 85 102 119 85 102 119 85 102 119 85 102 119 85 102 119 85 102 119 85 102 119 85 102 119 85 102 119 85 102 119 85 102 119 85 102 119 85 102 119 85 102 119 85 102 119 85 102 119 85 102 119 85 102 119 85 102 119 85 102 119 85 102 119 85 102 119 85 102 119 85 102 119 85 102 119 85 102 119 85 102 119 85 102 119 85 102 119 85 102 119 85 102 119 85 102 119 85 102 119 85 102 119 85 102 119 85 102 119 85 102 119 85 102 119 85 102 119 85 102 119 85 102 119 85 102 119 85 102 119 85 102 119 85 102 119 85 102 119 85 102 119 85 102 119 85 102 119 85 102 119 85 102 119 85 102 119 85 102 119 85 102 119 85 102 119 85 102 119 85 102 119 85 102 119 85 102 119 85 102 119 85 102 119 85 102 119 51 68 85 51 68 85 51 68 85 51 68 85
51 68 85 51 68 85 51 68 85 51 68 85 51 68 85 51 68 85 51 68 85 51 68 85 51 68 85 51 68 85 51 68 85 51 68 85 51 68 85 51 68 85 51 68 85 51 68 85 51 68 85 51 68 85 51 68 85 51 68 85 51 68 85 51 68 85 51 68 85 51 68 85 51 68 85 51 68 85 51 68 85 51 68 85 51 68 85 51 68 85 51 68 85 51 68 85 51 68 85 51 68 85 51 68 85 51 68 85 51 68 85 51 68 85 51 68 85 51 68 85 51 68 85 51 68 85 51 68 85 51 68 85 51 68 85 51 68 85 51 68 85 51 68 85 51 68 85 51 68 85 51 68 85 51 68 85 51 68 85 51 68 85 51 68 85 51 68 85 51 68 85 51 68 85 51 68 85 51 68 85 51 68 85 51 68 85 51 68 85 51 68 85 51 68 85 51 68 85 51 68 85 51 68 85 51 68 85 51 68 85 51 68 85 51 68 85 51 68 85 51 68 85 51 68 85 51 68 85 51 68 85 51 68 85 51 68 85 51 68 85 51 68 85 51 68 85 17 17 34 17 17 34 17 17 34 17 17 34 17 17 34 17 17 34 17 17 34 17 17 34 17 17 34 17 17 34 17 17 34 17 17 34 85 102 119 85 102 119 85 102 119 85 102 119 85 102 119 85 102 119 85 102 119 85 102 119 85 102 119 221 51 68 221 51 68 221 51 68 221 51 68 85 102 119 85 102 119 85 102 119 85 102 119 85 102 119 85 102 119 85 102 119 85 102 119 85 102 119 17 17 34 17 17 34 17 17 34 17 17 34 17 17 34 17 17 34 17 17 34 17 17 34 17 17 34 17 17 34 17 17 34 17 17 34 17 17 34 17 17 34 17 17 34 17 17 34 17 17 34 17 17 34 17 17 34 17 17 34 17 17 34 17 17 34 17 17 34 17 17 34 17 17 34 17 17 34 17 17 34 17 17 34 17 17 34 17 17 34 17 17 34 17 17 34 17 17 34 17 17 34 17 17 34 17 17 34 17 17 34 17 17 34 17 17 34 17 17 34 17 17 34 17 17 34 17 17 34 17 17 34 17 17 34 17 17 34 17 17 34 17 17 34 17 17 34 17 17 34 17 17 34 17 17 34 17 17 34 17 17 34 17 17 34 17 17 34 17 17 34 17 17 34 17 17 34 17 17 34 17 17 34 17 17 34 17 17 34 17 17 34 17 17 34 17 17 34 17 17 34 17 17 34 17 17 34 17 17 34 17 17 34 17 17 34 17 17 34 17 17 34 17 17 34 17 17 34 17 17 34 17 17 34 17 17 34 17 17 34 17 17 34 17 17 34 17 17 34 17 17 34 17 17 34 17 17 34 17 17 34 17 17 34 17 17 34 17 17 34 17 17 34 17 17 34 17 17 34 17 17 34 17 17 34 17 17 34 17 17 34 17 17 34 17 17 34 17 17 34 17 17 34 17 17 34 17 17 34 17 17 34 17 17 34 17 17 34 17 17 34 17 17 34 17 17 34 17 17 34 17 17 34 17 17 34 17 17 34 17 17 34 17 17 34 17 17 34 17 17 34 17 17 34 17 17 34 17 17 34 17 17 34 17 17 34 51 68 85 51 68 85 51 68 85 51 68 85 51 68 85 51 68 85 51 68 85 51 68 85 85 102 119 85 102 119 85 102 119 85 102 119 85 102 119 85 102 119 85 102 119 85 102 119 85 102 119 85 102 119 85 102 119 85 102 119 85 102 119 85 102 119 85 102 119 85 102 119 85 102 119 85 102 119 85 102 119 85 102 119 85 102 119 85 102 119 85 102 119 85 102 119 85 102 119 85 102 119 85 102 119 85 102 119 85 102 119 85 102 119 85 102 119 85 102 119 85 102 119 85 102 119 85 102 119 85 102 119 85 102 119 85 102 119 85 102 119 85 102 119 85 102 119 85 102 119 85 102 119 85 102 119 85 102 119 85 102 119 85 102 119 85 102 119 85 102 119 85 102 119 85 102 119 85 102 119 85 102 119 85 102 119 85 102 119 85 102 119 85 102 119 85 102 119 85 102 119 85 102 119 85 102 119 85 102 119 85 102 119 85 102 119 85 102 119 85 102 119 85 102 119 85 102 119 85 102 119 85 102 119 51 68 85 51 68 85 51 68 85 51 68 85
51 68 85 51 68 85 51 68 85 51 68 85 51 68 85 51 68 85 51 68 85 51 68 85 51 68 85 51 68 85 51 68 85 51 68 85 51 68 85 51 68 85 51 68 85 51 68 85 51 68 85 51 68 85 51 68 85 51 68 85 51 68 85 51 68 85 51 68 85 51 68 85 51 68 85 51 68 85 51 68 85 51 68 85 51 68 85 51 68 85 51 68 85 51 68 85 51 68 85 51 68 85 51 68 85 51 68 85 51 68 85 51 68 85 51 68 85 51 68 85 51 68 85 51 68 85 51 68 85 51 68 85 51 68 85 51 68 85 51 68 85 51 68 85 51 68 85 51 68 85 51 68 85 51 68 85 51 68 85 51 68 85 51 68 85 51 68 85 51 68 85 51 68 85 51 68 85 51 68 85 51 68 85 51 68 85 51 68 85 51 68 85 51 68 85 51 68 85 51 68 85 51 68 85 51 68 85 51 68 85 51 68 85 51 68 85 51 68 85 51 68 85 51 68 85 51 68 85 51 68 85 51 68 85 51 68 85 51 68 85 51 68 85 51 68 85 17 17 34 17 17 34 17 17 34 17 17 34 17 17 34 17 17 34 17 17 34 17 17 34 17 17 34 17 17 34 17 17 34 17 17 34 85 102 119 85 102 119 85 102 119 85 102 119 85 102 119 85 102 119 85 102 119 85 102 119 85 102 119 85 102 119 85 102 119 85 102 119 85 102 119 85 102 119 85 102 119 85 102 119 85 102 119 85 102 119 85 102 119 85 102 119 85 102 119 85 102 119 17 17 34 17 17 34 17 17 34 17 17 34 17 17 34 17 17 34 17 17 34 17 17 34 17 17 34 17 17 34 17 17 34 17 17 34 17 17 34 17 17 34 17 17 34 17 17 34 17 17 34 17 17 34 17 17 34 17 17 34 17 17 34 17 17 34 17 17 34 17 17 34 17 17 34 17 17 34 17 17 34 17 17 34 17 17 34 17 17 34 17 17 34 17 17 34 17 17 34 17 17 34 17 17 34 17 17 34 17 17 34 17 17 34 17 17 34 17 17 34 17 17 34 17 17 34 17 17 34 17 17 34 17 17 34 17 17 34 17 17 34 17 17 34 17 17 34 17 17 34 17 17 34 17 17 34 17 17 34 17 17 34 17 17 34 17 17 34 17 17 34 17 17 34 17 17 34 17 17 34 17 17 34 17 17 34 17 17 34 17 17 34 17 17 34 17 17 34 17 17 34 17 17 34 17 17 34 17 17 34 17 17 34 17 17 34 17 17 34 17 17 34 17 17 34 17 17 34 17 17 34 17 17 34 17 17 34 17 17 34 17 17 34 17 17 34 17 17 34 17 17 34 17 17 34 17 17 34 17 17 34 17 17 34 17 17 34 17 17 34 17 17 34 17 17 34 17 17 34 17 17 34 17 17 34 17 17 34 17 17 34 17 17 34 17 17 34 17 17 34 17 17 34 17 17 34 17 17 34 17 17 34 17 17 34 17 17 34 17 17 34 17 17 34 17 17 34 17 17 34 17 17 34 17 17 34 17 17 34 17 17 34 17 17 34 17 17 34 17 17 34 17 17 34 17 17 34 17 17 34 17 17 34 17 17 34 51 68 85 51 68 85 51 68 85 51 68 85 51 68 85 51 68 85 51 68 85 51 68 85 85 102 119 85 102 119 85 102 119 85 102 119 85 102 119 85 102 119 85 102 119 85 102 119 85 102 119 85 102 119 85 102 119 85 102 119 85 102 119 85 102 119 85 102 119 85 102 119 85 102 119 85 102 119 85 102 119 85 102 119 85 102 119 85 102 119 85 102 119 85 102 119 85 102 119 85 102 119 85 102 119 85 102 119 85 102 119 85 102 119 85 102 119 85 102 119 85 102 119 85 102 119 85 102 119 85 102 119 85 102 119 85 102 119 85 102 119 85 102 119 85 102 119 85 102 119 85 102 119 85 102 119 85 102 119 85 102 119 85 102 119 85 102 119 85 102 119 85 102 119 85 102 119 85 102 119 85 102 119 85 102 119 85 102 119 85 102 119 85 102 119 85 102 119 85 102 119 85 102 119 85 102 119 85 102 119 85 102 119 85 102 119 85 102 119 85 102 119 85 102 119 85 102 119 85 102 119 85 102 119 51 68 85 51 68 85 51 68 85 51 68 85
51 68 85 51 68 85 51 68 85 51 68 85 51 68 85 51 68 85 51 68 85 51 68 85 51 68 85 51 68 85 51 68 85 51 68 85 51 68 85 51 68 85 51 68 85 51 68 85 51 68 85 51 68 85 51 68 85 51 68 85 51 68 85 51 68 85 51 68 85 51 68 85 51 68 85 51 68 85 51 68 85 51 68 85 51 68 85 51 68 85 51 68 85 51 68 85 51 68 85 51 68 85 51 68 85 51 68 85 51 68 85 51 68 85 51 68 85 51 68 85 51 68 85 51 68 85 51 68 85 51 68 85 51 68 85 51 68 85 51 68 85 51 68 85 51 68 85 51 68 85 51 68 85 51 68 85 51 68 85 51 68 85 51 68 85 51 68 85 51 68 85 51 68 85 51 68 85 51 68 85 51 68 85 51 68 85 51 68 85 51 68 85 51 68 85 51 68 85 51 68 85 51 68 85 51 68 85 51 68 85 51 68 85 51 68 85 51 68 85 51 68 85 51 68 85 51 68 85 51 68 85 51 68 85 51 68 85 51 68 85 51 68 85 51 68 85 17 17 34 17 17 34 17 17 34 17 17 34 17 17 34 17 17 34 17 17 34 17 17 34 17 17 34 17 17 34 17 17 34 17 17 34 17 17 34 17 17 34 17 17 34 17 17 34 51 68 85 51 68 85 51 68 85 51 68 85 51 68 85 51 68 85 51 68 85 51 68 85 51 68 85 51 68 85 51 68 85 51 68 85 51 68 85 51 68 85 17 17 34 17 17 34 17 17 34 17 17 34 17 17 34 17 17 34 17 17 34 17 17 34 17 17 34 17 17 34 17 17 34 17 17 34 17 17 34 17 17 34 17 17 34 17 17 34 17 17 34 17 17 34 17 17 34 17 17 34 17 17 34 17 17 34 17 17 34 17 17 34 17 17 34 17 17 34 17 17 34 17 17 34 17 17 34 17 17 34 17 17 34 17 17 34 17 17 34 17 17 34 17 17 34 17 17 34 17 17 34 17 17 34 17 17 34 17 17 34 17 17 34 17 17 34 17 17 34 17 17 34 17 17 34 17 17 34 17 17 34 17 17 34 17 17 34 17 17 34 17 17 34 17 17 34 17 17 34 17 17 34 17 17 34 17 17 34 17 17 34 17 17 34 17 17 34 17 17 34 17 17 34 17 17 34 17 17 34 17 17 34 17 17 34 17 17 34 17 17 34 17 17 34 17 17 34 17 17 34 17 17 34 17 17 34 17 17 34 17 17 34 17 17 34 17 17 34 17 17 34 17 17 34 17 17 34 17 17 34 17 17 34 17 17 34 17 17 34 17 17 34 17 17 34 17 17 34 17 17 34 17 17 34 17 17 34 17 17 34 17 17 34 17 17 34 17 17 34 17 17 34 17 17 34 17 17 34 17 17 34 17 17 34 17 17 34 17 17 34 17 17 34 17 17 34 17 17 34 17 17 34 17 17 34 17 17 34 17 17 34 17 17 34 17 17 34 17 17 34 17 17 34 17 17 34 17 17 34 17 17 34 17 17 34 17 17 34 17 17 34 17 17 34 17 17 34 17 17 34 17 17 34 17 17 34 17 17 34 17 17 34 17 17 34 17 17 34 51 68 85 51 68 85 51 68 85 51 68 85 51 68 85 51 68 85 51 68 85 51 68 85 85 102 119 85 102 119 85 102 119 85 102 119 85 102 119 85 102 119 85 102 119 85 102 119 85 102 119 85 102 119 85 102 119 85 102 119 85 102 119 85 102 119 85 102 119 85 102 119 85 102 119 85 102 119 85 102 119 85 102 119 85 102 119 85 102 119 85 102 119 85 102 119 85 102 119 85 102 119 85 102 119 85 102 119 85 102 119 85 102 119 85 102 119 85 102 119 85 102 119 85 102 119 85 102 119 85 102 119 85 102 119 85 102 119 85 102 119 85 102 119 85 102 119 85 102 119 85 102 119 85 102 119 85 102 119 85 102 119 85 102 119 85 102 119 85 102 119 85 102 119 85 102 119 85 102 119 85 102 119 85 102 119 85 102 119 85 102 119 85 102 119 85 102 119 85 102 119 85 102 119 85 102 119 85 102 119 85 102 119 85 102 119 85 102 119 85 102 119 85 102 119 85 102 119 85 102 119 85 102 119 51 68 85 51 68 85 51 68 85 51 68 85
51 68 85 51 68 85 51 68 85 51 68 85 51 68 85 51 68 85 51 68 85 51 68 85 51 68 85 51 68 85 51 68 85 51 68 85 51 68 85 51 68 85 51 68 85 51 68 85 51 68 85 51 68 85 51 68 85 51 68 85 51 68 85 51 68 85 51 68 85 51 68 85 51 68 85 51 68 85 51 68 85 51 68 85 51 68 85 51 68 85 51 68 85 51 68 85 51 68 85 51 68 85 51 68 85 51 68 85 51 68 85 51 68 85 51 68 85 51 68 85 51 68 85 51 68 85 51 68 85 51 68 85 51 68 85 51 68 85 51 68 85 51 68 85 51 68 85 51 68 85 51 68 85 51 68 85 51 68 85 51 68 85 51 68 85 51 68 85 51 68 85 51 68 85 51 68 85 51 68 85 51 68 85 51 68 85 51 68 85 51 68 85 51 68 85 51 68 85 51 68 85 51 68 85 51 68 85 51 68 85 51 68 85 51 68 85 51 68 85 51 68 85 51 68 85 51 68 85 51 68 85 51 68 85 51 68 85 51 68 85 51 68 85 51 68 85 17 17 34 17 17 34 17 17 34 17 17 34 17 17 34 17 17 34 17 17 34 17 17 34 17 17 34 17 17 34 17 17 34 17 17 34 17 17 34 17 17 34 17 17 34 17 17 34 51 68 85 51 68 85 51 68 85 51 68 85 51 68 85 51 68 85 51 68 85 51 68 85 51 68 85 51 68 85 51 68 85 51 68 85 51 68 85 51 68 85 17 17 34 17 17 34 17 17 34 17 17 34 17 17 34 17 17 34 17 17 34 17 17 34 17 17 34 17 17 34 17 17 34 17 17 34 17 17 34 17 17 34 17 17 34 17 17 34 17 17 34 17 17 34 17 17 34 17 17 34 17 17 34 17 17 34 17 17 34 17 17 34 17 17 34 17 17 34 17 17 34 17 17 34 17 17 34 17 17 34 17 17 34 17 17 34 17 17 34 17 17 34 17 17 34 17 17 34 17 17 34 17 17 34 17 17 34 17 17 34 17 17 34 17 17 34 17 17 34 17 17 34 17 17 34 17 17 34 17 17 34 17 17 34 17 17 34 17 17 34 17 17 34 17 17 34 17 17 34 17 17 34 17 17 34 17 17 34 17 17 34 17 17 34 17 17 34 17 17 34 17 17 34 17 17 34 17 17 34 17 17 34 17 17 34 17 17 34 17 17 34 17 17 34 17 17 34 17 17 34 17 17 34 17 17 34 17 17 34 17 17 34 17 17 34 17 17 34 17 17 34 17 17 34 17 17 34 17 17 34 17 17 34 17 17 34 17 17 34 17 17 34 17 17 34 17 17 34 17 17 34 17 17 34 17 17 34 17 17 34 17 17 34 17 17 34 17 17 34 17 17 34 17 17 34 17 17 34 17 17 34 17 17 34 17 17 34 17 17 34 17 17 34 17 17 34 17 17 34 17 17 34 17 17 34 17 17 34 17 17 34 17 17 34 17 17 34 17 17 34 17 17 34 17 17 34 17 17 34 17 17 34 17 17 34 17 17 34 17 17 34 17 17 34 17 17 34 17 17 34 17 17 34 17 17 34 17 17 34 17 17 34 17 17 34 17 17 34 51 68 85 51 68 85 51 68 85 51 68 85 51 68 85 51 68 85 51 68 85 51 68 85 85 102 119 85 102 119 85 102 119 85 102 119 85 102 119 85 102 119 85 102 119 85 102 119 85 102 119 85 102 119 85 102 119 85 102 119 85 102 119 85 102 119 85 102 119 85 102 119 85 102 119 85 102 119 85 102 119 85 102 119 85 102 119 85 102 119 85 102 119 85 102 119 85 102 119 85 102 119 85 102 119 85 102 119 85 102 119 85 102 119 85 102 119 85 102 119 85 102 119 85 102 119 85 102 119 85 102 119 85 102 119 85 102 119 85 102 119 85 102 119 85 102 119 85 102 119 85 102 119 85 102 119 85 102 119 85 102 119 85 102 119 85 102 119 85 102 119 85 102 119 85 102 119 85 102 119 85 102 119 85 102 119 85 102 119 85 102 119 85 102 119 85 102 119 85 102 119 85 102 119 85 102 119 85 102 119 85 102 119 85 102 119 85 102 119 85 102 119 85 102 119 85 102 119 85 102 119 85 102 119 51 68 85 51 68 85 51 68 85 51 68 85
17 17 34 17 17 34 17 17 34 17 17 34 17 17 34 17 17 34 17 17 34 17 17 34 17 17 34 17 17 34 17 17 34 17 17 34 17 17 34 17 17 34 17 17 34 17 17 34 17 17 34 17 17 34 17 17 34 17 17 34 17 17 34 17 17 34 17 17 34 17 17 34 17 17 34 17 17 34 17 17 34 17 17 34 17 17 34 17 17 34 17 17 34 17 17 34 17 17 34 17 17 34 17 17 34 17 17 34 17 17 34 17 17 34 17 17 34 17 17 34 17 17 34 17 17 34 17 17 34 17 17 34 17 17 34 17 17 34 17 17 34 17 17 34 17 17 34 17 17 34 17 17 34 17 17 34 17 17 34 17 17 34 17 17 34 17 17 34 17 17 34 17 17 34 17 17 34 17 17 34 17 17 34 17 17 34 17 17 34 17 17 34 17 17 34 17 17 34 17 17 34 17 17 34 17 17 34 17 17 34 17 17 34 17 17 34 17 17 34 17 17 34 17 17 34 17 17 34 17 17 34 17 17 34 17 17 34 17 17 34 17 17 34 17 17 34 17 17 34 17 17 34 17 17 34 17 17 34 17 17 34 17 17 34 17 17 34 17 17 34 17 17 34 17 17 34 17 17 34 17 17 34 17 17 34 17 17 34 17 17 34 17 17 34 51 68 85 51 68 85 51 68 85 51 68 85 51 68 85 51 68 85 51 68 85 51 68 85 51 68 85 51 68 85 51 68 85 51 68 85 51 68 85 51 68 85 17 17 34 17 17 34 17 17 34 17 17 34 17 17 34 17 17 34 17 17 34 17 17 34 17 17 34 17 17 34 17 17 34 17 17 34 17 17 34 17 17 34 17 17 34 17 17 34 17 17 34 17 17 34 17 17 34 17 17 34 17 17 34 17 17 34 17 17 34 17 17 34 17 17 34 17 17 34 17 17 34 17 17 34 17 17 34 17 17 34 17 17 34 17 17 34 17 17 34 17 17 34 17 17 34 17 17 34 17 17 34 17 17 34 17 17 34 17 17 34 17 17 34 17 17 34 17 17 34 17 17 34 17 17 34 17 17 34 17 17 34 17 17 34 17 17 34 17 17 34 17 17 34 17 17 34 17 17 34 17 17 34 17 17 34 17 17 34 17 17 34 17 17 34 17 17 34 17 17 34 17 17 34 17 17 34 17 17 34 17 17 34 17 17 34 17 17 34 17 17 34 17 17 34 17 17 34 17 17 34 17 17 34 17 17 34 17 17 34 17 17 34 17 17 34 17 17 34 17 17 34 17 17 34 17 17 34 17 17 34 17 17 34 17 17 34 17 17 34 17 17 34 17 17 34 17 17 34 17 17 34 17 17 34 17 17 34 17 17 34 17 17 34 17 17 34 17 17 34 17 17 34 17 17 34 17 17 34 17 17 34 17 17 34 17 17 34 17 17 34 17 17 34 17 17 34 221 51 68 221 51 68 221 51 68 221 51 68 221 51 68 221 51 68 17 17 34 17 17 34 17 17 34 17 17 34 17 17 34 17 17 34 17 17 34 17 17 34 17 17 34 17 17 34 17 17 34 17 17 34 17 17 34 17 17 34 17 17 34 17 17 34 17 17 34 17 17 34 51 68 85 51 68 85 51 68 85 51 68 85 51 68 85 51 68 85 51 68 85 51 68 85 51 68 85 51 68 85 51 68 85 51 68 85 51 68 85 51 68 85 51 68 85 51 68 85 51 68 85 51 68 85 51 68 85 51 68 85 51 68 85 51 68 85 51 68 85 51 68 85 51 68 85 51 68 85 51 68 85 51 68 85 51 68 85 51 68 85 51 68 85 51 68 85 51 68 85 51 68 85 51 68 85 51 68 85 51 68 85 51 68 85 51 68 85 51 68 85 51 68 85 51 68 85 51 68 85 51 68 85 51 68 85 51 68 85 51 68 85 51 68 85 51 68 85 51 68 85 51 68 85 51 68 85 51 68 85 51 68 85 51 68 85 51 68 85 51 68 85 51 68 85 51 68 85 51 68 85 51 68 85 51 68 85 51 68 85 51 68 85 51 68 85 51 68 85 51 68 85 51 68 85 51 68 85 51 68 85 51 68 85 51 68 85 51 68 85 51 68 85 51 68 85 51 68 85 51 68 85 51 68 85 51 68 85 51 68 85 51 68 85 51 68 85
17 17 34 17 17 34 17 17 34 17 17 34 17 17 34 17 17 34 17 17 34 17 17 34 17 17 34 17 17 34 17 17 34 17 17 34 17 17 34 17 17 34 17 17 34 17 17 34 17 17 34 17 17 34 17 17 34 17 17 34 17 17 34 17 17 34 17 17 34 17 17 34 17 17 34 17 17 34 17 17 34 17 17 34 17 17 34 17 17 34 17 17 34 17 17 34 17 17 34 17 17 34 17 17 34 17 17 34 17 17 34 17 17 34 17 17 34 17 17 34 17 17 34 17 17 34 17 17 34 17 17 34 17 17 34 17 17 34 17 17 34 17 17 34 17 17 34 17 17 34 17 17 34 17 17 34 17 17 34 17 17 34 17 17 34 17 17 34 17 17 34 17 17 34 17 17 34 17 17 34 17 17 34 17 17 34 17 17 34 17 17 34 17 17 34 17 17 34 17 17 34 17 17 34 17 17 34 17 17 34 17 17 34 17 17 34 17 17 34 17 17 34 17 17 34 17 17 34 17 17 34 17 17 34 17 17 34 17 17 34 17 17 34 17 17 34 17 17 34 17 17 34 17 17 34 17 17 34 17 17 34 17 17 34 17 17 34 17 17 34 17 17 34 17 17 34 17 17 34 17 17 34 17 17 34 17 17 34 17 17 34 17 17 34 51 68 85 51 68 85 51 68 85 51 68 85 51 68 85 51 68 85 51 68 85 51 68 85 51 68 85 51 68 85 51 68 85 51 68 85 51 68 85 51 68 85 17 17 34 17 17 34 17 17 34 17 17 34 17 17 34 17 17 34 17 17 34 17 17 34 17 17 34 17 17 34 17 17 34 17 17 34 17 17 34 17 17 34 17 17 34 17 17 34 17 17 34 17 17 34 17 17 34 17 17 34 17 17 34 17 17 34 17 17 34 17 17 34 17 17 34 17 17 34 17 17 34 17 17 34 17 17 34 17 17 34 17 17 34 17 17 34 17 17 34 17 17 34 17 17 34 17 17 34 17 17 34 17 17 34 17 17 34 17 17 34 17 17 34 17 17 34 17 17 34 17 17 34 17 17 34 17 17 34 17 17 34 17 17 34 17 17 34 17 17 34 17 17 34 17 17 34 17 17 34 17 17 34 17 17 34 17 17 34 17 17 34 17 17 34 17 17 34 17 17 34 17 17 34 17 17 34 17 17 34 17 17 34 17 17 34 17 17 34 17 17 34 17 17 34 17 17 34 17 17 34 17 17 34 17 17 34 17 17 34 17 17 34 17 17 34 17 17 34 17 17 34 17 17 34 17 17 34 17 17 34 17 17 34 17 17 34 17 17 34 17 17 34 17 17 34 17 17 34 17 17 34 17 17 34 17 17 34 17 17 34 17 17 34 17 17 34 17 17 34 17 17 34 17 17 34 17 17 34 17 17 34 17 17 34 17 17 34 17 17 34 17 17 34 17 17 34 221 51 68 221 51 68 221 51 68 221 51 68 221 51 68 221 51 68 17 17 34 17 17 34 17 17 34 17 17 34 17 17 34 17 17 34 17 17 34 17 17 34 17 17 34 17 17 34 17 17 34 17 17 34 17 17 34 17 17 34 17 17 34 17 17 34 17 17 34 17 17 34 51 68 85 51 68 85 51 68 85 51 68 85 51 68 85 51 68 85 51 68 85 51 68 85 51 68 85 51 68 85 51 68 85 51 68 85 51 68 85 51 68 85 51 68 85 51 68 85 51 68 85 51 68 85 51 68 85 51 68 85 51 68 85 51 68 85 51 68 85 51 68 85 51 68 85 51 68 85 51 68 85 51 68 85 51 68 85 51 68 85 51 68 85 51 68 85 51 68 85 51 68 85 51 68 85 51 68 85 51 68 85 51 68 85 51 68 85 51 68 85 51 68 85 51 68 85 51 68 85 51 68 85 51 68 85 51 68 85 51 68 85 51 68 85 51 68 85 51 68 85 51 68 85 51 68 85 51 68 85 51 68 85 51 68 85 51 68 85 51 68 85 51 68 85 51 68 85 51 68 85 51 68 85 51 68 85 51 68 85 51 68 85 51 68 85 51 68 85 51 68 85 51 68 85 51 68 85 51 68 85 51 68 85 51 68 85 51 68 85 51 68 85 51 68 85 51 68 85 51 68 85 51 68 85 51 68 85 51 68 85 51 68 85 51 68 85
17 17 34 17 17 34 17 17 34 17 17 34 17 17 34 17 17 34 17 17 34 17 17 34 17 17 34 17 17 34 17 17 34 17 17 34 17 17 34 17 17 34 17 17 34 17 17 34 17 17 34 17 17 34 17 17 34 17 17 34 17 17 34 17 17 34 17 17 34 17 17 34 17 17 34 17 17 34 17 17 34 17 17 34 17 17 34 17 17 34 17 17 34 17 17 34 17 17 34 17 17 34 17 17 34 17 17 34 17 17 34 17 17 34 17 17 34 17 17 34 17 17 34 17 17 34 17 17 34 17 17 34 17 17 34 17 17 34 17 17 34 17 17 34 17 17 34 17 17 34 17 17 34 17 17 34 17 17 34 17 17 34 17 17 34 17 17 34 17 17 34 17 17 34 17 17 34 17 17 34 17 17 34 17 17 34 17 17 34 17 17 34 17 17 34 17 17 34 17 17 34 17 17 34 17 17 34 17 17 34 17 17 34 17 17 34 17 17 34 17 17 34 17 17 34 17 17 34 17 17 34 17 17 34 17 17 34 17 17 34 17 17 34 17 17 34 17 17 34 17 17 34 17 17 34 17 17 34 17 17 34 17 17 34 17 17 34 17 17 34 17 17 34 17 17 34 17 17 34 17 17 34 17 17 34 17 17 34 17 17 34 17 17 34 17 17 34 17 17 34 17 17 34 17 17 34 17 17 34 17 17 34 17 17 34 17 17 34 17 17 34 17 17 34 17 17 34 17 17 34 17 17 34 17 17 34 17 17 34 17 17 34 17 17 34 17 17 34 17 17 34 17 17 34 17 17 34 17 17 34 17 17 34 17 17 34 17 17 34 17 17 34 17 17 34 17 17 34 17 17 34 17 17 34 17 17 34 17 17 34 17 17 34 17 17 34 17 17 34 17 17 34 17 17 34 17 17 34 17 17 34 17 17 34 17 17 34 17 17 34 17 17 34 17 17 34 17 17 34 17 17 34 17 17 34 17 17 34 17 17 34 17 17 34 17 17 34 17 17 34 17 17 34 17 17 34 17 17 34 17 17 34 17 17 34 17 17 34 17 17 34 17 17 34 17 17 34 17 17 34 17 17 34 17 17 34 17 17 34 17 17 34 17 17 34 17 17 34 17 17 34 17 17 34 17 17 34 17 17 34 17 17 34 17 17 34 17 17 34 17 17 34 17 17 34 17 17 34 17 17 34 17 17 34 17 17 34 17 17 34 17 17 34 17 17 34 17 17 34 17 17 34 17 17 34 17 17 34 17 17 34 17 17 34 17 17 34 17 17 34 17 17 34 17 17 34 17 17 34 17 17 34 17 17 34 17 17 34 17 17 34 17 17 34 17 17 34 17 17 34 17 17 34 17 17 34 17 17 34 17 17 34 17 17 34 17 17 34 17 17 34 17 17 34 17 17 34 17 17 34 17 17 34 17 17 34 255 170 34 255 170 34 255 170 34 255 170 34 255 170 34 255 170 34 255 170 34 255 170 34 255 170 34 255 170 34 17 17 34 17 17 34 17 17 34 17 17 34 17 17 34 17 17 34 17 17 34 17 17 34 17 17 34 17 17 34 17 17 34 17 17 34 17 17 34 17 17 34 17 17 34 17 17 34 51 68 85 51 68 85 51 68 85 51 68 85 51 68 85 51 68 85 51 68 85 51 68 85 51 68 85 51 68 85 51 68 85 51 68 85 51 68 85 51 68 85 51 68 85 51 68 85 51 68 85 51 68 85 51 68 85 51 68 85 51 68 85 51 68 85 51 68 85 51 68 85 51 68 85 51 68 85 51 68 85 51 68 85 51 68 85 51 68 85 51 68 85 51 68 85 51 68 85 51 68 85 51 68 85 51 68 85 51 68 85 51 68 85 51 68 85 51 68 85 51 68 85 51 68 85 51 68 85 51 68 85 51 68 85 51 68 85 51 68 85 51 68 85 51 68 85 51 68 85 51 68 85 51 68 85 51 68 85 51 68 85 51 68 85 51 68 85 51 68 85 51 68 85 51 68 85 51 68 85 51 68 85 51 68 85 51 68 85 51 68 85 51 68 85 51 68 85 51 68 85 51 68 85 51 68 85 51 68 85 51 68 85 51 68 85 51 68 85 51 68 85 51 68 85 51 68 85 51 68 85 51 68 85 51 68 85 51 68 85 51 68 85 51 68 85
17 17 34 17 17 34 17 17 34 17 17 34 17 17 34 17 17 34 17 17 34 17 17 34 17 17 34 17 17 34 17 17 34 17 17 34 17 17 34 17 17 34 17 17 34 17 17 34 17 17 34 17 17 34 17 17 34 17 17 34 17 17 34 17 17 34 17 17 34 17 17 34 17 17 34 17 17 34 17 17 34 17 17 34 17 17 34 17 17 34 17 17 34 17 17 34 17 17 34 17 17 34 17 17 34 17 17 34 17 17 34 17 17 34 17 17 34 17 17 34 17 17 34 17 17 34 17 17 34 17 17 34 17 17 34 17 17 34 17 17 34 17 17 34 17 17 34 17 17 34 17 17 34 17 17 34 17 17 34 17 17 34 17 17 34 17 17 34 17 17 34 17 17 34 17 17 34 17 17 34 17 17 34 17 17 34 17 17 34 17 17 34 17 17 34 17 17 34 17 17 34 17 17 34 17 17 34 17 17 34 17 17 34 17 17 34 17 17 34 17 17 34 17 17 34 17 17 34 17 17 34 17 17 34 17 17 34 17 17 34 17 17 34 17 17 34 17 17 34 17 17 34 17 17 34 17 17 34 17 17 34 17 17 34 17 17 34 17 17 34 17 17 34 17 17 34 17 17 34 17 17 34 17 17 34 17 17 34 17 17 34 17 17 34 17 17 34 17 17 34 17 17 34 17 17 34 17 17 34 17 17 34 17 17 34 17 17 34 17 17 34 17 17 34 17 17 34 17 17 34 17 17 34 17 17 34 17 17 34 17 17 34 17 17 34 17 17 34 17 17 34 17 17 34 17 17 34 17 17 34 17 17 34 17 17 34 17 17 34 17 17 34 17 17 34 17 17 34 17 17 34 17 17 34 17 17 34 17 17 34 17 17 34 17 17 34 17 17 34 17 17 34 17 17 34 17 17 34 17 17 34 17 17 34 17 17 34 17 17 34 17 17 34 17 17 34 17 17 34 17 17 34 17 17 34 17 17 34 17 17 34 17 17 34 17 17 34 17 17 34 17 17 34 17 17 34 17 17 34 17 17 34 17 17 34 17 17 34 17 17 34 17 17 34 17 17 34 17 17 34 17 17 34 17 17 34 17 17 34 17 17 34 17 17 34 17 17 34 17 17 34 17 17 34 17 17 34 17 17 34 17 17 34 17 17 34 17 17 34 17 17 34 17 17 34 17 17 34 17 17 34 17 17 34 17 17 34 17 17 34 17 17 34 17 17 34 17 17 34 17 17 34 17 17 34 17 17 34 17 17 34 17 17 34 17 17 34 17 17 34 17 17 34 17 17 34 17 17 34 17 17 34 17 17 34 17 17 34 17 17 34 17 17 34 17 17 34 17 17 34 17 17 34 17 17 34 17 17 34 17 17 34 17 17 34 17 17 34 17 17 34 17 17 34 17 17 34 17 17 34 17 17 34 17 17 34 255 170 34 255 170 34 255 170 34 255 170 34 255 170 34 255 170 34 255 170 34 255 170 34 255 170 34 255 170 34 17 17 34 17 17 34 17 17 34 17 17 34 17 17 34 17 17 34 17 17 34 17 17 34 17 17 34 17 17 34 17 17 34 17 17 34 17 17 34 17 17 34 17 17 34 17 17 34 51 68 85 51 68 85 51 68 85 51 68 85 51 68 85 51 68 85 51 68 85 51 68 85 51 68 85 51 68 85 51 68 85 51 68 85 51 68 85 51 68 85 51 68 85 51 68 85 51 68 85 51 68 85 51 68 85 51 68 85 51 68 85 51 68 85 51 68 85 51 68 85 51 68 85 51 68 85 51 68 85 51 68 85 51 68 85 51 68 85 51 68 85 51 68 85 51 68 85 51 68 85 51 68 85 51 68 85 51 68 85 51 68 85 51 68 85 51 68 85 51 68 85 51 68 85 51 68 85 51 68 85 51 68 85 51 68 85 51 68 85 51 68 85 51 68 85 51 68 85 51 68 85 51 68 85 51 68 85 51 68 85 51 68 85 51 68 85 51 68 85 51 68 85 51 68 85 51 68 85 51 68 85 51 68 85 51 68 85 51 68 85 51 68 85 51 68 85 51 68 85 51 68 85 51 68 85 51 68 85 51 68 85 51 68 85 51 68 85 51 68 85 51 68 85 51 68 85 51 68 85 51 68 85 51 68 85 51 68 85 51 68 85 51 68 85
51 68 85 51 68 85 51 68 85 51 68 85 51 68 85 51 68 85 51 68 85 51 68 85 51 68 85 51 68 85 51 68 85 51 68 85 51 68 85 51 68 85 51 68 85 51 68 85 51 68 85 51 68 85 51 68 85 51 68 85 51 68 85 51 68 85 51 68 85 51 68 85 51 68 85 51 68 85 51 68 85 51 68 85 51 68 85 51 68 85 51 68 85 51 68 85 51 68 85 51 68 85 51 68 85 51 68 85 51 68 85 51 68 85 51 68 85 51 68 85 51 68 85 51 68 85 51 68 85 51 68 85 51 68 85 51 68 85 51 68 85 51 68 85 51 68 85 51 68 85 51 68 85 51 68 85 51 68 85 51 68 85 51 68 85 51 68 85 51 68 85 51 68 85 51 68 85 51 68 85 51 68 85 51 68 85 51 68 85 51 68 85 51 68 85 51 68 85 51 68 85 51 68 85 51 68 85 51 68 85 51 68 85 51 68 85 51 68 85 51 68 85 51 68 85 51 68 85 51 68 85 51 68 85 51 68 85 51 68 85 51 68 85 51 68 85 17 17 34 17 17 34 17 17 34 17 17 34 17 17 34 17 17 34 17 17 34 17 17 34 17 17 34 17 17 34 17 17 34 17 17 34 17 17 34 17 17 34 17 17 34 17 17 34 17 17 34 17 17 34 17 17 34 17 17 34 17 17 34 17 17 34 17 17 34 17 17 34 17 17 34 17 17 34 17 17 34 17 17 34 17 17 34 17 17 34 17 17 34 17 17 34 17 17 34 17 17 34 17 17 34 17 17 34 17 17 34 17 17 34 17 17 34 17 17 34 17 17 34 17 17 34 17 17 34 17 17 34 17 17 34 17 17 34 17 17 34 17 17 34 17 17 34 17 17 34 17 17 34 17 17 34 17 17 34 17 17 34 17 17 34 17 17 34 17 17 34 17 17 34 17 17 34 17 17 34 17 17 34 17 17 34 17 17 34 17 17 34 17 17 34 17 17 34 17 17 34 17 17 34 17 17 34 17 17 34 17 17 34 17 17 34 17 17 34 17 17 34 17 17 34 17 17 34 17 17 34 17 17 34 17 17 34 17 17 34 17 17 34 17 17 34 17 17 34 17 17 34 17 17 34 17 17 34 17 17 34 17 17 34 17 17 34 17 17 34 17 17 34 17 17 34 17 17 34 17 17 34 17 17 34 17 17 34 17 17 34 17 17 34 17 17 34 17 17 34 17 17 34 17 17 34 17 17 34 17 17 34 17 17 34 17 17 34 17 17 34 17 17 34 17 17 34 17 17 34 17 17 34 17 17 34 17 17 34 17 17 34 17 17 34 17 17 34 17 17 34 17 17 34 17 17 34 17 17 34 17 17 34 17 17 34 17 17 34 17 17 34 17 17 34 17 17 34 17 17 34 17 17 34 17 17 34 17 17 34 255 170 34 255 170 34 255 170 34 255 170 34 255 170 34 255 170 34 255 170 34 255 170 34 255 170 34 255 170 34 17 17 34 17 17 34 17 17 34 17 17 34 17 17 34 17 17 34 17 17 34 17 17 34 17 17 34 17 17 34 17 17 34 17 17 34 17 17 34 17 17 34 17 17 34 17 17 34 17 17 34 17 17 34 17 17 34 17 17 34 17 17 34 17 17 34 17 17 34 17 17 34 17 17 34 17 17 34 17 17 34 17 17 34 17 17 34 17 17 34 17 17 34 17 17 34 17 17 34 17 17 34 17 17 34 17 17 34 17 17 34 17 17 34 17 17 34 17 17 34 17 17 34 17 17 34 17 17 34 17 17 34 17 17 34 17 17 34 17 17 34 17 17 34 17 17 34 17 17 34 17 17 34 17 17 34 17 17 34 17 17 34 17 17 34 17 17 34 17 17 34 17 17 34 17 17 34 17 17 34 17 17 34 17 17 34 17 17 34 17 17 34 17 17 34 17 17 34 17 17 34 17 17 34 17 17 34 17 17 34 17 17 34 17 17 34 17 17 34 17 17 34 17 17 34 17 17 34 17 17 34 17 17 34 17 17 34 17 17 34 17 17 34 17 17 34 17 17 34 17 17 34 17 17 34 17 17 34 17 17 34 17 17 34 17 17 34 17 17 34 17 17 34 17 17 34 17 17 34 17 17 34 17 17 34 17 17 34 17 17 34 17 17 34
51 68 85 51 68 85 51 68 85 51 68 85 51 68 85 51 68 85 51 68 85 51 68 85 51 68 85 51 68 85 51 68 85 51 68 85 51 68 85 51 68 85 51 68 85 51 68 85 51 68 85 51 68 85 51 68 85 51 68 85 51 68 85 51 68 85 51 68 85 51 68 85 51 68 85 51 68 85 51 68 85 51 68 85 51 68 85 51 68 85 51 68 85 51 68 85 51 68 85 51 68 85 51 68 85 51 68 85 51 68 85 51 68 85 51 68 85 51 68 85 51 68 85 51 68 85 51 68 85 51 68 85 51 68 85 51 68 85 51 68 85 51 68 85 51 68 85 51 68 85 51 68 85 51 68 85 51 68 85 51 68 85 51 68 85 51 68 85 51 68 85 51 68 85 51 68 85 51 68 85 51 68 85 51 68 85 51 68 85 51 68 85 51 68 85 51 68 85 51 68 85 51 68 85 51 68 85 51 68 85 51 68 85 51 68 85 51 68 85 51 68 85 51 68 85 51 68 85 51 68 85 51 68 85 51 68 85 51 68 85 51 68 85 51 68 85 17 17 34 17 17 34 17 17 34 17 17 34 17 17 34 17 17 34 17 17 34 17 17 34 17 17 34 17 17 34 17 17 34 17 17 34 17 17 34 17 17 34 17 17 34 17 17 34 17 17 34 17 17 34 17 17 34 17 17 34 17 17 34 17 17 34 17 17 34 17 17 34 17 17 34 17 17 34 17 17 34 17 17 34 17 17 34 17 17 34 17 17 34 17 17 34 17 17 34 17 17 34 17 17 34 17 17 34 17 17 34 17 17 34 17 17 34 17 17 34 17 17 34 17 17 34 17 17 34 17 17 34 17 17 34 17 17 34 17 17 34 17 17 34 17 17 34 17 17 34 17 17 34 17 17 34 17 17 34 17 17 34 17 17 34 17 17 34 17 17 34 17 17 34 17 17 34 17 17 34 17 17 34 17 17 34 17 17 34 17 17 34 17 17 34 17 17 34 17 17 34 17 17 34 17 17 34 17 17 34 17 17 34 17 17 34 17 17 34 17 17 34 17 17 34 17 17 34 17 17 34 17 17 34 17 17 34 17 17 34 17 17 34 17 17 34 17 17 34 17 17 34 17 17 34 17 17 34 17 17 34 17 17 34 17 17 34 17 17 34 17 17 34 17 17 34 17 17 34 17 17 34 17 17 34 17 17 34 17 17 34 17 17 34 17 17 34 17 17 34 17 17 34 17 17 34 17 17 34 17 17 34 17 17 34 17 17 34 17 17 34 17 17 34 17 17 34 17 17 34 17 17 34 17 17 34 17 17 34 17 17 34 17 17 34 17 17 34 17 17 34 17 17 34 17 17 34 17 17 34 17 17 34 17 17 34 17 17 34 17 17 34 17 17 34 17 17 34 17 17 34 17 17 34 17 17 34 17 17 34 255 170 34 255 170 34 255 170 34 255 170 34 255 170 34 255 170 34 255 170 34 255 170 34 255 170 34 255 170 34 17 17 34 17 17 34 17 17 34 17 17 34 17 17 34 17 17 34 17 17 34 17 17 34 17 17 34 17 17 34 17 17 34 17 17 34 17 17 34 17 17 34 17 17 34 17 17 34 17 17 34 17 17 34 17 17 34 17 17 34 17 17 34 17 17 34 17 17 34 17 17 34 17 17 34 17 17 34 17 17 34 17 17 34 17 17 34 17 17 34 17 17 34 17 17 34 17 17 34 17 17 34 17 17 34 17 17 34 17 17 34 17 17 34 17 17 34 17 17 34 17 17 34 17 17 34 17 17 34 17 17 34 17 17 34 17 17 34 17 17 34 17 17 34 17 17 34 17 17 34 17 17 34 17 17 34 17 17 34 17 17 34 17 17 34 17 17 34 17 17 34 17 17 34 17 17 34 17 17 34 17 17 34 17 17 34 17 17 34 17 17 34 17 17 34 17 17 34 17 17 34 17 17 34 17 17 34 17 17 34 17 17 34 17 17 34 17 17 34 17 17 34 17 17 34 17 17 34 17 17 34 17 17 34 17 17 34 17 17 34 17 17 34 17 17 34 17 17 34 17 17 34 17 17 34 17 17 34 17 17 34 17 17 34 17 17 34 17 17 34 17 17 34 17 17 34 17 17 34 17 17 34 17 17 34 17 17 34 17 17 34 17 17 34
51 68 85 51 68 85 51 68 85 51 68 85 51 68 85 51 68 85 51 68 85 51 68 85 51 68 85 51 68 85 51 68 85 51 68 85 51 68 85 51 68 85 51 68 85 51 68 85 51 68 85 51 68 85 51 68 85 51 68 85 51 68 85 51 68 85 51 68 85 51 68 85 51 68 85 51 68 85 51 68 85 51 68 85 51 68 85 51 68 85 51 68 85 51 68 85 51 68 85 51 68 85 51 68 85 51 68 85 51 68 85 51 68 85 51 68 85 51 68 85 51 68 85 51 68 85 51 68 85 51 68 85 51 68 85 51 68 85 51 68 85 51 68 85 51 68 85 51 68 85 51 68 85 51 68 85 51 68 85 51 68 85 51 68 85 51 68 85 51 68 85 51 68 85 51 68 85 51 68 85 51 68 85 51 68 85 51 68 85 51 68 85 51 68 85 51 68 85 51 68 85 51 68 85 51 68 85 51 68 85 51 68 85 51 68 85 51 68 85 51 68 85 51 68 85 51 68 85 51 68 85 51 68 85 51 68 85 51 68 85 51 68 85 51 68 85 17 17 34 17 17 34 17 17 34 17 17 34 17 17 34 17 17 34 17 17 34 17 17 34 17 17 34 17 17 34 17 17 34 17 17 34 17 17 34 17 17 34 17 17 34 17 17 34 17 17 34 17 17 34 17 17 34 17 17 34 17 17 34 17 17 34 17 17 34 17 17 34 17 17 34 17 17 34 17 17 34 17 17 34 17 17 34 17 17 34 17 17 34 17 17 34 17 17 34 17 17 34 17 17 34 17 17 34 17 17 34 17 17 34 17 17 34 17 17 34 17 17 34 17 17 34 17 17 34 17 17 34 17 17 34 17 17 34 17 17 34 17 17 34 17 17 34 17 17 34 17 17 34 17 17 34 17 17 34 17 17 34 17 17 34 17 17 34 17 17 34 17 17 34 17 17 34 17 17 34 17 17 34 17 17 34 17 17 34 17 17 34 17 17 34 17 17 34 17 17 34 17 17 34 17 17 34 17 17 34 17 17 34 17 17 34 17 17 34 17 17 34 17 17 34 17 17 34 17 17 34 17 17 34 17 17 34 17 17 34 17 17 34 17 17 34 17 17 34 17 17 34 17 17 34 17 17 34 17 17 34 17 17 34 17 17 34 17 17 34 17 17 34 17 17 34 17 17 34 17 17 34 17 17 34 17 17 34 17 17 34 17 17 34 17 17 34 17 17 34 17 17 34 17 17 34 17 17 34 17 17 34 17 17 34 17 17 34 17 17 34 17 17 34 17 17 34 17 17 34 17 17 34 17 17 34 17 17 34 17 17 34 17 17 34 17 17 34 17 17 34 17 17 34 17 17 34 17 17 34 17 17 34 17 17 34 17 17 34 17 17 34 17 17 34 17 17 34 17 17 34 17 17 34 17 17 34 17 17 34 255 170 34 255 170 34 255 170 34 255 170 34 255 170 34 255 170 34 255 170 34 255 170 34 255 170 34 255 170 34 17 17 34 17 17 34 17 17 34 17 17 34 17 17 34 17 17 34 17 17 34 17 17 34 17 17 34 17 17 34 17 17 34 17 17 34 17 17 34 17 17 34 17 17 34 17 17 34 17 17 34 17 17 34 17 17 34 17 17 34 17 17 34 17 17 34 17 17 34 17 17 34 17 17 34 17 17 34 17 17 34 17 17 34 17 17 34 17 17 34 17 17 34 17 17 34 17 17 34 17 17 34 17 17 34 17 17 34 17 17 34 17 17 34 17 17 34 17 17 34 17 17 34 17 17 34 17 17 34 17 17 34 17 17 34 17 17 34 17 17 34 17 17 34 17 17 34 17 17 34 17 17 34 17 17 34 17 17 34 17 17 34 17 17 34 17 17 34 17 17 34 17 17 34 17 17 34 17 17 34 17 17 34 17 17 34 17 17 34 17 17 34 17 17 34 17 17 34 17 17 34 17 17 34 17 17 34 17 17 34 17 17 34 17 17 34 17 17 34 17 17 34 17 17 34 17 17 34 17 17 34 17 17 34 17 17 34 17 17 34 17 17 34 17 17 34 17 17 34 17 17 34 17 17 34 17 17 34 17 17 34 17 17 34 17 17 34 17 17 34 17 17 34 17 17 34 17 17 34 17 17 34 17 17 34 17 17 34 17 17 34 17 17 34
51 68 85 51 68 85 51 68 85 51 68 85 51 68 85 51 68 85 51 68 85 51 68 85 51 68 85 51 68 85 51 68 85 51 68 85 51 68 85 51 68 85 51 68 85 51 68 85 51 68 85 51 68 85 51 68 85 51 68 85 51 68 85 51 68 85 51 68 85 51 68 85 51 68 85 51 68 85 51 68 85 51 68 85 51 68 85 51 68 85 51 68 85 51 68 85 51 68 85 51 68 85 51 68 85 51 68 85 51 68 85 51 68 85 51 68 85 51 68 85 51 68 85 51 68 85 51 68 85 51 68 85 51 68 85 51 68 85 51 68 85 51 68 85 51 68 85 51 68 85 51 68 85 51 68 85 51 68 85 51 68 85 51 68 85 51 68 85 51 68 85 51 68 85 51 68 85 51 68 85 51 68 85 51 68 85 51 68 85 51 68 85 51 68 85 51 68 85 51 68 85 51 68 85 51 68 85 51 68 85 51 68 85 51 68 85 51 68 85 51 68 85 51 68 85 51 68 85 51 68 85 51 68 85 51 68 85 51 68 85 51 68 85 51 68 85 17 17 34 17 17 34 17 17 34 17 17 34 17 17 34 17 17 34 17 17 34 17 17 34 17 17 34 17 17 34 17 17 34 17 17 34 17 17 34 17 17 34 17 17 34 17 17 34 17 17 34 17 17 34 17 17 34 17 17 34 17 17 34 17 17 34 17 17 34 17 17 34 17 17 34 17 17 34 17 17 34 17 17 34 17 17 34 17 17 34 17 17 34 17 17 34 17 17 34 17 17 34 17 17 34 17 17 34 17 17 34 17 17 34 17 17 34 17 17 34 17 17 34 17 17 34 17 17 34 17 17 34 17 17 34 17 17 34 17 17 34 17 17 34 17 17 34 17 17 34 17 17 34 17 17 34 17 17 34 17 17 34 17 17 34 17 17 34 17 17 34 17 17 34 17 17 34 17 17 34 17 17 34 17 17 34 17 17 34 17 17 34 17 17 34 17 17 34 17 17 34 17 17 34 17 17 34 17 17 34 17 17 34 17 17 34 17 17 34 17 17 34 17 17 34 17 17 34 17 17 34 17 17 34 17 17 34 17 17 34 17 17 34 17 17 34 17 17 34 17 17 34 17 17 34 17 17 34 17 17 34 17 17 34 17 17 34 17 17 34 17 17 34 17 17 34 17 17 34 17 17 34 17 17 34 17 17 34 17 17 34 17 17 34 17 17 34 17 17 34 17 17 34 17 17 34 17 17 34 17 17 34 17 17 34 17 17 34 17 17 34 17 17 34 17 17 34 17 17 34 17 17 34 17 17 34 17 17 34 17 17 34 17 17 34 17 17 34 17 17 34 17 17 34 17 17 34 17 17 34 17 17 34 17 17 34 17 17 34 17 17 34 17 17 34 17 17 34 17 17 34 17 17 34 17 17 34 17 17 34 255 170 34 255 170 34 255 170 34 255 170 34 255 170 34 255 170 34 255 170 34 255 170 34 255 170 34 255 170 34 17 17 34 17 17 34 17 17 34 17 17 34 17 17 34 17 17 34 17 17 34 17 17 34 17 17 34 17 17 34 17 17 34 17 17 34 17 17 34 17 17 34 17 17 34 17 17 34 17 17 34 17 17 34 17 17 34 17 17 34 17 17 34 17 17 34 17 17 34 17 17 34 17 17 34 17 17 34 17 17 34 17 17 34 17 17 34 17 17 34 17 17 34 17 17 34 17 17 34 17 17 34 17 17 34 17 17 34 17 17 34 17 17 34 17 17 34 17 17 34 17 17 34 17 17 34 17 17 34 17 17 34 17 17 34 17 17 34 17 17 34 17 17 34 17 17 34 17 17 34 17 17 34 17 17 34 17 17 34 17 17 34 17 17 34 17 17 34 17 17 34 17 17 34 17 17 34 17 17 34 17 17 34 17 17 34 17 17 34 17 17 34 17 17 34 17 17 34 17 17 34 17 17 34 17 17 34 17 17 34 17 17 34 17 17 34 17 17 34 17 17 34 17 17 34 17 17 34 17 17 34 17 17 34 17 17 34 17 17 34 17 17 34 17 17 34 17 17 34 17 17 34 17 17 34 17 17 34 17 17 34 17 17 34 17 17 34 17 17 34 17 17 34 17 17 34 17 17 34 17 17 34 17 17 34 17 17 34 17 17 34 17 17 34
51 68 85 51 68 85 51 68 85 51 68 85 85 102 119 85 102 119 85 102 119 85 102 119 85 102 119 85 102 119 85 102 119 85 102 119 85 102 119 85 102 119 85 102 119 85 102 119 85 102 119 85 102 119 85 102 119 85 102 119 85 102 119 85 102 119 85 102 119 85 102 119 85 102 119 85 102 119 85 102 119 85 102 119 85 102 119 85 102 119 85 102 119 85 102 119 85 102 119 85 102 119 85 102 119 85 102 119 85 102 119 85 102 119 85 102 119 85 102 119 85 102 119 85 102 119 85 102 119 85 102 119 85 102 119 85 102 119 85 102 119 85 102 119 85 102 119 85 102 119 85 102 119 85 102 119 85 102 119 85 102 119 85 102 119 85 102 119 85 102 119 85 102 119 85 102 119 85 102 119 85 102 119 85 102 119 85 102 119 85 102 119 85 102 119 85 102 119 85 102 119 85 102 119 85 102 119 85 102 119 85 102 119 85 102 119 85 102 119 85 102 119 51 68 85 51 68 85 51 68 85 51 68 85 51 68 85 51 68 85 51 68 85 51 68 85 17 17 34 17 17 34 17 17 34 17 17 34 17 17 34 17 17 34 17 17 34 17 17 34 17 17 34 17 17 34 17 17 34 17 17 34 17 17 34 17 17 34 17 17 34 17 17 34 17 17 34 17 17 34 17 17 34 17 17 34 17 17 34 17 17 34 17 17 34 17 17 34 17 17 34 17 17 34 17 17 34 17 17 34 17 17 34 17 17 34 17 17 34 17 17 34 17 17 34 17 17 34 17 17 34 17 17 34 17 17 34 17 17 34 17 17 34 17 17 34 17 17 34 17 17 34 17 17 34 17 17 34 17 17 34 17 17 34 17 17 34 17 17 34 17 17 34 17 17 34 17 17 34 17 17 34 17 17 34 17 17 34 17 17 34 17 17 34 17 17 34 17 17 34 17 17 34 17 17 34 17 17 34 17 17 34 17 17 34 17 17 34 17 17 34 17 17 34 17 17 34 17 17 34 17 17 34 17 17 34 17 17 34 17 17 34 17 17 34 17 17 34 17 17 34 17 17 34 17 17 34 17 17 34 17 17 34 17 17 34 17 17 34 17 17 34 17 17 34 17 17 34 17 17 34 17 17 34 17 17 34 17 17 34 17 17 34 17 17 34 17 17 34 17 17 34 17 17 34 17 17 34 17 17 34 17 17 34 17 17 34 17 17 34 17 17 34 17 17 34 17 17 34 17 17 34 17 17 34 17 17 34 17 17 34 17 17 34 17 17 34 17 17 34 17 17 34 17 17 34 17 17 34 17 17 34 17 17 34 17 17 34 17 17 34 17 17 34 17 17 34 17 17 34 17 17 34 17 17 34 17 17 34 17 17 34 17 17 34 17 17 34 17 17 34 17 17 34 17 17 34 17 17 34 17 17 34 17 17 34 17 17 34 17 17 34 221 51 68 221 51 68 221 51 68 221 51 68 221 51 68 221 51 68 17 17 34 17 17 34 17 17 34 17 17 34 17 17 34 17 17 34 17 17 34 17 17 34 17 17 34 17 17 34 17 17 34 17 17 34 17 17 34 17 17 34 17 17 34 17 17 34 17 17 34 17 17 34 17 17 34 17 17 34 17 17 34 17 17 34 17 17 34 17 17 34 17 17 34 17 17 34 17 17 34 17 17 34 17 17 34 17 17 34 17 17 34 17 17 34 17 17 34 17 17 34 17 17 34 17 17 34 17 17 34 17 17 34 17 17 34 17 17 34 17 17 34 17 17 34 17 17 34 17 17 34 17 17 34 17 17 34 17 17 34 17 17 34 17 17 34 17 17 34 17 17 34 17 17 34 17 17 34 17 17 34 17 17 34 17 17 34 17 17 34 17 17 34 17 17 34 17 17 34 17 17 34 17 17 34 17 17 34 17 17 34 17 17 34 17 17 34 17 17 34 17 17 34 17 17 34 17 17 34 17 17 34 17 17 34 17 17 34 17 17 34 17 17 34 17 17 34 17 17 34 17 17 34 17 17 34 17 17 34 17 17 34 17 17 34 17 17 34 17 17 34 17 17 34 17 17 34 17 17 34 17 17 34 17 17 34 17 17 34 17 17 34 17 17 34 17 17 34 17 17 34 17 17 34 17 17 34 17 17 34 17 17 34 17 17 34 17 17 34
51 68 85 51 68 85 51 68 85 51 68 85 85 102 119 85 102 119 85 102 119 85 102 119 85 102 119 85 102 119 85 102 119 85 102 119 85 102 119 85 102 119 85 102 119 85 102 119 85 102 119 85 102 119 85 102 119 85 102 119 85 102 119 85 102 119 85 102 119 85 102 119 85 102 119 85 102 119 85 102 119 85 102 119 85 102 119 85 102 119 85 102 119 85 102 119 85 102 119 85 102 119 85 102 119 85 102 119 85 102 119 85 102 119 85 102 119 85 102 119 85 102 119 85 102 119 85 102 119 85 102 119 85 102 119 85 102 119 85 102 119 85 102 119 85 102 119 85 102 119 85 102 119 85 102 119 85 102 119 85 102 119 85 102 119 85 102 119 85 102 119 85 102 119 85 102 119 85 102 119 85 102 119 85 102 119 85 102 119 85 102 119 85 102 119 85 102 119 85 102 119 85 102 119 85 102 119 85 102 119 85 102 119 85 102 119 85 102 119 85 102 119 51 68 85 51 68 85 51 68 85 51 68 85 51 68 85 51 68 85 51 68 85 51 68 85 17 17 34 17 17 34 17 17 34 17 17 34 17 17 34 17 17 34 17 17 34 17 17 34 17 17 34 17 17 34 17 17 34 17 17 34 17 17 34 17 17 34 17 17 34 17 17 34 17 17 34 17 17 34 17 17 34 17 17 34 17 17 34 17 17 34 17 17 34 17 17 34 17 17 34 17 17 34 17 17 34 17 17 34 17 17 34 17 17 34 17 17 34 17 17 34 17 17 34 17 17 34 17 17 34 17 17 34 17 17 34 17 17 34 17 17 34 17 17 34 17 17 34 17 17 34 17 17 34 17 17 34 17 17 34 17 17 34 17 17 34 17 17 34 17 17 34 17 17 34 17 17 34 17 17 34 17 17 34 17 17 34 17 17 34 17 17 34 17 17 34 17 17 34 17 17 34 17 17 34 17 17 34 17 17 34 17 17 34 17 17 34 17 17 34 17 17 34 17 17 34 17 17 34 17 17 34 17 17 34 17 17 34 17 17 34 17 17 34 17 17 34 17 17 34 17 17 34 17 17 34 17 17 34 17 17 34 17 17 34 17 17 34 17 17 34 17 17 34 17 17 34 17 17 34 17 17 34 17 17 34 17 17 34 17 17 34 17 17 34 17 17 34 17 17 34 17 17 34 17 17 34 17 17 34 17 17 34 17 17 34 17 17 34 17 17 34 17 17 34 17 17 34 17 17 34 17 17 34 17 17 34 17 17 34 17 17 34 17 17 34 17 17 34 17 17 34 17 17 34 17 17 34 17 17 34 17 17 34 17 17 34 17 17 34 17 17 34 17 17 34 17 17 34 17 17 34 17 17 34 17 17 34 17 17 34 17 17 34 17 17 34 17 17 34 17 17 34 17 17 34 17 17 34 17 17 34 17 17 34 17 17 34 17 17 34 221 51 68 221 51 68 221 51 68 221 51 68 221 51 68 221 51 68 17 17 34 17 17 34 17 17 34 17 17 34 17 17 34 17 17 34 17 17 34 17 17 34 17 17 34 17 17 34 17 17 34 17 17 34 17 17 34 17 17 34 17 17 34 17 17 34 17 17 34 17 17 34 17 17 34 17 17 34 17 17 34 17 17 34 17 17 34 17 17 34 17 17 34 17 17 34 17 17 34 17 17 34 17 17 34 17 17 34 17 17 34 17 17 34 17 17 34 17 17 34 17 17 34 17 17 34 17 17 34 17 17 34 17 17 34 17 17 34 17 17 34 17 17 34 17 17 34 17 17 34 17 17 34 17 17 34 17 17 34 17 17 34 17 17 34 17 17 34 17 17 34 17 17 34 17 17 34 17 17 34 17 17 34 17 17 34 17 17 34 17 17 34 17 17 34 17 17 34 17 17 34 17 17 34 17 17 34 17 17 34 17 17 34 17 17 34 17 17 34 17 17 34 17 17 34 17 17 34 17 17 34 17 17 34 17 17 34 17 17 34 17 17 34 17 17 34 17 17 34 17 17 34 17 17 34 17 17 34 17 17 34 17 17 34 17 17 34 17 17 34 17 17 34 17 17 34 17 17 34 17 17 34 17 17 34 17 17 34 17 17 34 17 17 34 17 17 34 17 17 34 17 17 34 17 17 34 17 17 34 17 17 34 17 17 34 17 17 34
51 68 85 51 68 85 51 68 85 51 68 85 85 102 119 85 102 119 85 102 119 85 102 119 85 102 119 85 102 119 85 102 119 85 102 119 85 102 119 85 102 119 85 102 119 85 102 119 85 102 119 85 102 119 85 102 119 85 102 119 85 102 119 85 102 119 85 102 119 85 102 119 85 102 119 85 102 119 85 102 119 85 102 119 85 102 119 85 102 119 85 102 119 85 102 119 85 102 119 85 102 119 85 102 119 85 102 119 85 102 119 85 102 119 85 102 119 85 102 119 85 102 119 85 102 119 85 102 119 85 102 119 85 102 119 85 102 119 85 102 119 85 102 119 85 102 119 85 102 119 85 102 119 85 102 119 85 102 119 85 102 119 85 102 119 85 102 119 85 102 119 85 102 119 85 102 119 85 102 119 85 102 119 85 102 119 85 102 119 85 102 119 85 102 119 85 102 119 85 102 119 85 102 119 85 102 119 85 102 119 85 102 119 85 102 119 85 102 119 85 102 119 51 68 85 51 68 85 51 68 85 51 68 85 51 68 85 51 68 85 51 68 85 51 68 85 17 17 34 17 17 34 17 17 34 17 17 34 17 17 34 17 17 34 17 17 34 17 17 34 17 17 34 17 17 34 17 17 34 17 17 34 17 17 34 17 17 34 17 17 34 17 17 34 17 17 34 17 17 34 17 17 34 17 17 34 17 17 34 17 17 34 17 17 34 17 17 34 17 17 34 17 17 34 17 17 34 17 17 34 17 17 34 17 17 34 17 17 34 17 17 34 17 17 34 17 17 34 17 17 34 17 17 34 17 17 34 17 17 34 17 17 34 17 17 34 17 17 34 17 17 34 17 17 34 17 17 34 17 17 34 17 17 34 17 17 34 17 17 34 17 17 34 17 17 34 17 17 34 17 17 34 17 17 34 17 17 34 17 17 34 17 17 34 17 17 34 17 17 34 17 17 34 17 17 34 17 17 34 17 17 34 17 17 34 17 17 34 17 17 34 17 17 34 17 17 34 17 17 34 17 17 34 17 17 34 17 17 34 17 17 34 17 17 34 17 17 34 17 17 34 17 17 34 17 17 34 17 17 34 17 17 34 17 17 34 17 17 34 17 17 34 17 17 34 17 17 34 17 17 34 17 17 34 17 17 34 17 17 34 17 17 34 17 17 34 17 17 34 17 17 34 17 17 34 17 17 34 17 17 34 17 17 34 17 17 34 17 17 34 17 17 34 17 17 34 17 17 34 17 17 34 17 17 34 17 17 34 17 17 34 17 17 34 17 17 34 17 17 34 17 17 34 17 17 34 17 17 34 17 17 34 17 17 34 17 17 34 17 17 34 17 17 34 17 17 34 17 17 34 17 17 34 17 17 34 17 17 34 17 17 34 17 17 34 17 17 34 17 17 34 17 17 34 17 17 34 17 17 34 17 17 34 17 17 34 17 17 34 17 17 34 17 17 34 17 17 34 17 17 34 17 17 34 17 17 34 17 17 34 17 17 34 17 17 34 17 17 34 17 17 34 17 17 34 17 17 34 17 17 34 17 17 34 17 17 34 17 17 34 17 17 34 17 17 34 17 17 34 17 17 34 17 17 34 17 17 34 17 17 34 17 17 34 17 17 34 17 17 34 17 17 34 17 17 34 17 17 34 17 17 34 17 17 34 17 17 34 17 17 34 17 17 34 17 17 34 17 17 34 17 17 34 17 17 34 17 17 34 17 17 34 17 17 34 17 17 34 17 17 34 17 17 34 17 17 34 17 17 34 17 17 34 17 17 34 17 17 34 17 17 34 17 17 34 17 17 34 17 17 34 17 17 34 17 17 34 17 17 34 17 17 34 17 17 34 17 17 34 17 17 34 17 17 34 17 17 34 17 17 34 17 17 34 17 17 34 17 17 34 17 17 34 17 17 34 17 17 34 17 17 34 17 17 34 17 17 34 17 17 34 17 17 34 17 17 34 17 17 34 17 17 34 17 17 34 17 17 34 17 17 34 17 17 34 17 17 34 17 17 34 17 17 34 17 17 34 17 17 34 17 17 34 17 17 34 17 17 34 17 17 34 17 17 34 17 17 34 17 17 34 17 17 34 17 17 34 17 17 34 17 17 34 17 17 34 17 17 34 17 17 34 17 17 34 17 17 34 17 17 34 17 17 34 17 17 34 17 17 34
51 68 85 51 68 85 51 68 85 51 68 85 85 102 119 85 102 119 85 102 119 85 102 119 85 102 119 85 102 119 85 102 119 85 102 119 85 102 119 85 102 119 85 102 119 85 102 119 85 102 119 85 102 119 85 102 119 85 102 119 85 102 119 85 102 119 85 102 119 85 102 119 85 102 119 85 102 119 85 102 119 85 102 119 85 102 119 85 102 119 85 102 119 85 102 119 85 102 119 85 102 119 85 102 119 85 102 119 85 102 119 85 102 119 85 102 119 85 102 119 85 102 119 85 102 119 85 102 119 85 102 119 85 102 119 85 102 119 85 102 119 85 102 119 85 102 119 85 102 119 85 102 119 85 102 119 85 102 119 85 102 119 85 102 119 85 102 119 85 102 119 85 102 119 85 102 119 85 102 119 85 102 119 85 102 119 85 102 119 85 102 119 85 102 119 85 102 119 85 102 119 85 102 119 85 102 119 85 102 119 85 102 119 85 102 119 85 102 119 85 102 119 51 68 85 51 68 85 51 68 85 51 68 85 51 68 85 51 68 85 51 68 85 51 68 85 17 17 34 17 17 34 17 17 34 17 17 34 17 17 34 17 17 34 17 17 34 17 17 34 17 17 34 17 17 34 17 17 34 17 17 34 17 17 34 17 17 34 17 17 34 17 17 34 17 17 34 17 17 34 17 17 34 17 17 34 17 17 34 17 17 34 17 17 34 17 17 34 17 17 34 17 17 34 17 17 34 17 17 34 17 17 34 17 17 34 17 17 34 17 17 34 17 17 34 17 17 34 17 17 34 17 17 34 17 17 34 17 17 34 17 17 34 17 17 34 17 17 34 17 17 34 17 17 34 17 17 34 17 17 34 17 17 34 17 17 34 17 17 34 17 17 34 17 17 34 17 17 34 17 17 34 17 17 34 17 17 34 17 17 34 17 17 34 17 17 34 17 17 34 17 17 34 17 17 34 17 17 34 17 17 34 17 17 34 17 17 34 17 17 34 17 17 34 17 17 34 17 17 34 17 17 34 17 17 34 17 17 34 17 17 34 17 17 34 17 17 34 17 17 34 17 17 34 17 17 34 17 17 34 17 17 34 17 17 34 17 17 34 17 17 34 17 17 34 17 17 34 17 17 34 17 17 34 17 17 34 17 17 34 17 17 34 17 17 34 17 17 34 17 17 34 17 17 34 17 17 34 17 17 34 17 17 34 17 17 34 17 17 34 17 17 34 17 17 34 17 17 34 17 17 34 17 17 34 17 17 34 17 17 34 17 17 34 17 17 34 17 17 34 17 17 34 17 17 34 17 17 34 17 17 34 17 17 34 17 17 34 17 17 34 17 17 34 17 17 34 17 17 34 17 17 34 17 17 34 17 17 34 17 17 34 17 17 34 17 17 34 17 17 34 17 17 34 17 17 34 17 17 34 17 17 34 17 17 34 17 17 34 17 17 34 17 17 34 17 17 34 17 17 34 17 17 34 17 17 34 17 17 34 17 17 34 17 17 34 17 17 34 17 17 34 17 17 34 17 17 34 17 17 34 17 17 34 17 17 34 17 17 34 17 17 34 17 17 34 17 17 34 17 17 34 17 17 34 17 17 34 17 17 34 17 17 34 17 17 34 17 17 34 17 17 34 17 17 34 17 17 34 17 17 34 17 17 34 17 17 34 17 17 34 17 17 34 17 17 34 17 17 34 17 17 34 17 17 34 17 17 34 17 17 34 17 17 34 17 17 34 17 17 34 17 17 34 17 17 34 17 17 34 17 17 34 17 17 34 17 17 34 17 17 34 17 17 34 17 17 34 17 17 34 17 17 34 17 17 34 17 17 34 17 17 34 17 17 34 17 17 34 17 17 34 17 17 34 17 17 34 17 17 34 17 17 34 17 17 34 17 17 34 17 17 34 17 17 34 17 17 34 17 17 34 17 17 34 17 17 34 17 17 34 17 17 34 17 17 34 17 17 34 17 17 34 17 17 34 17 17 34 17 17 34 17 17 34 17 17 34 17 17 34 17 17 34 17 17 34 17 17 34 17 17 34 17 17 34 17 17 34 17 17 34 17 17 34 17 17 34 17 17 34 17 17 34 17 17 34 17 17 34 17 17 34 17 17 34 17 17 34 17 17 34 17 17 34 17 17 34 17 17 34 17 17 34 17 17 34 17 17 34
51 68 85 51 68 85 51 68 85 51 68 85 85 102 119 85 102 119 85 102 119 85 102 119 85 102 119 85 102 119 85 102 119 85 102 119 85 102 119 85 102 119 85 102 119 85 102 119 85 102 119 85 102 119 85 102 119 85 102 119 85 102 119 85 102 119 85 102 119 85 102 119 85 102 119 85 102 119 85 102 119 85 102 119 85 102 119 85 102 119 85 102 119 85 102 119 85 102 119 85 102 119 85 102 119 85 102 119 85 102 119 85 102 119 85 102 119 85 102 119 85 102 119 85 102 119 85 102 119 85 102 119 85 102 119 85 102 119 85 102 119 85 102 119 85 102 119 85 102 119 85 102 119 85 102 119 85 102 119 85 102 119 85 102 119 85 102 119 85 102 119 85 102 119 85 102 119 85 102 119 85 102 119 85 102 119 85 102 119 85 102 119 85 102 119 85 102 119 85 102 119 85 102 119 85 102 119 85 102 119 85 102 119 85 102 119 85 102 119 85 102 119 51 68 85 51 68 85 51 68 85 51 68 85 51 68 85 51 68 85 51 68 85 51 68 85 17 17 34 17 17 34 17 17 34 17 17 34 17 17 34 17 17 34 17 17 34 17 17 34 17 17 34 17 17 34 17 17 34 17 17 34 17 17 34 17 17 34 17 17 34 17 17 34 17 17 34 17 17 34 17 17 34 17 17 34 17 17 34 17 17 34 17 17 34 17 17 34 17 17 34 17 17 34 17 17 34 17 17 34 17 17 34 17 17 34 17 17 34 17 17 34 17 17 34 17 17 34 17 17 34 17 17 34 17 17 34 17 17 34 17 17 34 17 17 34 17 17 34 17 17 34 17 17 34 17 17 34 17 17 34 17 17 34 17 17 34 17 17 34 17 17 34 17 17 34 17 17 34 17 17 34 17 17 34 17 17 34 17 17 34 17 17 34 17 17 34 17 17 34 17 17 34 17 17 34 17 17 34 17 17 34 17 17 34 17 17 34 17 17 34 17 17 34 17 17 34 17 17 34 17 17 34 17 17 34 17 17 34 17 17 34 17 17 34 17 17 34 17 17 34 17 17 34 17 17 34 17 17 34 17 17 34 17 17 34 17 17 34 17 17 34 17 17 34 17 17 34 17 17 34 17 17 34 17 17 34 17 17 34 17 17 34 17 17 34 17 17 34 17 17 34 17 17 34 17 17 34 17 17 34 17 17 34 17 17 34 17 17 34 17 17 34 17 17 34 17 17 34 17 17 34 17 17 34 17 17 34 17 17 34 17 17 34 17 17 34 17 17 34 17 17 34 17 17 34 17 17 34 17 17 34 17 17 34 17 17 34 17 17 34 17 17 34 17 17 34 17 17 34 17 17 34 17 17 34 17 17 34 17 17 34 17 17 34 17 17 34 17 17 34 17 17 34 17 17 34 17 17 34 17 17 34 17 17 34 17 17 34 17 17 34 17 17 34 17 17 34 17 17 34 17 17 34 17 17 34 17 17 34 17 17 34 17 17 34 17 17 34 17 17 34 17 17 34 17 17 34 17 17 34 17 17 34 17 17 34 17 17 34 17 17 34 17 17 34 17 17 34 17 17 34 17 17 34 17 17 34 17 17 34 17 17 34 51 68 85 51 68 85 51 68 85 51 68 85 51 68 85 51 68 85 51 68 85 51 68 85 51 68 85 51 68 85 51 68 85 51 68 85 51 68 85 51 68 85 51 68 85 51 68 85 51 68 85 51 68 85 51 68 85 51 68 85 51 68 85 51 68 85 51 68 85 51 68 85 51 68 85 51 68 85 51 68 85 51 68 85 51 68 85 51 68 85 51 68 85 51 68 85 51 68 85 51 68 85 51 68 85 51 68 85 51 68 85 51 68 85 51 68 85 51 68 85 51 68 85 51 68 85 51 68 85 51 68 85 51 68 85 51 68 85 51 68 85 51 68 85 51 68 85 51 68 85 51 68 85 51 68 85 51 68 85 51 68 85 51 68 85 51 68 85 51 68 85 51 68 85 51 68 85 51 68 85 51 68 85 51 68 85 51 68 85 51 68 85 51 68 85 51 68 85 51 68 85 51 68 85 51 68 85 51 68 85 51 68 85 51 68 85 51 68 85 51 68 85 51 68 85 51 68 85 51 68 85 51 68 85 51 68 85 51 68 85 51 68 85 51 68 85
51 68 85 51 68 85 51 68 85 51 68 85 85 102 119 85 102 119 85 102 119 85 102 119 85 102 119 85 102 119 85 102 119 85 102 119 85 102 119 85 102 119 85 102 119 85 102 119 85 102 119 85 102 119 85 102 119 85 102 119 85 102 119 85 102 119 85 102 119 85 102 119 85 102 119 85 102 119 85 102 119 85 102 119 85 102 119 85 102 119 85 102 119 85 102 119 85 102 119 85 102 119 85 102 119 85 102 119 85 102 119 85 102 119 85 102 119 85 102 119 85 102 119 85 102 119 85 102 119 85 102 119 85 102 119 85 102 119 85 102 119 85 102 119 85 102 119 85 102 119 85 102 119 85 102 119 85 102 119 85 102 119 85 102 119 85 102 119 85 102 119 85 102 119 85 102 119 85 102 119 85 102 119 85 102 119 85 102 119 85 102 119 85 102 119 85 102 119 85 102 119 85 102 119 85 102 119 85 102 119 85 102 119 85 102 119 85 102 119 85 102 119 51 68 85 51 68 85 51 68 85 51 68 85 51 68 85 51 68 85 51 68 85 51 68 85 17 17 34 17 17 34 17 17 34 17 17 34 17 17 34 17 17 34 17 17 34 17 17 34 17 17 34 17 17 34 17 17 34 17 17 34 17 17 34 17 17 34 17 17 34 17 17 34 17 17 34 17 17 34 17 17 34 17 17 34 17 17 34 17 17 34 17 17 34 17 17 34 17 17 34 17 17 34 17 17 34 17 17 34 17 17 34 17 17 34 17 17 34 17 17 34 17 17 34 17 17 34 17 17 34 17 17 34 17 17 34 17 17 34 17 17 34 17 17 34 17 17 34 17 17 34 17 17 34 17 17 34 17 17 34 17 17 34 17 17 34 17 17 34 17 17 34 17 17 34 17 17 34 17 17 34 17 17 34 17 17 34 17 17 34 17 17 34 17 17 34 17 17 34 17 17 34 17 17 34 17 17 34 17 17 34 17 17 34 17 17 34 17 17 34 17 17 34 17 17 34 17 17 34 17 17 34 17 17 34 17 17 34 17 17 34 17 17 34 17 17 34 17 17 34 17 17 34 17 17 34 17 17 34 17 17 34 17 17 34 17 17 34 17 17 34 17 17 34 17 17 34 17 17 34 17 17 34 17 17 34 17 17 34 17 17 34 17 17 34 17 17 34 17 17 34 17 17 34 17 17 34 17 17 34 17 17 34 17 17 34 17 17 34 17 17 34 17 17 34 17 17 34 17 17 34 17 17 34 17 17 34 17 17 34 17 17 34 17 17 34 17 17 34 17 17 34 17 17 34 17 17 34 17 17 34 17 17 34 17 17 34 17 17 34 17 17 34 17 17 34 17 17 34 17 17 34 17 17 34 17 17 34 17 17 34 17 17 34 17 17 34 17 17 34 17 17 34 17 17 34 17 17 34 17 17 34 17 17 34 17 17 34 17 17 34 17 17 34 17 17 34 17 17 34 17 17 34 17 17 34 17 17 34 17 17 34 17 17 34 17 17 34 17 17 34 17 17 34 17 17 34 17 17 34 17 17 34 17 17 34 17 17 34 17 17 34 17 17 34 17 17 34 17 17 34 17 17 34 17 17 34 17 17 34 17 17 34 51 68 85 51 68 85 51 68 85 51 68 85 51 68 85 51 68 85 51 68 85 51 68 85 51 68 85 51 68 85 51 68 85 51 68 85 51 68 85 51 68 85 51 68 85 51 68 85 51 68 85 51 68 85 51 68 85 51 68 85 51 68 85 51 68 85 51 68 85 51 68 85 51 68 85 51 68 85 51 68 85 51 68 85 51 68 85 51 68 85 51 68 85 51 68 85 51 68 85 51 68 85 51 68 85 51 68 85 51 68 85 51 68 85 51 68 85 51 68 85 51 68 85 51 68 85 51 68 85 51 68 85 51 68 85 51 68 85 51 68 85 51 68 85 51 68 85 51 68 85 51 68 85 51 68 85 51 68 85 51 68 85 51 68 85 51 68 85 51 68 85 51 68 85 51 68 85 51 68 85 51 68 85 51 68 85 51 68 85 51 68 85 51 68 85 51 68 85 51 68 85 51 68 85 51 68 85 51 68 85 51 68 85 51 68 85 51 68 85 51 68 85 51 68 85 51 68 85 51 68 85 51 68 85 51 68 85 51 68 85 51 68 85 51 68 85
51 68 85 51 68 85 51 68 85 51 68 85 85 102 119 85 102 119 85 102 119 85 102 119 85 102 119 85 102 119 85 102 119 85 102 119 85 102 119 85 102 119 85 102 119 85 102 119 85 102 119 85 102 119 85 102 119 85 102 119 85 102 119 85 102 119 85 102 119 85 102 119 85 102 119 85 102 119 85 102 119 85 102 119 85 102 119 85 102 119 85 102 119 85 102 119 85 102 119 85 102 119 85 102 119 85 102 119 85 102 119 85 102 119 85 102 119 85 102 119 85 102 119 85 102 119 85 102 119 85 102 119 85 102 119 85 102 119 85 102 119 85 102 119 85 102 119 85 102 119 85 102 119 85 102 119 85 102 119 85 102 119 85 102 119 85 102 119 85 102 119 85 102 119 85 102 119 85 102 119 85 102 119 85 102 119 85 102 119 85 102 119 85 102 119 85 102 119 85 102 119 85 102 119 85 102 119 85 102 119 85 102 119 85 102 119 85 102 119 85 102 119 51 68 85 51 68 85 51 68 85 51 68 85 0 51 102 0 51 102 0 51 102 0 51 102 0 51 102 0 51 102 0 51 102 0 51 102 0 51 102 0 51 102 17 17 34 17 17 34 17 17 34 17 17 34 17 17 34 17 17 34 17 17 34 17 17 34 17 17 34 17 17 34 17 17 34 17 17 34 17 17 34 17 17 34 17 17 34 17 17 34 17 17 34 17 17 34 17 17 34 17 17 34 17 17 34 17 17 34 17 17 34 17 17 34 17 17 34 17 17 34 17 17 34 17 17 34 17 17 34 17 17 34 17 17 34 17 17 34 17 17 34 17 17 34 17 17 34 17 17 34 17 17 34 17 17 34 17 17 34 17 17 34 17 17 34 17 17 34 17 17 34 17 17 34 17 17 34 17 17 34 17 17 34 17 17 34 17 17 34 17 17 34 17 17 34 17 17 34 17 17 34 17 17 34 17 17 34 17 17 34 17 17 34 17 17 34 17 17 34 17 17 34 17 17 34 17 17 34 17 17 34 17 17 34 17 17 34 17 17 34 17 17 34 17 17 34 17 17 34 17 17 34 17 17 34 17 17 34 17 17 34 17 17 34 17 17 34 17 17 34 17 17 34 17 17 34 17 17 34 17 17 34 17 17 34 17 17 34 17 17 34 17 17 34 17 17 34 17 17 34 17 17 34 17 17 34 17 17 34 17 17 34 17 17 34 17 17 34 17 17 34 17 17 34 17 17 34 17 17 34 17 17 34 17 17 34 17 17 34 17 17 34 17 17 34 17 17 34 17 17 34 17 17 34 17 17 34 17 17 34 17 17 34 17 17 34 17 17 34 17 17 34 17 17 34 17 17 34 17 17 34 17 17 34 17 17 34 17 17 34 17 17 34 17 17 34 17 17 34 17 17 34 17 17 34 17 17 34 17 17 34 17 17 34 17 17 34 17 17 34 17 17 34 17 17 34 17 17 34 17 17 34 17 17 34 17 17 34 17 17 34 17 17 34 17 17 34 17 17 34 17 17 34 17 17 34 17 17 34 17 17 34 17 17 34 17 17 34 17 17 34 17 17 34 17 17 34 17 17 34 17 17 34 17 17 34 17 17 34 17 17 34 51 68 85 51 68 85 51 68 85 51 68 85 51 68 85 51 68 85 51 68 85 51 68 85 51 68 85 51 68 85 51 68 85 51 68 85 51 68 85 51 68 85 51 68 85 51 68 85 51 68 85 51 68 85 51 68 85 51 68 85 51 68 85 51 68 85 51 68 85 51 68 85 51 68 85 51 68 85 51 68 85 51 68 85 51 68 85 51 68 85 51 68 85 51 68 85 51 68 85 51 68 85 51 68 85 51 68 85 51 68 85 51 68 85 51 68 85 51 68 85 51 68 85 51 68 85 51 68 85 51 68 85 51 68 85 51 68 85 51 68 85 51 68 85 51 68 85 51 68 85 51 68 85 51 68 85 51 68 85 51 68 85 51 68 85 51 68 85 51 68 85 51 68 85 51 68 85 51 68 85 51 68 85 51 68 85 51 68 85 51 68 85 51 68 85 51 68 85 51 68 85 51 68 85 51 68 85 51 68 85 51 68 85 51 68 85 51 68 85 51 68 85 51 68 85 51 68 85 51 68 85 51 68 85 51 68 85 51 68 85 51 68 85 51 68 85
51 68 85 51 68 85 51 68 85 51 68 85 85 102 119 85 102 119 85 102 119 85 102 119 85 102 119 85 102 119 85 102 119 85 102 119 85 102 119 85 102 119 85 102 119 85 102 119 85 102 119 85 102 119 85 102 119 85 102 119 85 102 119 85 102 119 85 102 119 85 102 119 85 102 119 85 102 119 85 102 119 85 102 119 85 102 119 85 102 119 85 102 119 85 102 119 85 102 119 85 102 119 85 102 119 85 102 119 85 102 119 85 102 119 85 102 119 85 102 119 85 102 119 85 102 119 85 102 119 85 102 119 85 102 119 85 102 119 85 102 119 85 102 119 85 102 119 85 102 119 85 102 119 85 102 119 85 102 119 85 102 119 85 102 119 85 102 119 85 102 119 85 102 119 85 102 119 85 102 119 85 102 119 85 102 119 85 102 119 85 102 119 85 102 119 85 102 119 85 102 119 85 102 119 85 102 119 85 102 119 85 102 119 85 102 119 85 102 119 85 102 119 51 68 85 51 68 85 51 68 85 51 68 85 0 51 102 0 51 102 0 170 221 0 170 221 0 170 221 0 170 221 0 170 221 0 170 221 0 51 102 0 51 102 17 17 34 17 17 34 17 17 34 17 17 34 17 17 34 17 17 34 17 17 34 17 17 34 17 17 34 17 17 34 17 17 34 17 17 34 17 17 34 17 17 34 17 17 34 17 17 34 17 17 34 17 17 34 17 17 34 17 17 34 17 17 34 17 17 34 17 17 34 17 17 34 17 17 34 17 17 34 17 17 34 17 17 34 17 17 34 17 17 34 17 17 34 17 17 34 17 17 34 17 17 34 17 17 34 17 17 34 17 17 34 17 17 34 17 17 34 17 17 34 17 17 34 17 17 34 17 17 34 17 17 34 17 17 34 17 17 34 17 17 34 17 17 34 17 17 34 17 17 34 17 17 34 17 17 34 17 17 34 17 17 34 17 17 34 17 17 34 17 17 34 17 17 34 17 17 34 17 17 34 17 17 34 17 17 34 17 17 34 17 17 34 17 17 34 17 17 34 17 17 34 17 17 34 17 17 34 17 17 34 17 17 34 17 17 34 17 17 34 17 17 34 17 17 34 17 17 34 17 17 34 17 17 34 17 17 34 17 17 34 17 17 34 17 17 34 17 17 34 17 17 34 17 17 34 17 17 34 17 17 34 17 17 34 17 17 34 17 17 34 17 17 34 17 17 34 17 17 34 17 17 34 17 17 34 17 17 34 17 17 34 17 17 34 17 17 34 17 17 34 17 17 34 17 17 34 17 17 34 17 17 34 17 17 34 17 17 34 17 17 34 17 17 34 17 17 34 17 17 34 17 17 34 17 17 34 17 17 34 17 17 34 17 17 34 17 17 34 17 17 34 17 17 34 17 17 34 17 17 34 17 17 34 17 17 34 17 17 34 17 17 34 17 17 34 17 17 34 17 17 34 17 17 34 17 17 34 17 17 34 17 17 34 17 17 34 17 17 34 17 17 34 17 17 34 17 17 34 17 17 34 17 17 34 17 17 34 17 17 34 17 17 34 17 17 34 17 17 34 17 17 34 17 17 34 17 17 34 17 17 34 17 17 34 17 17 34 17 17 34 51 68 85 51 68 85 51 68 85 51 68 85 51 68 85 51 68 85 51 68 85 51 68 85 51 68 85 51 68 85 51 68 85 51 68 85 51 68 85 51 68 85 51 68 85 51 68 85 51 68 85 51 68 85 51 68 85 51 68 85 51 68 85 51 68 85 51 68 85 51 68 85 51 68 85 51 68 85 51 68 85 51 68 85 51 68 85 51 68 85 51 68 85 51 68 85 51 68 85 51 68 85 51 68 85 51 68 85 51 68 85 51 68 85 51 68 85 51 68 85 51 68 85 51 68 85 51 68 85 51 68 85 51 68 85 51 68 85 51 68 85 51 68 85 51 68 85 51 68 85 51 68 85 51 68 85 51 68 85 51 68 85 51 68 85 51 68 85 51 68 85 51 68 85 51 68 85 51 68 85 51 68 85 51 68 85 51 68 85 51 68 85 51 68 85 51 68 85 51 68 85 51 68 85 51 68 85 51 68 85 51 68 85 51 68 85 51 68 85 51 68 85 51 68 85 51 68 85 51 68 85 51 68 85 51 68 85 51 68 85 51 68 85 51 68 85
51 68 85 51 68 85 51 68 85 51 68 85 85 102 119 85 102 119 85 102 119 85 102 119 85 102 119 85 102 119 85 102 119 85 102 119 85 102 119 85 102 119 85 102 119 85 102 119 85 102 119 85 102 119 85 102 119 85 102 119 85 102 119 85 102 119 85 102 119 85 102 119 85 102 119 85 102 119 85 102 119 85 102 119 85 102 119 85 102 119 85 102 119 85 102 119 85 102 119 85 102 119 85 102 119 85 102 119 85 102 119 85 102 119 85 102 119 85 102 119 85 102 119 85 102 119 85 102 119 85 102 119 85 102 119 85 102 119 85 102 119 85 102 119 85 102 119 85 102 119 85 102 119 85 102 119 85 102 119 85 102 119 85 102 119 85 102 119 85 102 119 85 102 119 85 102 119 85 102 119 85 102 119 85 102 119 85 102 119 85 102 119 85 102 119 85 102 119 85 102 119 85 102 119 85 102 119 85 102 119 85 102 119 85 102 119 85 102 119 85 102 119 51 68 85 51 68 85 51 68 85 51 68 85 0 51 102 0 51 102 0 170 221 0 170 221 0 170 221 0 170 221 0 170 221 0 170 221 0 51 102 0 51 102 17 17 34 17 17 34 17 17 34 17 17 34 17 17 34 17 17 34 17 17 34 17 17 34 17 17 34 17 17 34 17 17 34 17 17 34 17 17 34 17 17 34 17 17 34 17 17 34 17 17 34 17 17 34 17 17 34 17 17 34 17 17 34 17 17 34 17 17 34 17 17 34 17 17 34 17 17 34 17 17 34 17 17 34 17 17 34 17 17 34 17 17 34 17 17 34 17 17 34 17 17 34 17 17 34 17 17 34 17 17 34 17 17 34 17 17 34 17 17 34 17 17 34 17 17 34 17 17 34 17 17 34 17 17 34 17 17 34 17 17 34 17 17 34 17 17 34 17 17 34 17 17 34 17 17 34 17 17 34 17 17 34 17 17 34 17 17 34 17 17 34 17 17 34 17 17 34 17 17 34 17 17 34 17 17 34 17 17 34 17 17 34 17 17 34 17 17 34 17 17 34 17 17 34 17 17 34 17 17 34 17 17 34 17 17 34 17 17 34 17 17 34 17 17 34 17 17 34 17 17 34 17 17 34 17 17 34 17 17 34 17 17 34 17 17 34 17 17 34 17 17 34 17 17 34 17 17 34 17 17 34 17 17 34 17 17 34 17 17 34 17 17 34 17 17 34 17 17 34 17 17 34 17 17 34 17 17 34 17 17 34 17 17 34 17 17 34 17 17 34 17 17 34 17 17 34 17 17 34 17 17 34 17 17 34 17 17 34 17 17 34 17 17 34 17 17 34 17 17 34 17 17 34 17 17 34 17 17 34 17 17 34 17 17 34 17 17 34 17 17 34 17 17 34 17 17 34 17 17 34 17 17 34 17 17 34 17 17 34 17 17 34 17 17 34 17 17 34 17 17 34 17 17 34 17 17 34 17 17 34 17 17 34 17 17 34 17 17 34 17 17 34 17 17 34 17 17 34 17 17 34 17 17 34 17 17 34 17 17 34 17 17 34 17 17 34 17 17 34 17 17 34 17 17 34 17 17 34 17 17 34 17 17 34 17 17 34 17 17 34 51 68 85 51 68 85 51 68 85 51 68 85 51 68 85 51 68 85 51 68 85 51 68 85 85 102 119 85 102 119 85 102 119 85 102 119 85 102 119 85 102 119 85 102 119 85 102 119 85 102 119 85 102 119 85 102 119 85 102 119 85 102 119 85 102 119 85 102 119 85 102 119 85 102 119 85 102 119 85 102 119 85 102 119 85 102 119 85 102 119 85 102 119 85 102 119 85 102 119 85 102 119 85 102 119 85 102 119 85 102 119 85 102 119 85 102 119 85 102 119 85 102 119 85 102 119 85 102 119 85 102 119 85 102 119 85 102 119 85 102 119 85 102 119 85 102 119 85 102 119 85 102 119 85 102 119 85 102 119 85 102 119 85 102 119 85 102 119 85 102 119 85 102 119 85 102 119 85 102 119 85 102 119 85 102 119 85 102 119 85 102 119 85 102 119 85 102 119 85 102 119 85 102 119 85 102 119 85 102 119 85 102 119 85 102 119 85 102 119 85 102 119 85 102 119 85 102 119 85 102 119 85 102 119 51 68 85 51 68 85 51 68 85 51 68 85
51 68 85 51 68 85 51 68 85 51 68 85 85 102 119 85 102 119 85 102 119 85 102 119 85 102 119 85 102 119 85 102 119 85 102 119 85 102 119 85 102 119 85 102 119 85 102 119 85 102 119 85 102 119 85 102 119 85 102 119 85 102 119 85 102 119 85 102 119 85 102 119 85 102 119 85 102 119 85 102 119 85 102 119 85 102 119 85 102 119 85 102 119 85 102 119 85 102 119 85 102 119 85 102 119 85 102 119 85 102 119 85 102 119 85 102 119 85 102 119 85 102 119 85 102 119 85 102 119 85 102 119 85 102 119 85 102 119 85 102 119 85 102 119 85 102 119 85 102 119 85 102 119 85 102 119 85 102 119 85 102 119 85 102 119 85 102 119 85 102 119 85 102 119 85 102 119 85 102 119 85 102 119 85 102 119 85 102 119 85 102 119 85 102 119 85 102 119 85 102 119 85 102 119 85 102 119 85 102 119 85 102 119 85 102 119 85 102 119 85 102 119 51 68 85 51 68 85 51 68 85 51 68 85 0 51 102 0 51 102 0 51 102 0 51 102 0 51 102 0 51 102 0 51 102 0 51 102 0 51 102 0 51 102 17 17 34 17 17 34 17 17 34 17 17 34 17 17 34 17 17 34 17 17 34 17 17 34 17 17 34 17 17 34 17 17 34 17 17 34 17 17 34 17 17 34 17 17 34 17 17 34 17 17 34 17 17 34 17 17 34 17 17 34 17 17 34 17 17 34 17 17 34 17 17 34 17 17 34 17 17 34 17 17 34 17 17 34 17 17 34 17 17 34 17 17 34 17 17 34 17 17 34 17 17 34 17 17 34 17 17 34 17 17 34 17 17 34 17 17 34 17 17 34 17 17 34 17 17 34 17 17 34 17 17 34 17 17 34 17 17 34 17 17 34 17 17 34 17 17 34 17 17 34 17 17 34 17 17 34 17 17 34 17 17 34 17 17 34 17 17 34 17 17 34 17 17 34 17 17 34 17 17 34 17 17 34 17 17 34 17 17 34 17 17 34 17 17 34 17 17 34 17 17 34 17 17 34 17 17 34 17 17 34 17 17 34 17 17 34 17 17 34 17 17 34 17 17 34 17 17 34 17 17 34 17 17 34 17 17 34 17 17 34 17 17 34 17 17 34 17 17 34 17 17 34 17 17 34 17 17 34 17 17 34 17 17 34 17 17 34 17 17 34 17 17 34 17 17 34 17 17 34 17 17 34 17 17 34 17 17 34 17 17 34 17 17 34 17 17 34 17 17 34 17 17 34 17 17 34 17 17 34 17 17 34 17 17 34 17 17 34 17 17 34 17 17 34 17 17 34 17 17 34 17 17 34 17 17 34 17 17 34 17 17 34 17 17 34 17 17 34 17 17 34 17 17 34 17 17 34 17 17 34 17 17 34 17 17 34 17 17 34 17 17 34 17 17 34 17 17 34 17 17 34 17 17 34 17 17 34 17 17 34 17 17 34 17 17 34 17 17 34 17 17 34 17 17 34 17 17 34 17 17 34 17 17 34 17 17 34 17 17 34 17 17 34 17 17 34 17 17 34 17 17 34 17 17 34 17 17 34 17 17 34 17 17 34 17 17 34 17 17 34 51 68 85 51 68 85 51 68 85 51 68 85 51 68 85 51 68 85 51 68 85 51 68 85 85 102 119 85 102 119 85 102 119 85 102 119 85 102 119 85 102 119 85 102 119 85 102 119 85 102 119 85 102 119 85 102 119 85 102 119 85 102 119 85 102 119 85 102 119 85 102 119 85 102 119 85 102 119 85 102 119 85 102 119 85 102 119 85 102 119 85 102 119 85 102 119 85 102 119 85 102 119 85 102 119 85 102 119 85 102 119 85 102 119 85 102 119 85 102 119 85 102 119 85 102 119 85 102 119 85 102 119 85 102 119 85 102 119 85 102 119 85 102 119 85 102 119 85 102 119 85 102 119 85 102 119 85 102 119 85 102 119 85 102 119 85 102 119 85 102 119 85 102 119 85 102 119 85 102 119 85 102 119 85 102 119 85 102 119 85 102 119 85 102 119 85 102 119 85 102 119 85 102 119 85 102 119 85 102 119 85 102 119 85 102 119 85 102 119 85 102 119 85 102 119 85 102 119 85 102 119 85 102 119 51 68 85 51 68 85 51 68 85 51 68 85
51 68 85 51 68 85 51 68 85 51 68 85 85 102 119 85 102 119 85 102 119 85 102 119 85 102 119 85 102 119 85 102 119 85 102 119 85 102 119 85 102 119 85 102 119 85 102 119 85 102 119 85 102 119 85 102 119 85 102 119 85 102 119 85 102 119 85 102 119 85 102 119 85 102 119 85 102 119 85 102 119 85 102 119 85 102 119 85 102 119 85 102 119 85 102 119 85 102 119 85 102 119 85 102 119 85 102 119 85 102 119 85 102 119 85 102 119 85 102 119 85 102 119 85 102 119 85 102 119 85 102 119 85 102 119 85 102 119 85 102 119 85 102 119 85 102 119 85 102 119 85 102 119 85 102 119 85 102 119 85 102 119 85 102 119 85 102 119 85 102 119 85 102 119 85 102 119 85 102 119 85 102 119 85 102 119 85 102 119 85 102 119 85 102 119 85 102 119 85 102 119 85 102 119 85 102 119 85 102 119 85 102 119 85 102 119 85 102 119 85 102 119 51 68 85 51 68 85 51 68 85 51 68 85 51 68 85 51 68 85 51 68 85 51 68 85 17 17 34 17 17 34 17 17 34 17 17 34 17 17 34 17 17 34 17 17 34 17 17 34 17 17 34 17 17 34 17 17 34 17 17 34 17 17 34 17 17 34 17 17 34 17 17 34 17 17 34 17 17 34 17 17 34 17 17 34 17 17 34 17 17 34 17 17 34 17 17 34 17 17 34 17 17 34 17 17 34 17 17 34 17 17 34 17 17 34 17 17 34 17 17 34 17 17 34 17 17 34 17 17 34 17 17 34 17 17 34 17 17 34 17 17 34 17 17 34 17 17 34 17 17 34 17 17 34 17 17 34 17 17 34 17 17 34 17 17 34 17 17 34 17 17 34 17 17 34 17 17 34 17 17 34 17 17 34 17 17 34 17 17 34 17 17 34 17 17 34 17 17 34 17 17 34 17 17 34 17 17 34 17 17 34 17 17 34 17 17 34 17 17 34 17 17 34 17 17 34 17 17 34 17 17 34 17 17 34 17 17 34 17 17 34 17 17 34 17 17 34 17 17 34 17 17 34 17 17 34 17 17 34 17 17 34 17 17 34 17 17 34 17 17 34 17 17 34 17 17 34 17 17 34 17 17 34 17 17 34 17 17 34 17 17 34 17 17 34 17 17 34 17 17 34 17 17 34 17 17 34 17 17 34 17 17 34 17 17 34 17 17 34 17 17 34 17 17 34 17 17 34 17 17 34 17 17 34 17 17 34 17 17 34 17 17 34 17 17 34 17 17 34 17 17 34 17 17 34 17 17 34 17 17 34 17 17 34 17 17 34 17 17 34 17 17 34 17 17 34 17 17 34 17 17 34 17 17 34 17 17 34 17 17 34 17 17 34 17 17 34 17 17 34 17 17 34 17 17 34 17 17 34 17 17 34 17 17 34 17 17 34 17 17 34 17 17 34 17 17 34 17 17 34 17 17 34 17 17 34 17 17 34 17 17 34 17 17 34 17 17 34 17 17 34 17 17 34 17 17 34 17 17 34 17 17 34 17 17 34 17 17 34 17 17 34 17 17 34 17 17 34 17 17 34 17 17 34 17 17 34 17 17 34 17 17 34 51 68 85 51 68 85 51 68 85 51 68 85 51 68 85 51 68 85 51 68 85 51 68 85 85 102 119 85 102 119 85 102 119 85 102 119 85 102 119 85 102 119 85 102 119 85 102 119 85 102 119 85 102 119 85 102 119 85 102 119 85 102 119 85 102 119 85 102 119 85 102 119 85 102 119 85 102 119 85 102 119 85 102 119 85 102 119 85 102 119 85 102 119 85 102 119 85 102 119 85 102 119 85 102 119 85 102 119 85 102 119 85 102 119 85 102 119 85 102 119 85 102 119 85 102 119 85 102 119 85 102 119 85 102 119 85 102 119 85 102 119 85 102 119 85 102 119 85 102 119 85 102 119 85 102 119 85 102 119 85 102 119 85 102 119 85 102 119 85 102 119 85 102 119 85 102 119 85 102 119 85 102 119 85 102 119 85 102 119 85 102 119 85 102 119 85 102 119 85 102 119 85 102 119 85 102 119 85 102 119 85 102 119 85 102 119 85 102 119 85 102 119 85 102 119 85 102 119 85 102 119 85 102 119 51 68 85 51 68 85 51 68 85 51 68 85
51 68 85 51 68 85 51 68 85 51 68 85 85 102 119 85 102 119 85 102 119 85 102 119 85 102 119 85 102 119 85 102 119 85 102 119 85 102 119 85 102 119 85 102 119 85 102 119 85 102 119 85 102 119 85 102 119 85 102 119 85 102 119 85 102 119 85 102 119 85 102 119 85 102 119 85 102 119 85 102 119 85 102 119 85 102 119 85 102 119 85 102 119 85 102 119 85 102 119 85 102 119 85 102 119 85 102 119 85 102 119 85 102 119 85 102 119 85 102 119 85 102 119 85 102 119 85 102 119 85 102 119 85 102 119 85 102 119 85 102 119 85 102 119 85 102 119 85 102 119 85 102 119 85 102 119 85 102 119 85 102 119 85 102 119 85 102 119 85 102 119 85 102 119 85 102 119 85 102 119 85 102 119 85 102 119 85 102 119 85 102 119 85 102 119 85 102 119 85 102 119 85 102 119 85 102 119 85 102 119 85 102 119 85 102 119 85 102 119 85 102 119 51 68 85 51 68 85 51 68 85 51 68 85 51 68 85 51 68 85 51 68 85 51 68 85 17 17 34 17 17 34 17 17 34 17 17 34 17 17 34 17 17 34 17 17 34 17 17 34 17 17 34 17 17 34 17 17 34 17 17 34 17 17 34 17 17 34 17 17 34 17 17 34 17 17 34 17 17 34 17 17 34 17 17 34 17 17 34 17 17 34 17 17 34 17 17 34 17 17 34 17 17 34 17 17 34 17 17 34 17 17 34 17 17 34 17 17 34 17 17 34 17 17 34 17 17 34 17 17 34 17 17 34 17 17 34 17 17 34 17 17 34 17 17 34 17 17 34 17 17 34 17 17 34 17 17 34 17 17 34 17 17 34 17 17 34 17 17 34 17 17 34 17 17 34 17 17 34 17 17 34 17 17 34 17 17 34 17 17 34 17 17 34 17 17 34 17 17 34 17 17 34 17 17 34 17 17 34 17 17 34 17 17 34 17 17 34 17 17 34 17 17 34 17 17 34 17 17 34 17 17 34 17 17 34 17 17 34 17 17 34 17 17 34 17 17 34 17 17 34 17 17 34 17 17 34 17 17 34 17 17 34 17 17 34 17 17 34 17 17 34 17 17 34 17 17 34 17 17 34 17 17 34 17 17 34 17 17 34 17 17 34 17 17 34 17 17 34 17 17 34 17 17 34 17 17 34 17 17 34 17 17 34 17 17 34 17 17 34 17 17 34 17 17 34 17 17 34 17 17 34 17 17 34 17 17 34 17 17 34 17 17 34 17 17 34 17 17 34 17 17 34 17 17 34 17 17 34 17 17 34 17 17 34 17 17 34 17 17 34 17 17 34 17 17 34 17 17 34 17 17 34 17 17 34 17 17 34 17 17 34 17 17 34 17 17 34 17 17 34 17 17 34 17 17 34 17 17 34 17 17 34 17 17 34 17 17 34 17 17 34 17 17 34 17 17 34 17 17 34 17 17 34 17 17 34 17 17 34 17 17 34 17 17 34 17 17 34 17 17 34 17 17 34 17 17 34 17 17 34 17 17 34 17 17 34 17 17 34 17 17 34 17 17 34 17 17 34 17 17 34 17 17 34 17 17 34 17 17 34 17 17 34 51 68 85 51 68 85 51 68 85 51 68 85 51 68 85 51 68 85 51 68 85 51 68 85 85 102 119 85 102 119 85 102 119 85 102 119 85 102 119 85 102 119 85 102 119 85 102 119 85 102 119 85 102 119 85 102 119 85 102 119 85 102 119 85 102 119 85 102 119 85 102 119 85 102 119 85 102 119 85 102 119 85 102 119 85 102 119 85 102 119 85 102 119 85 102 119 85 102 119 85 102 119 85 102 119 85 102 119 85 102 119 85 102 119 85 102 119 85 102 119 85 102 119 85 102 119 85 102 119 85 102 119 85 102 119 85 102 119 85 102 119 85 102 119 85 102 119 85 102 119 85 102 119 85 102 119 85 102 119 85 102 119 85 102 119 85 102 119 85 102 119 85 102 119 85 102 119 85 102 119 85 102 119 85 102 119 85 102 119 85 102 119 85 102 119 85 102 119 85 102 119 85 102 119 85 102 119 85 102 119 85 102 119 85 102 119 85 102 119 85 102 119 85 102 119 85 102 119 85 102 119 85 102 119 51 68 85 51 68 85 51 68 85 51 68 85
51 68 85 51 68 85 51 68 85 51 68 85 85 102 119 85 102 119 85 102 119 85 102 119 85 102 119 85 102 119 85 102 119 85 102 119 85 102 119 85 102 119 85 102 119 85 102 119 85 102 119 85 102 119 85 102 119 85 102 119 85 102 119 85 102 119 85 102 119 85 102 119 85 102 119 85 102 119 85 102 119 85 102 119 85 102 119 85 102 119 85 102 119 85 102 119 85 102 119 85 102 119 85 102 119 85 102 119 85 102 119 85 102 119 85 102 119 85 102 119 85 102 119 85 102 119 85 102 119 85 102 119 85 102 119 85 102 119 85 102 119 85 102 119 85 102 119 85 102 119 85 102 119 85 102 119 85 102 119 85 102 119 85 102 119 85 102 119 85 102 119 85 102 119 85 102 119 85 102 119 85 102 119 85 102 119 85 102 119 85 102 119 85 102 119 85 102 119 85 102 119 85 102 119 85 102 119 85 102 119 85 102 119 85 102 119 85 102 119 85 102 119 51 68 85 51 68 85 51 68 85 51 68 85 51 68 85 51 68 85 51 68 85 51 68 85 17 17 34 17 17 34 17 17 34 17 17 34 17 17 34 17 17 34 17 17 34 17 17 34 17 17 34 17 17 34 17 17 34 17 17 34 17 17 34 17 17 34 17 17 34 17 17 34 17 17 34 17 17 34 17 17 34 17 17 34 17 17 34 17 17 34 17 17 34 17 17 34 17 17 34 17 17 34 17 17 34 17 17 34 17 17 34 17 17 34 17 17 34 17 17 34 17 17 34 17 17 34 17 17 34 17 17 34 17 17 34 17 17 34 17 17 34 17 17 34 17 17 34 17 17 34 17 17 34 17 17 34 17 17 34 17 17 34 17 17 34 17 17 34 17 17 34 17 17 34 17 17 34 17 17 34 17 17 34 17 17 34 17 17 34 17 17 34 17 17 34 17 17 34 17 17 34 17 17 34 17 17 34 17 17 34 17 17 34 17 17 34 17 17 34 17 17 34 17 17 34 17 17 34 17 17 34 17 17 34 17 17 34 17 17 34 17 17 34 17 17 34 17 17 34 17 17 34 17 17 34 17 17 34 17 17 34 17 17 34 17 17 34 17 17 34 17 17 34 17 17 34 17 17 34 17 17 34 17 17 34 17 17 34 17 17 34 17 17 34 17 17 34 17 17 34 17 17 34 17 17 34 17 17 34 17 17 34 17 17 34 17 17 34 17 17 34 17 17 34 17 17 34 17 17 34 17 17 34 17 17 34 17 17 34 17 17 34 17 17 34 17 17 34 17 17 34 17 17 34 17 17 34 17 17 34 17 17 34 17 17 34 17 17 34 17 17 34 17 17 34 17 17 34 17 17 34 17 17 34 17 17 34 17 17 34 17 17 34 17 17 34 17 17 34 17 17 34 17 17 34 17 17 34 17 17 34 17 17 34 17 17 34 17 17 34 17 17 34 17 17 34 17 17 34 17 17 34 17 17 34 17 17 34 17 17 34 17 17 34 17 17 34 17 17 34 17 17 34 17 17 34 17 17 34 17 17 34 17 17 34 17 17 34 17 17 34 17 17 34 17 17 34 17 17 34 17 17 34 17 17 34 17 17 34 17 17 34 51 68 85 51 68 85 51 68 85 51 68 85 51 68 85 51 68 85 51 68 85 51 68 85 85 102 119 85 102 119 85 102 119 85 102 119 85 102 119 85 102 119 85 102 119 85 102 119 85 102 119 85 102 119 85 102 119 85 102 119 85 102 119 85 102 119 85 102 119 85 102 119 85 102 119 85 102 119 85 102 119 85 102 119 85 102 119 85 102 119 85 102 119 85 102 119 85 102 119 85 102 119 85 102 119 85 102 119 85 102 119 85 102 119 85 102 119 85 102 119 85 102 119 85 102 119 85 102 119 85 102 119 85 102 119 85 102 119 85 102 119 85 102 119 85 102 119 85 102 119 85 102 119 85 102 119 85 102 119 85 102 119 85 102 119 85 102 119 85 102 119 85 102 119 85 102 119 85 102 119 85 102 119 85 102 119 85 102 119 85 102 119 85 102 119 85 102 119 85 102 119 85 102 119 85 102 119 85 102 119 85 102 119 85 102 119 85 102 119 85 102 119 85 102 119 85 102 119 85 102 119 85 102 119 51 68 85 51 68 85 51 68 85 51 68 85
51 68 85 51 68 85 51 68 85 51 68 85 85 102 119 85 102 119 85 102 119 85 102 119 85 102 119 85 102 119 85 102 119 85 102 119 85 102 119 85 102 119 85 102 119 85 102 119 85 102 119 85 102 119 85 102 119 85 102 119 85 102 119 85 102 119 85 102 119 85 102 119 85 102 119 85 102 119 85 102 119 85 102 119 85 102 119 85 102 119 85 102 119 85 102 119 85 102 119 85 102 119 85 102 119 85 102 119 85 102 119 85 102 119 85 102 119 85 102 119 85 102 119 85 102 119 85 102 119 85 102 119 85 102 119 85 102 119 85 102 119 85 102 119 85 102 119 85 102 119 85 102 119 85 102 119 85 102 119 85 102 119 85 102 119 85 102 119 85 102 119 85 102 119 85 102 119 85 102 119 85 102 119 85 102 119 85 102 119 85 102 119 85 102 119 85 102 119 85 102 119 85 102 119 85 102 119 85 102 119 85 102 119 85 102 119 85 102 119 85 102 119 51 68 85 51 68 85 51 68 85 51 68 85 51 68 85 51 68 85 51 68 85 51 68 85 17 17 34 17 17 34 17 17 34 17 17 34 17 17 34 17 17 34 17 17 34 17 17 34 17 17 34 17 17 34 17 17 34 17 17 34 17 17 34 17 17 34 17 17 34 17 17 34 17 17 34 17 17 34 17 17 34 17 17 34 17 17 34 17 17 34 17 17 34 17 17 34 17 17 34 17 17 34 17 17 34 17 17 34 17 17 34 17 17 34 17 17 34 17 17 34 17 17 34 17 17 34 17 17 34 17 17 34 17 17 34 17 17 34 17 17 34 17 17 34 17 17 34 17 17 34 17 17 34 17 17 34 17 17 34 17 17 34 17 17 34 17 17 34 17 17 34 17 17 34 17 17 34 17 17 34 17 17 34 17 17 34 17 17 34 17 17 34 17 17 34 17 17 34 17 17 34 17 17 34 17 17 34 17 17 34 17 17 34 17 17 34 17 17 34 17 17 34 17 17 34 17 17 34 17 17 34 17 17 34 17 17 34 17 17 34 17 17 34 17 17 34 17 17 34 17 17 34 17 17 34 17 17 34 17 17 34 17 17 34 17 17 34 17 17 34 17 17 34 17 17 34 17 17 34 17 17 34 17 17 34 17 17 34 17 17 34 17 17 34 17 17 34 17 17 34 17 17 34 17 17 34 17 17 34 17 17 34 17 17 34 17 17 34 17 17 34 17 17 34 17 17 34 17 17 34 17 17 34 17 17 34 17 17 34 17 17 34 17 17 34 17 17 34 17 17 34 17 17 34 17 17 34 17 17 34 17 17 34 17 17 34 17 17 34 17 17 34 17 17 34 17 17 34 17 17 34 17 17 34 17 17 34 17 17 34 17 17 34 17 17 34 17 17 34 17 17 34 17 17 34 17 17 34 17 17 34 17 17 34 17 17 34 17 17 34 17 17 34 17 17 34 17 17 34 17 17 34 17 17 34 17 17 34 17 17 34 17 17 34 17 17 34 17 17 34 17 17 34 17 17 34 17 17 34 17 17 34 17 17 34 17 17 34 17 17 34 17 17 34 17 17 34 17 17 34 17 17 34 17 17 34 17 17 34 17 17 34 51 68 85 51 68 85 51 68 85 51 68 85 51 68 85 51 68 85 51 68 85 51 68 85 85 102 119 85 102 119 85 102 119 85 102 119 85 102 119 85 102 119 85 102 119 85 102 119 85 102 119 85 102 119 85 102 119 85 102 119 85 102 119 85 102 119 85 102 119 85 102 119 85 102 119 85 102 119 85 102 119 85 102 119 85 102 119 85 102 119 85 102 119 85 102 119 85 102 119 85 102 119 85 102 119 85 102 119 85 102 119 85 102 119 85 102 119 85 102 119 85 102 119 85 102 119 85 102 119 85 102 119 85 102 119 85 102 119 85 102 119 85 102 119 85 102 119 85 102 119 85 102 119 85 102 119 85 102 119 85 102 119 85 102 119 85 102 119 85 102 119 85 102 119 85 102 119 85 102 119 85 102 119 85 102 119 85 102 119 85 102 119 85 102 119 85 102 119 85 102 119 85 102 119 85 102 119 85 102 119 85 102 119 85 102 119 85 102 119 85 102 119 85 102 119 85 102 119 85 102 119 85 102 119 51 68 85 51 68 85 51 68 85 51 68 85
51 68 85 51 68 85 51 68 85 51 68 85 85 102 119 85 102 119 85 102 119 85 102 119 85 102 119 85 102 119 85 102 119 85 102 119 85 102 119 85 102 119 85 102 119 85 102 119 85 102 119 85 102 119 85 102 119 85 102 119 85 102 119 85 102 119 85 102 119 85 102 119 85 102 119 85 102 119 85 102 119 85 102 119 85 102 119 85 102 119 85 102 119 85 102 119 85 102 119 85 102 119 85 102 119 85 102 119 85 102 119 85 102 119 85 102 119 85 102 119 85 102 119 85 102 119 85 102 119 85 102 119 85 102 119 85 102 119 85 102 119 85 102 119 85 102 119 85 102 119 85 102 119 85 102 119 85 102 119 85 102 119 85 102 119 85 102 119 85 102 119 85 102 119 85 102 119 85 102 119 85 102 119 85 102 119 85 102 119 85 102 119 85 102 119 85 102 119 85 102 119 85 102 119 85 102 119 85 102 119 85 102 119 85 102 119 85 102 119 85 102 119 51 68 85 51 68 85 51 68 85 51 68 85 51 68 85 51 68 85 51 68 85 51 68 85 17 17 34 17 17 34 17 17 34 17 17 34 17 17 34 17 17 34 17 17 34 17 17 34 17 17 34 17 17 34 17 17 34 17 17 34 17 17 34 17 17 34 17 17 34 17 17 34 17 17 34 17 17 34 17 17 34 17 17 34 17 17 34 17 17 34 17 17 34 17 17 34 17 17 34 17 17 34 17 17 34 17 17 34 17 17 34 17 17 34 17 17 34 17 17 34 17 17 34 17 17 34 17 17 34 17 17 34 17 17 34 17 17 34 17 17 34 17 17 34 17 17 34 17 17 34 17 17 34 17 17 34 17 17 34 17 17 34 17 17 34 17 17 34 17 17 34 17 17 34 17 17 34 17 17 34 17 17 34 17 17 34 17 17 34 17 17 34 17 17 34 17 17 34 17 17 34 17 17 34 17 17 34 17 17 34 17 17 34 17 17 34 17 17 34 17 17 34 17 17 34 17 17 34 17 17 34 17 17 34 17 17 34 17 17 34 17 17 34 17 17 34 17 17 34 17 17 34 17 17 34 17 17 34 17 17 34 17 17 34 17 17 34 17 17 34 17 17 34 17 17 34 17 17 34 17 17 34 17 17 34 17 17 34 17 17 34 17 17 34 17 17 34 17 17 34 17 17 34 17 17 34 17 17 34 17 17 34 17 17 34 17 17 34 17 17 34 17 17 34 17 17 34 17 17 34 17 17 34 17 17 34 17 17 34 17 17 34 17 17 34 17 17 34 17 17 34 17 17 34 17 17 34 17 17 34 17 17 34 17 17 34 17 17 34 17 17 34 17 17 34 17 17 34 17 17 34 17 17 34 17 17 34 17 17 34 17 17 34 17 17 34 17 17 34 17 17 34 17 17 34 17 17 34 17 17 34 17 17 34 17 17 34 17 17 34 17 17 34 17 17 34 17 17 34 17 17 34 17 17 34 17 17 34 17 17 34 17 17 34 17 17 34 17 17 34 17 17 34 17 17 34 17 17 34 17 17 34 17 17 34 17 17 34 17 17 34 17 17 34 0 51 102 0 51 102 0 51 102 0 51 102 0 51 102 0 51 102 0 51 102 0 51 102 0 51 102 0 51 102 51 68 85 51 68 85 51 68 85 51 68 85 85 102 119 85 102 119 85 102 119 85 102 119 85 102 119 85 102 119 85 102 119 85 102 119 85 102 119 85 102 119 85 102 119 85 102 119 85 102 119 85 102 119 85 102 119 85 102 119 85 102 119 85 102 119 85 102 119 85 102 119 85 102 119 85 102 119 85 102 119 85 102 119 85 102 119 85 102 119 85 102 119 85 102 119 85 102 119 85 102 119 85 102 119 85 102 119 85 102 119 85 102 119 85 102 119 85 102 119 85 102 119 85 102 119 85 102 119 85 102 119 85 102 119 85 102 119 85 102 119 85 102 119 85 102 119 85 102 119 85 102 119 85 102 119 85 102 119 85 102 119 85 102 119 85 102 119 85 102 119 85 102 119 85 102 119 85 102 119 85 102 119 85 102 119 85 102 119 85 102 119 85 102 119 85 102 119 85 102 119 85 102 119 85 102 119 85 102 119 85 102 119 85 102 119 85 102 119 85 102 119 51 68 85 51 68 85 51 68 85 51 68 85
51 68 85 51 68 85 51 68 85 51 68 85 85 102 119 85 102 119 85 102 119 85 102 119 85 102 119 85 102 119 85 102 119 85 102 119 85 102 119 85 102 119 85 102 119 85 102 119 85 102 119 85 102 119 85 102 119 85 102 119 85 102 119 85 102 119 85 102 119 85 102 119 85 102 119 85 102 119 85 102 119 85 102 119 85 102 119 85 102 119 85 102 119 85 102 119 85 102 119 85 102 119 85 102 119 85 102 119 85 102 119 85 102 119 85 102 119 85 102 119 85 102 119 85 102 119 85 102 119 85 102 119 85 102 119 85 102 119 85 102 119 85 102 119 85 102 119 85 102 119 85 102 119 85 102 119 85 102 119 85 102 119 85 102 119 85 102 119 85 102 119 85 102 119 85 102 119 85 102 119 85 102 119 85 102 119 85 102 119 85 102 119 85 102 119 85 102 119 85 102 119 85 102 119 85 102 119 85 102 119 85 102 119 85 102 119 85 102 119 85 102 119 51 68 85 51 68 85 51 68 85 51 68 85 51 68 85 51 68 85 51 68 85 51 68 85 17 17 34 17 17 34 17 17 34 17 17 34 17 17 34 17 17 34 17 17 34 17 17 34 17 17 34 17 17 34 17 17 34 17 17 34 17 17 34 17 17 34 17 17 34 17 17 34 17 17 34 17 17 34 17 17 34 17 17 34 17 17 34 17 17 34 17 17 34 17 17 34 17 17 34 17 17 34 17 17 34 17 17 34 17 17 34 17 17 34 17 17 34 17 17 34 17 17 34 17 17 34 17 17 34 17 17 34 17 17 34 17 17 34 17 17 34 17 17 34 17 17 34 17 17 34 17 17 34 17 17 34 17 17 34 17 17 34 17 17 34 17 17 34 17 17 34 17 17 34 17 17 34 17 17 34 17 17 34 17 17 34 17 17 34 17 17 34 17 17 34 17 17 34 17 17 34 17 17 34 17 17 34 17 17 34 17 17 34 17 17 34 17 17 34 17 17 34 17 17 34 17 17 34 17 17 34 17 17 34 17 17 34 17 17 34 17 17 34 17 17 34 17 17 34 17 17 34 17 17 34 17 17 34 17 17 34 17 17 34 17 17 34 17 17 34 17 17 34 17 17 34 17 17 34 17 17 34 17 17 34 17 17 34 17 17 34 17 17 34 17 17 34 17 17 34 17 17 34 17 17 34 17 17 34 17 17 34 17 17 34 17 17 34 17 17 34 17 17 34 17 17 34 17 17 34 17 17 34 17 17 34 17 17 34 17 17 34 17 17 34 17 17 34 17 17 34 17 17 34 17 17 34 17 17 34 17 17 34 17 17 34 17 17 34 17 17 34 17 17 34 17 17 34 17 17 34 17 17 34 17 17 34 17 17 34 17 17 34 17 17 34 17 17 34 17 17 34 17 17 34 17 17 34 17 17 34 17 17 34 17 17 34 17 17 34 17 17 34 17 17 34 17 17 34 17 17 34 17 17 34 17 17 34 17 17 34 17 17 34 17 17 34 17 17 34 17 17 34 17 17 34 17 17 34 17 17 34 17 17 34 17 17 34 17 17 34 17 17 34 0 51 102 0 51 102 0 170 221 0 170 221 0 170 221 0 170 221 0 170 221 0 170 221 0 51 102 0 51 102 51 68 85 51 68 85 51 68 85 51 68 85 85 102 119 85 102 119 85 102 119 85 102 119 85 102 119 85 102 119 85 102 119 85 102 119 85 102 119 85 102 119 85 102 119 85 102 119 85 102 119 85 102 119 85 102 119 85 102 119 85 102 119 85 102 119 85 102 119 85 102 119 85 102 119 85 102 119 85 102 119 85 102 119 85 102 119 85 102 119 85 102 119 85 102 119 85 102 119 85 102 119 85 102 119 85 102 119 85 102 119 85 102 119 85 102 119 85 102 119 85 102 119 85 102 119 85 102 119 85 102 119 85 102 119 85 102 119 85 102 119 85 102 119 85 102 119 85 102 119 85 102 119 85 102 119 85 102 119 85 102 119 85 102 119 85 102 119 85 102 119 85 102 119 85 102 119 85 102 119 85 102 119 85 102 119 85 102 119 85 102 119 85 102 119 85 102 119 85 102 119 85 102 119 85 102 119 85 102 119 85 102 119 85 102 119 85 102 119 85 102 119 51 68 85 51 68 85 51 68 85 51 68 85
51 68 85 51 68 85 51 68 85 51 68 85 85 102 119 85 102 119 85 102 119 85 102 119 85 102 119 85 102 119 85 102 119 85 102 119 85 102 119 85 102 119 85 102 119 85 102 119 85 102 119 85 102 119 85 102 119 85 102 119 85 102 119 85 102 119 85 102 119 85 102 119 85 102 119 85 102 119 85 102 119 85 102 119 85 102 119 85 102 119 85 102 119 85 102 119 85 102 119 85 102 119 85 102 119 85 102 119 85 102 119 85 102 119 85 102 119 85 102 119 85 102 119 85 102 119 85 102 119 85 102 119 85 102 119 85 102 119 85 102 119 85 102 119 85 102 119 85 102 119 85 102 119 85 102 119 85 102 119 85 102 119 85 102 119 85 102 119 85 102 119 85 102 119 85 102 119 85 102 119 85 102 119 85 102 119 85 102 119 85 102 119 85 102 119 85 102 119 85 102 119 85 102 119 85 102 119 85 102 119 85 102 119 85 102 119 85 102 119 85 102 119 51 68 85 51 68 85 51 68 85 51 68 85 51 68 85 51 68 85 51 68 85 51 68 85 17 17 34 17 17 34 17 17 34 17 17 34 17 17 34 17 17 34 17 17 34 17 17 34 17 17 34 17 17 34 17 17 34 17 17 34 17 17 34 17 17 34 17 17 34 17 17 34 17 17 34 17 17 34 17 17 34 17 17 34 17 17 34 17 17 34 17 17 34 17 17 34 17 17 34 17 17 34 17 17 34 17 17 34 17 17 34 17 17 34 17 17 34 17 17 34 17 17 34 17 17 34 17 17 34 17 17 34 17 17 34 17 17 34 17 17 34 17 17 34 17 17 34 17 17 34 17 17 34 17 17 34 17 17 34 17 17 34 17 17 34 17 17 34 17 17 34 17 17 34 17 17 34 17 17 34 17 17 34 17 17 34 17 17 34 17 17 34 17 17 34 17 17 34 17 17 34 17 17 34 17 17 34 17 17 34 17 17 34 17 17 34 17 17 34 17 17 34 17 17 34 17 17 34 17 17 34 17 17 34 17 17 34 17 17 34 17 17 34 17 17 34 17 17 34 17 17 34 17 17 34 17 17 34 17 17 34 17 17 34 17 17 34 17 17 34 17 17 34 17 17 34 17 17 34 17 17 34 17 17 34 17 17 34 17 17 34 17 17 34 17 17 34 17 17 34 17 17 34 17 17 34 17 17 34 17 17 34 17 17 34 17 17 34 17 17 34 17 17 34 17 17 34 17 17 34 17 17 34 17 17 34 17 17 34 17 17 34 17 17 34 17 17 34 17 17 34 17 17 34 17 17 34 17 17 34 17 17 34 17 17 34 17 17 34 17 17 34 17 17 34 17 17 34 17 17 34 17 17 34 17 17 34 17 17 34 17 17 34 17 17 34 17 17 34 17 17 34 17 17 34 17 17 34 17 17 34 17 17 34 17 17 34 17 17 34 17 17 34 17 17 34 17 17 34 17 17 34 17 17 34 17 17 34 17 17 34 17 17 34 17 17 34 17 17 34 17 17 34 17 17 34 17 17 34 17 17 34 17 17 34 17 17 34 17 17 34 17 17 34 0 51 102 0 51 102 0 170 221 0 170 221 0 170 221 0 170 221 0 170 221 0 170 221 0 51 102 0 51 102 51 68 85 51 68 85 51 68 85 51 68 85 85 102 119 85 102 119 85 102 119 85 102 119 85 102 119 85 102 119 85 102 119 85 102 119 85 102 119 85 102 119 85 102 119 85 102 119 85 102 119 85 102 119 85 102 119 85 102 119 85 102 119 85 102 119 85 102 119 85 102 119 85 102 119 85 102 119 85 102 119 85 102 119 85 102 119 85 102 119 85 102 119 85 102 119 85 102 119 85 102 119 85 102 119 85 102 119 85 102 119 85 102 119 85 102 119 85 102 119 85 102 119 85 102 119 85 102 119 85 102 119 85 102 119 85 102 119 85 102 119 85 102 119 85 102 119 85 102 119 85 102 119 85 102 119 85 102 119 85 102 119 85 102 119 85 102 119 85 102 119 85 102 119 85 102 119 85 102 119 85 102 119 85 102 119 85 102 119 85 102 119 85 102 119 85 102 119 85 102 119 85 102 119 85 102 119 85 102 119 85 102 119 85 102 119 85 102 119 85 102 119 51 68 85 51 68 85 51 68 85 51 68 85
51 68 85 51 68 85 51 68 85 51 68 85 85 102 119 85 102 119 85 102 119 85 102 119 85 102 119 85 102 119 85 102 119 85 102 119 85 102 119 85 102 119 85 102 119 85 102 119 85 102 119 85 102 119 85 102 119 85 102 119 85 102 119 85 102 119 85 102 119 85 102 119 85 102 119 85 102 119 85 102 119 85 102 119 85 102 119 85 102 119 85 102 119 85 102 119 85 102 119 85 102 119 85 102 119 85 102 119 85 102 119 85 102 119 85 102 119 85 102 119 85 102 119 85 102 119 85 102 119 85 102 119 85 102 119 85 102 119 85 102 119 85 102 119 85 102 119 85 102 119 85 102 119 85 102 119 85 102 119 85 102 119 85 102 119 85 102 119 85 102 119 85 102 119 85 102 119 85 102 119 85 102 119 85 102 119 85 102 119 85 102 119 85 102 119 85 102 119 85 102 119 85 102 119 85 102 119 85 102 119 85 102 119 85 102 119 85 102 119 85 102 119 51 68 85 51 68 85 51 68 85 51 68 85 51 68 85 51 68 85 51 68 85 51 68 85 17 17 34 17 17 34 17 17 34 17 17 34 17 17 34 17 17 34 17 17 34 17 17 34 17 17 34 17 17 34 17 17 34 17 17 34 17 17 34 17 17 34 17 17 34 17 17 34 17 17 34 17 17 34 17 17 34 17 17 34 17 17 34 17 17 34 17 17 34 17 17 34 17 17 34 17 17 34 17 17 34 17 17 34 17 17 34 17 17 34 17 17 34 17 17 34 17 17 34 17 17 34 17 17 34 17 17 34 17 17 34 17 17 34 17 17 34 17 17 34 17 17 34 17 17 34 17 17 34 17 17 34 17 17 34 17 17 34 17 17 34 17 17 34 17 17 34 17 17 34 17 17 34 17 17 34 17 17 34 17 17 34 17 17 34 17 17 34 17 17 34 17 17 34 17 17 34 17 17 34 17 17 34 17 17 34 17 17 34 17 17 34 17 17 34 17 17 34 17 17 34 17 17 34 17 17 34 17 17 34 17 17 34 17 17 34 17 17 34 17 17 34 17 17 34 17 17 34 17 17 34 17 17 34 17 17 34 17 17 34 17 17 34 17 17 34 17 17 34 17 17 34 17 17 34 17 17 34 17 17 34 17 17 34 17 17 34 17 17 34 17 17 34 17 17 34 17 17 34 17 17 34 17 17 34 17 17 34 17 17 34 17 17 34 17 17 34 17 17 34 17 17 34 17 17 34 17 17 34 17 17 34 17 17 34 17 17 34 17 17 34 17 17 34 17 17 34 17 17 34 17 17 34 17 17 34 17 17 34 17 17 34 17 17 34 17 17 34 17 17 34 17 17 34 17 17 34 17 17 34 17 17 34 17 17 34 17 17 34 17 17 34 17 17 34 17 17 34 17 17 34 17 17 34 17 17 34 17 17 34 17 17 34 17 17 34 17 17 34 17 17 34 17 17 34 17 17 34 17 17 34 17 17 34 17 17 34 17 17 34 17 17 34 17 17 34 17 17 34 17 17 34 17 17 34 17 17 34 17 17 34 17 17 34 17 17 34 17 17 34 0 51 102 0 51 102 0 51 102 0 51 102 0 51 102 0 51 102 0 51 102 0 51 102 0 51 102 0 51 102 51 68 85 51 68 85 51 68 85 51 68 85 85 102 119 85 102 119 85 102 119 85 102 119 85 102 119 85 102 119 85 102 119 85 102 119 85 102 119 85 102 119 85 102 119 85 102 119 85 102 119 85 102 119 85 102 119 85 102 119 85 102 119 85 102 119 85 102 119 85 102 119 85 102 119 85 102 119 85 102 119 85 102 119 85 102 119 85 102 119 85 102 119 85 102 119 85 102 119 85 102 119 85 102 119 85 102 119 85 102 119 85 102 119 85 102 119 85 102 119 85 102 119 85 102 119 85 102 119 85 102 119 85 102 119 85 102 119 85 102 119 85 102 119 85 102 119 85 102 119 85 102 119 85 102 119 85 102 119 85 102 119 85 102 119 85 102 119 85 102 119 85 102 119 85 102 119 85 102 119 85 102 119 85 102 119 85 102 119 85 102 119 85 102 119 85 102 119 85 102 119 85 102 119 85 102 119 85 102 119 85 102 119 85 102 119 85 102 119 85 102 119 51 68 85 51 68 85 51 68 85 51 68 85
51 68 85 51 68 85 51 68 85 51 68 85 85 102 119 85 102 119 85 102 119 85 102 119 85 102 119 85 102 119 85 102 119 85 102 119 85 102 119 85 102 119 85 102 119 85 102 119 85 102 119 85 102 119 85 102 119 85 102 119 85 102 119 85 102 119 85 102 119 85 102 119 85 102 119 85 102 119 85 102 119 85 102 119 85 102 119 85 102 119 85 102 119 85 102 119 85 102 119 85 102 119 85 102 119 85 102 119 85 102 119 85 102 119 85 102 119 85 102 119 85 102 119 85 102 119 85 102 119 85 102 119 85 102 119 85 102 119 85 102 119 85 102 119 85 102 119 85 102 119 85 102 119 85 102 119 85 102 119 85 102 119 85 102 119 85 102 119 85 102 119 85 102 119 85 102 119 85 102 119 85 102 119 85 102 119 85 102 119 85 102 119 85 102 119 85 102 119 85 102 119 85 102 119 85 102 119 85 102 119 85 102 119 85 102 119 85 102 119 85 102 119 51 68 85 51 68 85 51 68 85 51 68 85 51 68 85 51 68 85 51 68 85 51 68 85 17 17 34 17 17 34 17 17 34 17 17 34 17 17 34 17 17 34 17 17 34 17 17 34 17 17 34 17 17 34 17 17 34 17 17 34 17 17 34 17 17 34 17 17 34 17 17 34 17 17 34 17 17 34 17 17 34 17 17 34 17 17 34 17 17 34 17 17 34 17 17 34 17 17 34 17 17 34 17 17 34 17 17 34 17 17 34 17 17 34 17 17 34 17 17 34 17 17 34 17 17 34 17 17 34 17 17 34 17 17 34 17 17 34 17 17 34 17 17 34 17 17 34 17 17 34 17 17 34 17 17 34 17 17 34 17 17 34 17 17 34 17 17 34 17 17 34 17 17 34 17 17 34 17 17 34 17 17 34 17 17 34 17 17 34 17 17 34 17 17 34 17 17 34 17 17 34 17 17 34 17 17 34 17 17 34 17 17 34 17 17 34 17 17 34 17 17 34 17 17 34 17 17 34 17 17 34 17 17 34 17 17 34 17 17 34 17 17 34 17 17 34 17 17 34 17 17 34 17 17 34 17 17 34 17 17 34 17 17 34 17 17 34 17 17 34 17 17 34 17 17 34 17 17 34 17 17 34 17 17 34 17 17 34 17 17 34 17 17 34 17 17 34 17 17 34 17 17 34 17 17 34 17 17 34 17 17 34 17 17 34 17 17 34 17 17 34 17 17 34 17 17 34 17 17 34 17 17 34 17 17 34 17 17 34 17 17 34 17 17 34 17 17 34 17 17 34 17 17 34 17 17 34 17 17 34 17 17 34 17 17 34 17 17 34 17 17 34 17 17 34 17 17 34 17 17 34 17 17 34 17 17 34 17 17 34 17 17 34 17 17 34 17 17 34 17 17 34 17 17 34 17 17 34 17 17 34 17 17 34 17 17 34 17 17 34 17 17 34 17 17 34 17 17 34 17 17 34 17 17 34 17 17 34 17 17 34 17 17 34 17 17 34 17 17 34 17 17 34 17 17 34 17 17 34 17 17 34 17 17 34 17 17 34 17 17 34 17 17 34 17 17 34 17 17 34 17 17 34 17 17 34 17 17 34 17 17 34 51 68 85 51 68 85 51 68 85 51 68 85 51 68 85 51 68 85 51 68 85 51 68 85 85 102 119 85 102 119 85 102 119 85 102 119 85 102 119 85 102 119 85 102 119 85 102 119 85 102 119 85 102 119 85 102 119 85 102 119 85 102 119 85 102 119 85 102 119 85 102 119 85 102 119 85 102 119 85 102 119 85 102 119 85 102 119 85 102 119 85 102 119 85 102 119 85 102 119 85 102 119 85 102 119 85 102 119 85 102 119 85 102 119 85 102 119 85 102 119 85 102 119 85 102 119 85 102 119 85 102 119 85 102 119 85 102 119 85 102 119 85 102 119 85 102 119 85 102 119 85 102 119 85 102 119 85 102 119 85 102 119 85 102 119 85 102 119 85 102 119 85 102 119 85 102 119 85 102 119 85 102 119 85 102 119 85 102 119 85 102 119 85 102 119 85 102 119 85 102 119 85 102 119 85 102 119 85 102 119 85 102 119 85 102 119 85 102 119 85 102 119 85 102 119 85 102 119 85 102 119 85 102 119 51 68 85 51 68 85 51 68 85 51 68 85
51 68 85 51 68 85 51 68 85 51 68 85 85 102 119 85 102 119 85 102 119 85 102 119 85 102 119 85 102 119 85 102 119 85 102 119 85 102 119 85 102 119 85 102 119 85 102 119 85 102 119 85 102 119 85 102 119 85 102 119 85 102 119 85 102 119 85 102 119 85 102 119 85 102 119 85 102 119 85 102 119 85 102 119 85 102 119 85 102 119 85 102 119 85 102 119 85 102 119 85 102 119 85 102 119 85 102 119 85 102 119 85 102 119 85 102 119 85 102 119 85 102 119 85 102 119 85 102 119 85 102 119 85 102 119 85 102 119 85 102 119 85 102 119 85 102 119 85 102 119 85 102 119 85 102 119 85 102 119 85 102 119 85 102 119 85 102 119 85 102 119 85 102 119 85 102 119 85 102 119 85 102 119 85 102 119 85 102 119 85 102 119 85 102 119 85 102 119 85 102 119 85 102 119 85 102 119 85 102 119 85 102 119 85 102 119 85 102 119 85 102 119 51 68 85 51 68 85 51 68 85 51 68 85 51 68 85 51 68 85 51 68 85 51 68 85 17 17 34 17 17 34 17 17 34 17 17 34 17 17 34 17 17 34 17 17 34 17 17 34 17 17 34 17 17 34 17 17 34 17 17 34 17 17 34 17 17 34 17 17 34 17 17 34 17 17 34 17 17 34 17 17 34 17 17 34 17 17 34 17 17 34 17 17 34 17 17 34 17 17 34 17 17 34 17 17 34 17 17 34 17 17 34 17 17 34 17 17 34 17 17 34 17 17 34 17 17 34 17 17 34 17 17 34 17 17 34 17 17 34 17 17 34 17 17 34 17 17 34 17 17 34 17 17 34 17 17 34 17 17 34 17 17 34 17 17 34 17 17 34 17 17 34 17 17 34 17 17 34 17 17 34 17 17 34 17 17 34 17 17 34 17 17 34 17 17 34 17 17 34 17 17 34 17 17 34 17 17 34 17 17 34 17 17 34 17 17 34 17 17 34 17 17 34 17 17 34 17 17 34 17 17 34 17 17 34 17 17 34 17 17 34 17 17 34 17 17 34 17 17 34 17 17 34 17 17 34 17 17 34 17 17 34 17 17 34 17 17 34 17 17 34 17 17 34 17 17 34 17 17 34 17 17 34 17 17 34 17 17 34 17 17 34 17 17 34 17 17 34 17 17 34 17 17 34 17 17 34 17 17 34 17 17 34 17 17 34 17 17 34 17 17 34 17 17 34 17 17 34 17 17 34 17 17 34 17 17 34 17 17 34 17 17 34 17 17 34 17 17 34 17 17 34 17 17 34 17 17 34 17 17 34 17 17 34 17 17 34 17 17 34 17 17 34 17 17 34 17 17 34 17 17 34 17 17 34 17 17 34 17 17 34 17 17 34 17 17 34 17 17 34 17 17 34 17 17 34 17 17 34 17 17 34 17 17 34 17 17 34 17 17 34 17 17 34 17 17 34 17 17 34 17 17 34 17 17 34 17 17 34 17 17 34 17 17 34 17 17 34 17 17 34 17 17 34 17 17 34 17 17 34 17 17 34 17 17 34 17 17 34 17 17 34 17 17 34 17 17 34 17 17 34 17 17 34 17 17 34 17 17 34 17 17 34 51 68 85 51 68 85 51 68 85 51 68 85 51 68 85 51 68 85 51 68 85 51 68 85 85 102 119 85 102 119 85 102 119 85 102 119 85 102 119 85 102 119 85 102 119 85 102 119 85 102 119 85 102 119 85 102 119 85 102 119 85 102 119 85 102 119 85 102 119 85 102 119 85 102 119 85 102 119 85 102 119 85 102 119 85 102 119 85 102 119 85 102 119 85 102 119 85 102 119 85 102 119 85 102 119 85 102 119 85 102 119 85 102 119 85 102 119 85 102 119 85 102 119 85 102 119 85 102 119 85 102 119 85 102 119 85 102 119 85 102 119 85 102 119 85 102 119 85 102 119 85 102 119 85 102 119 85 102 119 85 102 119 85 102 119 85 102 119 85 102 119 85 102 119 85 102 119 85 102 119 85 102 119 85 102 119 85 102 119 85 102 119 85 102 119 85 102 119 85 102 119 85 102 119 85 102 119 85 102 119 85 102 119 85 102 119 85 102 119 85 102 119 85 102 119 85 102 119 85 102 119 85 102 119 51 68 85 51 68 85 51 68 85 51 68 85
51 68 85 51 68 85 51 68 85 51 68 85 51 68 85 51 68 85 51 68 85 51 68 85 51 68 85 51 68 85 51 68 85 51 68 85 51 68 85 51 68 85 51 68 85 51 68 85 51 68 85 51 68 85 51 68 85 51 68 85 51 68 85 51 68 85 51 68 85 51 68 85 51 68 85 51 68 85 51 68 85 51 68 85 51 68 85 51 68 85 51 68 85 51 68 85 51 68 85 51 68 85 51 68 85 51 68 85 51 68 85 51 68 85 51 68 85 51 68 85 51 68 85 51 68 85 51 68 85 51 68 85 51 68 85 51 68 85 51 68 85 51 68 85 51 68 85 51 68 85 51 68 85 51 68 85 51 68 85 51 68 85 51 68 85 51 68 85 51 68 85 51 68 85 51 68 85 51 68 85 51 68 85 51 68 85 51 68 85 51 68 85 51 68 85 51 68 85 51 68 85 51 68 85 51 68 85 51 68 85 51 68 85 51 68 85 51 68 85 51 68 85 51 68 85 51 68 85 51 68 85 51 68 85 51 68 85 51 68 85 51 68 85 51 68 85 17 17 34 17 17 34 17 17 34 17 17 34 17 17 34 17 17 34 17 17 34 17 17 34 17 17 34 17 17 34 17 17 34 17 17 34 17 17 34 17 17 34 17 17 34 17 17 34 17 17 34 17 17 34 17 17 34 17 17 34 17 17 34 17 17 34 17 17 34 17 17 34 17 17 34 17 17 34 17 17 34 17 17 34 17 17 34 17 17 34 17 17 34 17 17 34 17 17 34 17 17 34 17 17 34 17 17 34 17 17 34 17 17 34 17 17 34 17 17 34 17 17 34 17 17 34 17 17 34 17 17 34 17 17 34 17 17 34 17 17 34 17 17 34 17 17 34 17 17 34 17 17 34 17 17 34 17 17 34 17 17 34 17 17 34 17 17 34 17 17 34 17 17 34 17 17 34 17 17 34 17 17 34 17 17 34 17 17 34 17 17 34 17 17 34 17 17 34 17 17 34 17 17 34 17 17 34 17 17 34 17 17 34 17 17 34 17 17 34 17 17 34 170 187 204 170 187 204 170 187 204 170 187 204 170 187 204 170 187 204 170 187 204 170 187 204 17 17 34 17 17 34 17 17 34 17 17 34 17 17 34 17 17 34 17 17 34 17 17 34 17 17 34 17 17 34 17 17 34 17 17 34 17 17 34 17 17 34 17 17 34 17 17 34 17 17 34 17 17 34 17 17 34 17 17 34 17 17 34 17 17 34 17 17 34 17 17 34 17 17 34 17 17 34 17 17 34 17 17 34 17 17 34 17 17 34 17 17 34 17 17 34 17 17 34 17 17 34 17 17 34 17 17 34 17 17 34 17 17 34 17 17 34 17 17 34 17 17 34 17 17 34 17 17 34 17 17 34 17 17 34 17 17 34 17 17 34 17 17 34 17 17 34 17 17 34 17 17 34 17 17 34 17 17 34 17 17 34 17 17 34 17 17 34 17 17 34 17 17 34 17 17 34 17 17 34 17 17 34 17 17 34 17 17 34 17 17 34 17 17 34 17 17 34 17 17 34 17 17 34 17 17 34 17 17 34 17 17 34 17 17 34 17 17 34 17 17 34 51 68 85 51 68 85 51 68 85 51 68 85 51 68 85 51 68 85 51 68 85 51 68 85 85 102 119 85 102 119 85 102 119 85 102 119 85 102 119 85 102 119 85 102 119 85 102 119 85 102 119 85 102 119 85 102 119 85 102 119 85 102 119 85 102 119 85 102 119 85 102 119 85 102 119 85 102 119 85 102 119 85 102 119 85 102 119 85 102 119 85 102 119 85 102 119 85 102 119 85 102 119 85 102 119 85 102 119 85 102 119 85 102 119 85 102 119 85 102 119 85 102 119 85 102 119 85 102 119 85 102 119 85 102 119 85 102 119 85 102 119 85 102 119 85 102 119 85 102 119 85 102 119 85 102 119 85 102 119 85 102 119 85 102 119 85 102 119 85 102 119 85 102 119 85 102 119 85 102 119 85 102 119 85 102 119 85 102 119 85 102 119 85 102 119 85 102 119 85 102 119 85 102 119 85 102 119 85 102 119 85 102 119 85 102 119 85 102 119 85 102 119 85 102 119 85 102 119 85 102 119 85 102 119 51 68 85 51 68 85 51 68 85 51 68 85
51 68 85 51 68 85 51 68 85 51 68 85 51 68 85 51 68 85 51 68 85 51 68 85 51 68 85 51 68 85 51 68 85 51 68 85 51 68 85 51 68 85 51 68 85 51 68 85 51 68 85 51 68 85 51 68 85 51 68 85 51 68 85 51 68 85 51 68 85 51 68 85 51 68 85 51 68 85 51 68 85 51 68 85 51 68 85 51 68 85 51 68 85 51 68 85 51 68 85 51 68 85 51 68 85 51 68 85 51 68 85 51 68 85 51 68 85 51 68 85 51 68 85 51 68 85 51 68 85 51 68 85 51 68 85 51 68 85 51 68 85 51 68 85 51 68 85 51 68 85 51 68 85 51 68 85 51 68 85 51 68 85 51 68 85 51 68 85 51 68 85 51 68 85 51 68 85 51 68 85 51 68 85 51 68 85 51 68 85 51 68 85 51 68 85 51 68 85 51 68 85 51 68 85 51 68 85 51 68 85 51 68 85 51 68 85 51 68 85 51 68 85 51 68 85 51 68 85 51 68 85 51 68 85 51 68 85 51 68 85 51 68 85 51 68 85 17 17 34 17 17 34 17 17 34 17 17 34 17 17 34 17 17 34 17 17 34 17 17 34 17 17 34 17 17 34 17 17 34 17 17 34 17 17 34 17 17 34 17 17 34 17 17 34 17 17 34 17 17 34 17 17 34 17 17 34 17 17 34 17 17 34 17 17 34 17 17 34 17 17 34 17 17 34 17 17 34 17 17 34 17 17 34 17 17 34 17 17 34 17 17 34 17 17 34 17 17 34 17 17 34 17 17 34 17 17 34 17 17 34 17 17 34 17 17 34 17 17 34 17 17 34 17 17 34 17 17 34 17 17 34 17 17 34 17 17 34 17 17 34 17 17 34 17 17 34 17 17 34 17 17 34 17 17 34 17 17 34 17 17 34 17 17 34 17 17 34 17 17 34 17 17 34 17 17 34 17 17 34 17 17 34 17 17 34 17 17 34 17 17 34 17 17 34 17 17 34 17 17 34 17 17 34 17 17 34 17 17 34 17 17 34 17 17 34 17 17 34 170 187 204 170 187 204 170 187 204 170 187 204 170 187 204 170 187 204 170 187 204 170 187 204 17 17 34 17 17 34 17 17 34 17 17 34 17 17 34 17 17 34 17 17 34 17 17 34 17 17 34 17 17 34 17 17 34 17 17 34 17 17 34 17 17 34 17 17 34 17 17 34 17 17 34 17 17 34 17 17 34 17 17 34 17 17 34 17 17 34 17 17 34 17 17 34 17 17 34 17 17 34 17 17 34 17 17 34 17 17 34 17 17 34 17 17 34 17 17 34 17 17 34 17 17 34 17 17 34 17 17 34 17 17 34 17 17 34 17 17 34 17 17 34 17 17 34 17 17 34 17 17 34 17 17 34 17 17 34 17 17 34 17 17 34 17 17 34 17 17 34 17 17 34 17 17 34 17 17 34 17 17 34 17 17 34 17 17 34 17 17 34 17 17 34 17 17 34 17 17 34 17 17 34 17 17 34 17 17 34 17 17 34 17 17 34 17 17 34 17 17 34 17 17 34 17 17 34 17 17 34 17 17 34 17 17 34 17 17 34 17 17 34 17 17 34 51 68 85 51 68 85 51 68 85 51 68 85 51 68 85 51 68 85 51 68 85 51 68 85 85 102 119 85 102 119 85 102 119 85 102 119 85 102 119 85 102 119 85 102 119 85 102 119 85 102 119 85 102 119 85 102 119 85 102 119 85 102 119 85 102 119 85 102 119 85 102 119 85 102 119 85 102 119 85 102 119 85 102 119 85 102 119 85 102 119 85 102 119 85 102 119 85 102 119 85 102 119 85 102 119 85 102 119 85 102 119 85 102 119 85 102 119 85 102 119 85 102 119 85 102 119 85 102 119 85 102 119 85 102 119 85 102 119 85 102 119 85 102 119 85 102 119 85 102 119 85 102 119 85 102 119 85 102 119 85 102 119 85 102 119 85 102 119 85 102 119 85 102 119 85 102 119 85 102 119 85 102 119 85 102 119 85 102 119 85 102 119 85 102 119 85 102 119 85 102 119 85 102 119 85 102 119 85 102 119 85 102 119 85 102 119 85 102 119 85 102 119 85 102 119 85 102 119 85 102 119 85 102 119 51 68 85 51 68 85 51 68 85 51 68 85
51 68 85 51 68 85 51 68 85 51 68 85 51 68 85 51 68 85 51 68 85 51 68 85 51 68 85 51 68 85 51 68 85 51 68 85 51 68 85 51 68 85 51 68 85 51 68 85 51 68 85 51 68 85 51 68 85 51 68 85 51 68 85 51 68 85 51 68 85 51 68 85 51 68 85 51 68 85 51 68 85 51 68 85 51 68 85 51 68 85 51 68 85 51 68 85 51 68 85 51 68 85 51 68 85 51 68 85 51 68 85 51 68 85 51 68 85 51 68 85 51 68 85 51 68 85 51 68 85 51 68 85 51 68 85 51 68 85 51 68 85 51 68 85 51 68 85 51 68 85 51 68 85 51 68 85 51 68 85 51 68 85 51 68 85 51 68 85 51 68 85 51 68 85 51 68 85 51 68 85 51 68 85 51 68 85 51 68 85 51 68 85 51 68 85 51 68 85 51 68 85 51 68 85 51 68 85 51 68 85 51 68 85 51 68 85 51 68 85 51 68 85 51 68 85 51 68 85 51 68 85 51 68 85 51 68 85 51 68 85 51 68 85 51 68 85 17 17 34 17 17 34 17 17 34 17 17 34 17 17 34 17 17 34 17 17 34 17 17 34 17 17 34 17 17 34 17 17 34 17 17 34 17 17 34 17 17 34 17 17 34 17 17 34 17 17 34 17 17 34 17 17 34 17 17 34 17 17 34 17 17 34 17 17 34 17 17 34 17 17 34 17 17 34 17 17 34 17 17 34 17 17 34 17 17 34 17 17 34 17 17 34 17 17 34 17 17 34 17 17 34 17 17 34 17 17 34 17 17 34 17 17 34 17 17 34 17 17 34 17 17 34 17 17 34 17 17 34 17 17 34 17 17 34 17 17 34 17 17 34 17 17 34 17 17 34 17 17 34 17 17 34 17 17 34 17 17 34 17 17 34 17 17 34 17 17 34 17 17 34 17 17 34 17 17 34 17 17 34 17 17 34 17 17 34 17 17 34 17 17 34 17 17 34 17 17 34 17 17 34 17 17 34 17 17 34 17 17 34 17 17 34 17 17 34 17 17 34 170 187 204 170 187 204 170 187 204 170 187 204 170 187 204 170 187 204 170 187 204 170 187 204 17 17 34 17 17 34 17 17 34 17 17 34 17 17 34 17 17 34 17 17 34 17 17 34 17 17 34 17 17 34 17 17 34 17 17 34 17 17 34 17 17 34 17 17 34 17 17 34 17 17 34 17 17 34 17 17 34 17 17 34 17 17 34 17 17 34 17 17 34 17 17 34 17 17 34 17 17 34 17 17 34 17 17 34 17 17 34 17 17 34 17 17 34 17 17 34 17 17 34 17 17 34 17 17 34 17 17 34 17 17 34 17 17 34 17 17 34 17 17 34 17 17 34 17 17 34 17 17 34 17 17 34 17 17 34 17 17 34 17 17 34 17 17 34 17 17 34 17 17 34 17 17 34 17 17 34 17 17 34 17 17 34 17 17 34 17 17 34 17 17 34 17 17 34 17 17 34 17 17 34 17 17 34 17 17 34 17 17 34 17 17 34 17 17 34 17 17 34 17 17 34 17 17 34 17 17 34 17 17 34 17 17 34 17 17 34 17 17 34 17 17 34 51 68 85 51 68 85 51 68 85 51 68 85 51 68 85 51 68 85 51 68 85 51 68 85 85 102 119 85 102 119 85 102 119 85 102 119 85 102 119 85 102 119 85 102 119 85 102 119 85 102 119 85 102 119 85 102 119 85 102 119 85 102 119 85 102 119 85 102 119 85 102 119 85 102 119 85 102 119 85 102 119 85 102 119 85 102 119 85 102 119 85 102 119 85 102 119 85 102 119 85 102 119 85 102 119 85 102 119 85 102 119 85 102 119 85 102 119 85 102 119 85 102 119 85 102 119 85 102 119 85 102 119 85 102 119 85 102 119 85 102 119 85 102 119 85 102 119 85 102 119 85 102 119 85 102 119 85 102 119 85 102 119 85 102 119 85 102 119 85 102 119 85 102 119 85 102 119 85 102 119 85 102 119 85 102 119 85 102 119 85 102 119 85 102 119 85 102 119 85 102 119 85 102 119 85 102 119 85 102 119 85 102 119 85 102 119 85 102 119 85 102 119 85 102 119 85 102 119 85 102 119 85 102 119 51 68 85 51 68 85 51 68 85 51 68 85
51 68 85 51 68 85 51 68 85 51 68 85 51 68 85 51 68 85 51 68 85 51 68 85 51 68 85 51 68 85 51 68 85 51 68 85 51 68 85 51 68 85 51 68 85 51 68 85 51 68 85 51 68 85 51 68 85 51 68 85 51 68 85 51 68 85 51 68 85 51 68 85 51 68 85 51 68 85 51 68 85 51 68 85 51 68 85 51 68 85 51 68 85 51 68 85 51 68 85 51 68 85 51 68 85 51 68 85 51 68 85 51 68 85 51 68 85 51 68 85 51 68 85 51 68 85 51 68 85 51 68 85 51 68 85 51 68 85 51 68 85 51 68 85 51 68 85 51 68 85 51 68 85 51 68 85 51 68 85 51 68 85 51 68 85 51 68 85 51 68 85 51 68 85 51 68 85 51 68 85 51 68 85 51 68 85 51 68 85 51 68 85 51 68 85 51 68 85 51 68 85 51 68 85 51 68 85 51 68 85 51 68 85 51 68 85 51 68 85 51 68 85 51 68 85 51 68 85 51 68 85 51 68 85 51 68 85 51 68 85 51 68 85 51 68 85 17 17 34 17 17 34 17 17 34 17 17 34 17 17 34 17 17 34 17 17 34 17 17 34 17 17 34 17 17 34 17 17 34 17 17 34 17 17 34 17 17 34 17 17 34 17 17 34 17 17 34 17 17 34 17 17 34 17 17 34 17 17 34 17 17 34 17 17 34 17 17 34 17 17 34 17 17 34 17 17 34 17 17 34 17 17 34 17 17 34 17 17 34 17 17 34 17 17 34 17 17 34 17 17 34 17 17 34 17 17 34 17 17 34 17 17 34 17 17 34 17 17 34 17 17 34 17 17 34 17 17 34 17 17 34 17 17 34 17 17 34 17 17 34 17 17 34 17 17 34 17 17 34 17 17 34 17 17 34 17 17 34 17 17 34 17 17 34 17 17 34 17 17 34 17 17 34 17 17 34 17 17 34 17 17 34 17 17 34 17 17 34 17 17 34 17 17 34 17 17 34 17 17 34 17 17 34 17 17 34 17 17 34 17 17 34 17 17 34 17 17 34 170 187 204 170 187 204 170 187 204 170 187 204 170 187 204 170 187 204 170 187 204 170 187 204 17 17 34 17 17 34 17 17 34 17 17 34 17 17 34 17 17 34 17 17 34 17 17 34 17 17 34 17 17 34 17 17 34 17 17 34 17 17 34 17 17 34 17 17 34 17 17 34 17 17 34 17 17 34 17 17 34 17 17 34 17 17 34 17 17 34 17 17 34 17 17 34 17 17 34 17 17 34 17 17 34 17 17 34 17 17 34 17 17 34 17 17 34 17 17 34 17 17 34 17 17 34 17 17 34 17 17 34 17 17 34 17 17 34 17 17 34 17 17 34 17 17 34 17 17 34 17 17 34 17 17 34 17 17 34 17 17 34 17 17 34 17 17 34 17 17 34 17 17 34 17 17 34 17 17 34 17 17 34 17 17 34 17 17 34 17 17 34 17 17 34 17 17 34 17 17 34 17 17 34 17 17 34 17 17 34 17 17 34 17 17 34 17 17 34 17 17 34 17 17 34 17 17 34 17 17 34 17 17 34 17 17 34 17 17 34 17 17 34 17 17 34 51 68 85 51 68 85 51 68 85 51 68 85 51 68 85 51 68 85 51 68 85 51 68 85 85 102 119 85 102 119 85 102 119 85 102 119 85 102 119 85 102 119 85 102 119 85 102 119 85 102 119 85 102 119 85 102 119 85 102 119 85 102 119 85 102 119 85 102 119 85 102 119 85 102 119 85 102 119 85 102 119 85 102 119 85 102 119 85 102 119 85 102 119 85 102 119 85 102 119 85 102 119 85 102 119 85 102 119 85 102 119 85 102 119 85 102 119 85 102 119 85 102 119 85 102 119 85 102 119 85 102 119 85 102 119 85 102 119 85 102 119 85 102 119 85 102 119 85 102 119 85 102 119 85 102 119 85 102 119 85 102 119 85 102 119 85 102 119 85 102 119 85 102 119 85 102 119 85 102 119 85 102 119 85 102 119 85 102 119 85 102 119 85 102 119 85 102 119 85 102 119 85 102 119 85 102 119 85 102 119 85 102 119 85 102 119 85 102 119 85 102 119 85 102 119 85 102 119 85 102 119 85 102 119 51 68 85 51 68 85 51 68 85 51 68 85
17 17 34 17 17 34 17 17 34 17 17 34 17 17 34 17 17 34 17 17 34 17 17 34 17 17 34 17 17 34 17 17 34 17 17 34 17 17 34 17 17 34 17 17 34 17 17 34 17 17 34 17 17 34 17 17 34 17 17 34 17 17 34 17 17 34 17 17 34 17 17 34 17 17 34 17 17 34 17 17 34 17 17 34 17 17 34 17 17 34 17 17 34 17 17 34 17 17 34 17 17 34 17 17 34 17 17 34 17 17 34 17 17 34 17 17 34 17 17 34 17 17 34 17 17 34 17 17 34 17 17 34 17 17 34 17 17 34 17 17 34 17 17 34 17 17 34 17 17 34 17 17 34 17 17 34 17 17 34 17 17 34 17 17 34 17 17 34 17 17 34 17 17 34 17 17 34 17 17 34 17 17 34 17 17 34 17 17 34 17 17 34 17 17 34 17 17 34 17 17 34 17 17 34 17 17 34 17 17 34 17 17 34 17 17 34 17 17 34 17 17 34 17 17 34 17 17 34 17 17 34 17 17 34 17 17 34 17 17 34 17 17 34 17 17 34 17 17 34 17 17 34 17 17 34 17 17 34 17 17 34 17 17 34 17 17 34 17 17 34 17 17 34 17 17 34 17 17 34 17 17 34 17 17 34 17 17 34 17 17 34 17 17 34 17 17 34 17 17 34 17 17 34 17 17 34 17 17 34 17 17 34 17 17 34 17 17 34 17 17 34 17 17 34 17 17 34 17 17 34 17 17 34 17 17 34 17 17 34 17 17 34 17 17 34 17 17 34 17 17 34 17 17 34 17 17 34 17 17 34 17 17 34 17 17 34 17 17 34 17 17 34 17 17 34 17 17 34 17 17 34 17 17 34 17 17 34 17 17 34 17 17 34 17 17 34 17 17 34 17 17 34 17 17 34 17 17 34 17 17 34 17 17 34 17 17 34 17 17 34 17 17 34 17 17 34 17 17 34 17 17 34 17 17 34 17 17 34 17 17 34 17 17 34 17 17 34 17 17 34 17 17 34 17 17 34 17 17 34 17 17 34 17 17 34 17 17 34 170 187 204 170 187 204 0 170 221 0 170 221 0 170 221 0 170 221 170 187 204 170 187 204 17 17 34 17 17 34 17 17 34 17 17 34 17 17 34 17 17 34 17 17 34 17 17 34 17 17 34 17 17 34 17 17 34 17 17 34 17 17 34 17 17 34 17 17 34 17 17 34 17 17 34 17 17 34 17 17 34 17 17 34 17 17 34 17 17 34 17 17 34 17 17 34 17 17 34 17 17 34 17 17 34 17 17 34 17 17 34 17 17 34 17 17 34 17 17 34 17 17 34 17 17 34 17 17 34 17 17 34 17 17 34 17 17 34 17 17 34 17 17 34 17 17 34 17 17 34 17 17 34 17 17 34 17 17 34 17 17 34 17 17 34 17 17 34 17 17 34 17 17 34 17 17 34 17 17 34 17 17 34 17 17 34 17 17 34 17 17 34 17 17 34 17 17 34 17 17 34 17 17 34 17 17 34 17 17 34 17 17 34 17 17 34 17 17 34 17 17 34 17 17 34 17 17 34 17 17 34 17 17 34 17 17 34 17 17 34 17 17 34 17 17 34 51 68 85 51 68 85 51 68 85 51 68 85 51 68 85 51 68 85 51 68 85 51 68 85 51 68 85 51 68 85 51 68 85 51 68 85 51 68 85 51 68 85 51 68 85 51 68 85 51 68 85 51 68 85 51 68 85 51 68 85 51 68 85 51 68 85 51 68 85 51 68 85 51 68 85 51 68 85 51 68 85 51 68 85 51 68 85 51 68 85 51 68 85 51 68 85 51 68 85 51 68 85 51 68 85 51 68 85 51 68 85 51 68 85 51 68 85 51 68 85 51 68 85 51 68 85 51 68 85 51 68 85 51 68 85 51 68 85 51 68 85 51 68 85 51 68 85 51 68 85 51 68 85 51 68 85 51 68 85 51 68 85 51 68 85 51 68 85 51 68 85 51 68 85 51 68 85 51 68 85 51 68 85 51 68 85 51 68 85 51 68 85 51 68 85 51 68 85 51 68 85 51 68 85 51 68 85 51 68 85 51 68 85 51 68 85 51 68 85 51 68 85 51 68 85 51 68 85 51 68 85 51 68 85 51 68 85 51 68 85 51 68 85 51 68 85
17 17 34 17 17 34 17 17 34 17 17 34 17 17 34 17 17 34 17 17 34 17 17 34 17 17 34 17 17 34 17 17 34 17 17 34 17 17 34 17 17 34 17 17 34 17 17 34 17 17 34 17 17 34 17 17 34 17 17 34 17 17 34 17 17 34 17 17 34 17 17 34 17 17 34 17 17 34 17 17 34 17 17 34 17 17 34 17 17 34 17 17 34 17 17 34 17 17 34 17 17 34 17 17 34 17 17 34 17 17 34 17 17 34 17 17 34 17 17 34 17 17 34 17 17 34 17 17 34 17 17 34 17 17 34 17 17 34 17 17 34 17 17 34 17 17 34 17 17 34 17 17 34 17 17 34 17 17 34 17 17 34 17 17 34 17 17 34 17 17 34 17 17 34 17 17 34 17 17 34 17 17 34 17 17 34 17 17 34 17 17 34 17 17 34 17 17 34 17 17 34 17 17 34 17 17 34 17 17 34 17 17 34 17 17 34 17 17 34 17 17 34 17 17 34 17 17 34 17 17 34 17 17 34 17 17 34 17 17 34 17 17 34 17 17 34 17 17 34 17 17 34 17 17 34 17 17 34 17 17 34 17 17 34 17 17 34 17 17 34 17 17 34 17 17 34 17 17 34 17 17 34 17 17 34 17 17 34 17 17 34 17 17 34 17 17 34 17 17 34 17 17 34 17 17 34 17 17 34 17 17 34 17 17 34 17 17 34 17 17 34 17 17 34 17 17 34 17 17 34 17 17 34 17 17 34 17 17 34 17 17 34 17 17 34 17 17 34 17 17 34 17 17 34 17 17 34 17 17 34 17 17 34 17 17 34 17 17 34 17 17 34 17 17 34 17 17 34 17 17 34 17 17 34 17 17 34 17 17 34 17 17 34 17 17 34 17 17 34 17 17 34 17 17 34 17 17 34 17 17 34 17 17 34 17 17 34 17 17 34 17 17 34 17 17 34 17 17 34 17 17 34 17 17 34 17 17 34 17 17 34 17 17 34 17 17 34 17 17 34 17 17 34 17 17 34 17 17 34 17 17 34 17 17 34 17 17 34 170 187 204 170 187 204 0 170 221 0 170 221 0 170 221 0 170 221 170 187 204 170 187 204 17 17 34 17 17 34 17 17 34 17 17 34 17 17 34 17 17 34 17 17 34 17 17 34 17 17 34 17 17 34 17 17 34 17 17 34 17 17 34 17 17 34 17 17 34 17 17 34 17 17 34 17 17 34 17 17 34 17 17 34 17 17 34 17 17 34 17 17 34 17 17 34 17 17 34 17 17 34 17 17 34 17 17 34 17 17 34 17 17 34 17 17 34 17 17 34 17 17 34 17 17 34 17 17 34 17 17 34 17 17 34 17 17 34 17 17 34 17 17 34 17 17 34 17 17 34 17 17 34 17 17 34 17 17 34 17 17 34 17 17 34 17 17 34 17 17 34 17 17 34 17 17 34 17 17 34 17 17 34 17 17 34 17 17 34 17 17 34 17 17 34 17 17 34 17 17 34 17 17 34 17 17 34 17 17 34 17 17 34 17 17 34 17 17 34 17 17 34 17 17 34 17 17 34 17 17 34 17 17 34 17 17 34 17 17 34 17 17 34 17 17 34 51 68 85 51 68 85 51 68 85 51 68 85 51 68 85 51 68 85 51 68 85 51 68 85 51 68 85 51 68 85 51 68 85 51 68 85 51 68 85 51 68 85 51 68 85 51 68 85 51 68 85 51 68 85 51 68 85 51 68 85 51 68 85 51 68 85 51 68 85 51 68 85 51 68 85 51 68 85 51 68 85 51 68 85 51 68 85 51 68 85 51 68 85 51 68 85 51 68 85 51 68 85 51 68 85 51 68 85 51 68 85 51 68 85 51 68 85 51 68 85 51 68 85 51 68 85 51 68 85 51 68 85 51 68 85 51 68 85 51 68 85 51 68 85 51 68 85 51 68 85 51 68 85 51 68 85 51 68 85 51 68 85 51 68 85 51 68 85 51 68 85 51 68 85 51 68 85 51 68 85 51 68 85 51 68 85 51 68 85 51 68 85 51 68 85 51 68 85 51 68 85 51 68 85 51 68 85 51 68 85 51 68 85 51 68 85 51 68 85 51 68 85 51 68 85 51 68 85 51 68 85 51 68 85 51 68 85 51 68 85 51 68 85 51 68 85
17 17 34 17 17 34 17 17 34 17 17 34 17 17 34 17 17 34 17 17 34 17 17 34 17 17 34 17 17 34 17 17 34 17 17 34 17 17 34 17 17 34 17 17 34 17 17 34 17 17 34 17 17 34 17 17 34 17 17 34 17 17 34 17 17 34 17 17 34 17 17 34 17 17 34 17 17 34 17 17 34 17 17 34 17 17 34 17 17 34 17 17 34 17 17 34 17 17 34 17 17 34 17 17 34 17 17 34 17 17 34 17 17 34 17 17 34 17 17 34 17 17 34 17 17 34 17 17 34 17 17 34 17 17 34 17 17 34 17 17 34 17 17 34 17 17 34 17 17 34 17 17 34 17 17 34 17 17 34 17 17 34 17 17 34 17 17 34 17 17 34 17 17 34 17 17 34 17 17 34 17 17 34 17 17 34 17 17 34 17 17 34 17 17 34 17 17 34 17 17 34 17 17 34 17 17 34 17 17 34 17 17 34 17 17 34 17 17 34 17 17 34 17 17 34 17 17 34 17 17 34 17 17 34 17 17 34 17 17 34 17 17 34 17 17 34 17 17 34 17 17 34 17 17 34 17 17 34 17 17 34 17 17 34 17 17 34 17 17 34 17 17 34 17 17 34 17 17 34 17 17 34 17 17 34 17 17 34 17 17 34 17 17 34 17 17 34 17 17 34 17 17 34 17 17 34 17 17 34 17 17 34 17 17 34 17 17 34 17 17 34 17 17 34 17 17 34 17 17 34 17 17 34 17 17 34 17 17 34 17 17 34 17 17 34 17 17 34 17 17 34 17 17 34 17 17 34 17 17 34 17 17 34 17 17 34 17 17 34 17 17 34 17 17 34 17 17 34 17 17 34 17 17 34 17 17 34 17 17 34 17 17 34 17 17 34 17 17 34 17 17 34 17 17 34 17 17 34 17 17 34 17 17 34 17 17 34 17 17 34 17 17 34 17 17 34 17 17 34 17 17 34 17 17 34 17 17 34 17 17 34 17 17 34 17 17 34 17 17 34 17 17 34 17 17 34 17 17 34 17 17 34 17 17 34 17 17 34 170 187 204 170 187 204 0 170 221 0 170 221 0 170 221 0 170 221 170 187 204 170 187 204 17 17 34 17 17 34 17 17 34 17 17 34 17 17 34 17 17 34 17 17 34 17 17 34 17 17 34 17 17 34 17 17 34 17 17 34 17 17 34 17 17 34 17 17 34 17 17 34 17 17 34 17 17 34 17 17 34 17 17 34 17 17 34 17 17 34 17 17 34 17 17 34 17 17 34 17 17 34 17 17 34 17 17 34 17 17 34 17 17 34 17 17 34 17 17 34 17 17 34 17 17 34 17 17 34 17 17 34 17 17 34 17 17 34 17 17 34 17 17 34 17 17 34 17 17 34 17 17 34 17 17 34 17 17 34 17 17 34 17 17 34 17 17 34 17 17 34 17 17 34 17 17 34 17 17 34 17 17 34 17 17 34 17 17 34 17 17 34 17 17 34 17 17 34 17 17 34 17 17 34 17 17 34 17 17 34 17 17 34 17 17 34 17 17 34 17 17 34 17 17 34 17 17 34 17 17 34 17 17 34 17 17 34 17 17 34 17 17 34 17 17 34 51 68 85 51 68 85 51 68 85 51 68 85 51 68 85 51 68 85 51 68 85 51 68 85 51 68 85 51 68 85 51 68 85 51 68 85 51 68 85 51 68 85 51 68 85 51 68 85 51 68 85 51 68 85 51 68 85 51 68 85 51 68 85 51 68 85 51 68 85 51 68 85 51 68 85 51 68 85 51 68 85 51 68 85 51 68 85 51 68 85 51 68 85 51 68 85 51 68 85 51 68 85 51 68 85 51 68 85 51 68 85 51 68 85 51 68 85 51 68 85 51 68 85 51 68 85 51 68 85 51 68 85 51 68 85 51 68 85 51 68 85 51 68 85 51 68 85 51 68 85 51 68 85 51 68 85 51 68 85 51 68 85 51 68 85 51 68 85 51 68 85 51 68 85 51 68 85 51 68 85 51 68 85 51 68 85 51 68 85 51 68 85 51 68 85 51 68 85 51 68 85 51 68 85 51 68 85 51 68 85 51 68 85 51 68 85 51 68 85 51 68 85 51 68 85 51 68 85 51 68 85 51 68 85 51 68 85 51 68 85 51 68 85 51 68 85
17 17 34 17 17 34 17 17 34 17 17 34 17 17 34 17 17 34 17 17 34 17 17 34 17 17 34 17 17 34 17 17 34 17 17 34 17 17 34 17 17 34 17 17 34 17 17 34 17 17 34 17 17 34 17 17 34 17 17 34 17 17 34 17 17 34 17 17 34 17 17 34 17 17 34 17 17 34 17 17 34 17 17 34 17 17 34 17 17 34 17 17 34 17 17 34 17 17 34 17 17 34 17 17 34 17 17 34 17 17 34 17 17 34 17 17 34 17 17 34 17 17 34 17 17 34 17 17 34 17 17 34 17 17 34 17 17 34 17 17 34 17 17 34 17 17 34 17 17 34 17 17 34 17 17 34 17 17 34 17 17 34 17 17 34 17 17 34 17 17 34 17 17 34 17 17 34 17 17 34 17 17 34 17 17 34 17 17 34 17 17 34 17 17 34 17 17 34 17 17 34 17 17 34 17 17 34 17 17 34 17 17 34 17 17 34 17 17 34 17 17 34 17 17 34 17 17 34 17 17 34 17 17 34 17 17 34 17 17 34 17 17 34 17 17 34 17 17 34 17 17 34 17 17 34 17 17 34 17 17 34 17 17 34 17 17 34 17 17 34 17 17 34 17 17 34 17 17 34 17 17 34 17 17 34 17 17 34 17 17 34 17 17 34 17 17 34 17 17 34 17 17 34 17 17 34 17 17 34 17 17 34 17 17 34 17 17 34 17 17 34 17 17 34 17 17 34 17 17 34 17 17 34 17 17 34 17 17 34 17 17 34 17 17 34 17 17 34 17 17 34 17 17 34 17 17 34 17 17 34 17 17 34 17 17 34 17 17 34 17 17 34 17 17 34 17 17 34 17 17 34 17 17 34 17 17 34 17 17 34 17 17 34 17 17 34 17 17 34 17 17 34 17 17 34 17 17 34 17 17 34 17 17 34 17 17 34 17 17 34 17 17 34 17 17 34 17 17 34 17 17 34 17 17 34 17 17 34 17 17 34 17 17 34 17 17 34 17 17 34 17 17 34 17 17 34 17 17 34 17 17 34 17 17 34 17 17 34 170 187 204 170 187 204 0 170 221 0 170 221 0 170 221 0 170 221 170 187 204 170 187 204 17 17 34 17 17 34 17 17 34 17 17 34 17 17 34 17 17 34 17 17 34 17 17 34 17 17 34 17 17 34 17 17 34 17 17 34 17 17 34 17 17 34 17 17 34 17 17 34 17 17 34 17 17 34 17 17 34 17 17 34 17 17 34 17 17 34 17 17 34 17 17 34 17 17 34 17 17 34 17 17 34 17 17 34 17 17 34 17 17 34 17 17 34 17 17 34 17 17 34 17 17 34 17 17 34 17 17 34 17 17 34 17 17 34 17 17 34 17 17 34 17 17 34 17 17 34 17 17 34 17 17 34 17 17 34 17 17 34 17 17 34 17 17 34 17 17 34 17 17 34 17 17 34 17 17 34 17 17 34 17 17 34 17 17 34 17 17 34 17 17 34 17 17 34 17 17 34 17 17 34 17 17 34 17 17 34 17 17 34 17 17 34 17 17 34 17 17 34 17 17 34 17 17 34 17 17 34 17 17 34 17 17 34 17 17 34 17 17 34 17 17 34 51 68 85 51 68 85 51 68 85 51 68 85 51 68 85 51 68 85 51 68 85 51 68 85 51 68 85 51 68 85 51 68 85 51 68 85 51 68 85 51 68 85 51 68 85 51 68 85 51 68 85 51 68 85 51 68 85 51 68 85 51 68 85 51 68 85 51 68 85 51 68 85 51 68 85 51 68 85 51 68 85 51 68 85 51 68 85 51 68 85 51 68 85 51 68 85 51 68 85 51 68 85 51 68 85 51 68 85 51 68 85 51 68 85 51 68 85 51 68 85 51 68 85 51 68 85 51 68 85 51 68 85 51 68 85 51 68 85 51 68 85 51 68 85 51 68 85 51 68 85 51 68 85 51 68 85 51 68 85 51 68 85 51 68 85 51 68 85 51 68 85 51 68 85 51 68 85 51 68 85 51 68 85 51 68 85 51 68 85 51 68 85 51 68 85 51 68 85 51 68 85 51 68 85 51 68 85 51 68 85 51 68 85 51 68 85 51 68 85 51 68 85 51 68 85 51 68 85 51 68 85 51 68 85 51 68 85 51 68 85 51 68 85 51 68 85
51 68 85 51 68 85 51 68 85 51 68 85 51 68 85 51 68 85 51 68 85 51 68 85 51 68 85 51 68 85 51 68 85 51 68 85 51 68 85 51 68 85 51 68 85 51 68 85 51 68 85 51 68 85 51 68 85 51 68 85 51 68 85 51 68 85 51 68 85 51 68 85 51 68 85 51 68 85 51 68 85 51 68 85 51 68 85 51 68 85 51 68 85 51 68 85 51 68 85 51 68 85 51 68 85 51 68 85 51 68 85 51 68 85 51 68 85 51 68 85 51 68 85 51 68 85 51 68 85 51 68 85 51 68 85 51 68 85 51 68 85 51 68 85 51 68 85 51 68 85 51 68 85 51 68 85 51 68 85 51 68 85 51 68 85 51 68 85 51 68 85 51 68 85 51 68 85 51 68 85 51 68 85 51 68 85 51 68 85 51 68 85 51 68 85 51 68 85 51 68 85 51 68 85 51 68 85 51 68 85 51 68 85 51 68 85 51 68 85 51 68 85 51 68 85 51 68 85 51 68 85 51 68 85 51 68 85 51 68 85 51 68 85 51 68 85 17 17 34 17 17 34 17 17 34 17 17 34 17 17 34 17 17 34 17 17 34 17 17 34 17 17 34 17 17 34 17 17 34 17 17 34 17 17 34 17 17 34 17 17 34 17 17 34 17 17 34 17 17 34 17 17 34 17 17 34 17 17 34 17 17 34 17 17 34 17 17 34 17 17 34 17 17 34 17 17 34 17 17 34 17 17 34 17 17 34 17 17 34 17 17 34 17 17 34 17 17 34 17 17 34 17 17 34 17 17 34 17 17 34 17 17 34 17 17 34 17 17 34 17 17 34 17 17 34 17 17 34 17 17 34 17 17 34 17 17 34 17 17 34 17 17 34 17 17 34 17 17 34 17 17 34 17 17 34 17 17 34 17 17 34 17 17 34 17 17 34 17 17 34 17 17 34 17 17 34 17 17 34 17 17 34 17 17 34 17 17 34 17 17 34 17 17 34 17 17 34 17 17 34 17 17 34 85 102 119 85 102 119 85 102 119 85 102 119 85 102 119 170 187 204 170 187 204 0 170 221 0 170 221 0 170 221 0 170 221 170 187 204 170 187 204 85 102 119 85 102 119 85 102 119 85 102 119 85 102 119 17 17 34 17 17 34 17 17 34 17 17 34 17 17 34 17 17 34 17 17 34 17 17 34 17 17 34 17 17 34 17 17 34 17 17 34 17 17 34 17 17 34 17 17 34 17 17 34 17 17 34 17 17 34 17 17 34 17 17 34 17 17 34 17 17 34 17 17 34 17 17 34 17 17 34 17 17 34 17 17 34 17 17 34 17 17 34 17 17 34 17 17 34 17 17 34 17 17 34 17 17 34 17 17 34 17 17 34 17 17 34 17 17 34 17 17 34 17 17 34 17 17 34 17 17 34 17 17 34 17 17 34 17 17 34 17 17 34 17 17 34 17 17 34 17 17 34 17 17 34 17 17 34 17 17 34 17 17 34 17 17 34 17 17 34 17 17 34 17 17 34 17 17 34 17 17 34 17 17 34 17 17 34 17 17 34 17 17 34 17 17 34 17 17 34 17 17 34 17 17 34 17 17 34 17 17 34 17 17 34 17 17 34 17 17 34 17 17 34 17 17 34 17 17 34 17 17 34 17 17 34 17 17 34 17 17 34 17 17 34 17 17 34 17 17 34 17 17 34 17 17 34 17 17 34 17 17 34 17 17 34 17 17 34 17 17 34 17 17 34 17 17 34 17 17 34 17 17 34 17 17 34 17 17 34 17 17 34 17 17 34 17 17 34 17 17 34 17 17 34 17 17 34 17 17 34 17 17 34 17 17 34 17 17 34 17 17 34 17 17 34 17 17 34 17 17 34 17 17 34 17 17 34 17 17 34 17 17 34 17 17 34 17 17 34 17 17 34 17 17 34 17 17 34 17 17 34 17 17 34 17 17 34 17 17 34 17 17 34 17 17 34 17 17 34 17 17 34 17 17 34 17 17 34 17 17 34 17 17 34 17 17 34 17 17 34 17 17 34 17 17 34 17 17 34 17 17 34 17 17 34 17 17 34 17 17 34 17 17 34 17 17 34 17 17 34 17 17 34 17 17 34 17 17 34 17 17 34 17 17 34 17 17 34 17 17 34 17 17 34 17 17 34
51 68 85 51 68 85 51 68 85 51 68 85 51 68 85 51 68 85 51 68 85 51 68 85 51 68 85 51 68 85 51 68 85 51 68 85 51 68 85 51 68 85 51 68 85 51 68 85 51 68 85 51 68 85 51 68 85 51 68 85 51 68 85 51 68 85 51 68 85 51 68 85 51 68 85 51 68 85 51 68 85 51 68 85 51 68 85 51 68 85 51 68 85 51 68 85 51 68 85 51 68 85 51 68 85 51 68 85 51 68 85 51 68 85 51 68 85 51 68 85 51 68 85 51 68 85 51 68 85 51 68 85 51 68 85 51 68 85 51 68 85 51 68 85 51 68 85 51 68 85 51 68 85 51 68 85 51 68 85 51 68 85 51 68 85 51 68 85 51 68 85 51 68 85 51 68 85 51 68 85 51 68 85 51 68 85 51 68 85 51 68 85 51 68 85 51 68 85 51 68 85 51 68 85 51 68 85 51 68 85 51 68 85 51 68 85 51 68 85 51 68 85 51 68 85 51 68 85 51 68 85 51 68 85 51 68 85 51 68 85 51 68 85 51 68 85 17 17 34 17 17 34 17 17 34 17 17 34 17 17 34 17 17 34 17 17 34 17 17 34 17 17 34 17 17 34 17 17 34 17 17 34 17 17 34 17 17 34 17 17 34 17 17 34 17 17 34 17 17 34 17 17 34 17 17 34 17 17 34 17 17 34 17 17 34 17 17 34 17 17 34 17 17 34 17 17 34 17 17 34 17 17 34 17 17 34 17 17 34 17 17 34 17 17 34 17 17 34 17 17 34 17 17 34 17 17 34 17 17 34 17 17 34 17 17 34 17 17 34 17 17 34 17 17 34 17 17 34 17 17 34 17 17 34 17 17 34 17 17 34 17 17 34 17 17 34 17 17 34 17 17 34 17 17 34 17 17 34 17 17 34 17 17 34 17 17 34 17 17 34 17 17 34 17 17 34 17 17 34 17 17 34 17 17 34 17 17 34 17 17 34 17 17 34 17 17 34 17 17 34 17 17 34 85 102 119 85 102 119 85 102 119 85 102 119 85 102 119 170 187 204 170 187 204 0 170 221 0 170 221 0 170 221 0 170 221 170 187 204 170 187 204 85 102 119 85 102 119 85 102 119 85 102 119 85 102 119 17 17 34 17 17 34 17 17 34 17 17 34 17 17 34 17 17 34 17 17 34 17 17 34 17 17 34 17 17 34 17 17 34 17 17 34 17 17 34 17 17 34 17 17 34 17 17 34 17 17 34 17 17 34 17 17 34 17 17 34 17 17 34 17 17 34 17 17 34 17 17 34 17 17 34 17 17 34 17 17 34 17 17 34 17 17 34 17 17 34 17 17 34 17 17 34 17 17 34 17 17 34 17 17 34 17 17 34 17 17 34 17 17 34 17 17 34 17 17 34 17 17 34 17 17 34 17 17 34 17 17 34 17 17 34 17 17 34 17 17 34 17 17 34 17 17 34 17 17 34 17 17 34 17 17 34 17 17 34 17 17 34 17 17 34 17 17 34 17 17 34 17 17 34 17 17 34 17 17 34 17 17 34 17 17 34 17 17 34 17 17 34 17 17 34 17 17 34 17 17 34 17 17 34 17 17 34 17 17 34 17 17 34 17 17 34 17 17 34 17 17 34 17 17 34 17 17 34 17 17 34 17 17 34 17 17 34 17 17 34 17 17 34 17 17 34 17 17 34 17 17 34 17 17 34 17 17 34 17 17 34 17 17 34 17 17 34 17 17 34 17 17 34 17 17 34 17 17 34 17 17 34 17 17 34 17 17 34 17 17 34 17 17 34 17 17 34 17 17 34 17 17 34 17 17 34 17 17 34 17 17 34 17 17 34 17 17 34 17 17 34 17 17 34 17 17 34 17 17 34 17 17 34 17 17 34 17 17 34 17 17 34 17 17 34 17 17 34 17 17 34 17 17 34 17 17 34 17 17 34 17 17 34 17 17 34 17 17 34 17 17 34 17 17 34 17 17 34 17 17 34 17 17 34 17 17 34 17 17 34 17 17 34 17 17 34 17 17 34 17 17 34 17 17 34 17 17 34 17 17 34 17 17 34 17 17 34 17 17 34 17 17 34 17 17 34 17 17 34 17 17 34 17 17 34 17 17 34 17 17 34 17 17 34 17 17 34 17 17 34 17 17 34
51 68 85 51 68 85 51 68 85 51 68 85 51 68 85 51 68 85 51 68 85 51 68 85 51 68 85 51 68 85 51 68 85 51 68 85 51 68 85 51 68 85 51 68 85 51 68 85 51 68 85 51 68 85 51 68 85 51 68 85 51 68 85 51 68 85 51 68 85 51 68 85 51 68 85 51 68 85 51 68 85 51 68 85 51 68 85 51 68 85 51 68 85 51 68 85 51 68 85 51 68 85 51 68 85 51 68 85 51 68 85 51 68 85 51 68 85 51 68 85 51 68 85 51 68 85 51 68 85 51 68 85 51 68 85 51 68 85 51 68 85 51 68 85 51 68 85 51 68 85 51 68 85 51 68 85 51 68 85 51 68 85 51 68 85 51 68 85 51 68 85 51 68 85 51 68 85 51 68 85 51 68 85 51 68 85 51 68 85 51 68 85 51 68 85 51 68 85 51 68 85 51 68 85 51 68 85 51 68 85 51 68 85 51 68 85 51 68 85 51 68 85 51 68 85 51 68 85 51 68 85 51 68 85 51 68 85 51 68 85 51 68 85 51 68 85 17 17 34 17 17 34 17 17 34 17 17 34 17 17 34 17 17 34 17 17 34 17 17 34 17 17 34 17 17 34 17 17 34 17 17 34 17 17 34 17 17 34 17 17 34 17 17 34 17 17 34 17 17 34 17 17 34 17 17 34 17 17 34 17 17 34 17 17 34 17 17 34 17 17 34 17 17 34 17 17 34 17 17 34 17 17 34 17 17 34 17 17 34 17 17 34 17 17 34 17 17 34 17 17 34 17 17 34 17 17 34 17 17 34 17 17 34 17 17 34 17 17 34 17 17 34 17 17 34 17 17 34 17 17 34 17 17 34 17 17 34 17 17 34 17 17 34 17 17 34 17 17 34 17 17 34 17 17 34 17 17 34 17 17 34 17 17 34 17 17 34 17 17 34 17 17 34 17 17 34 17 17 34 17 17 34 17 17 34 17 17 34 17 17 34 17 17 34 17 17 34 17 17 34 17 17 34 85 102 119 85 102 119 85 102 119 85 102 119 85 102 119 170 187 204 170 187 204 0 170 221 0 170 221 0 170 221 0 170 221 170 187 204 170 187 204 85 102 119 85 102 119 85 102 119 85 102 119 85 102 119 17 17 34 17 17 34 17 17 34 17 17 34 17 17 34 17 17 34 17 17 34 17 17 34 17 17 34 17 17 34 17 17 34 17 17 34 17 17 34 17 17 34 17 17 34 17 17 34 17 17 34 17 17 34 17 17 34 17 17 34 17 17 34 17 17 34 17 17 34 17 17 34 17 17 34 17 17 34 17 17 34 17 17 34 17 17 34 17 17 34 17 17 34 17 17 34 17 17 34 17 17 34 17 17 34 17 17 34 17 17 34 17 17 34 17 17 34 17 17 34 17 17 34 17 17 34 17 17 34 17 17 34 17 17 34 17 17 34 17 17 34 17 17 34 17 17 34 17 17 34 17 17 34 17 17 34 17 17 34 17 17 34 17 17 34 17 17 34 17 17 34 17 17 34 17 17 34 17 17 34 17 17 34 17 17 34 17 17 34 17 17 34 17 17 34 17 17 34 17 17 34 17 17 34 17 17 34 17 17 34 17 17 34 17 17 34 17 17 34 17 17 34 17 17 34 17 17 34 17 17 34 17 17 34 17 17 34 17 17 34 17 17 34 17 17 34 17 17 34 17 17 34 17 17 34 17 17 34 17 17 34 17 17 34 17 17 34 17 17 34 17 17 34 17 17 34 17 17 34 17 17 34 17 17 34 17 17 34 17 17 34 17 17 34 17 17 34 17 17 34 17 17 34 17 17 34 17 17 34 17 17 34 17 17 34 17 17 34 17 17 34 17 17 34 17 17 34 17 17 34 17 17 34 17 17 34 17 17 34 17 17 34 17 17 34 17 17 34 17 17 34 17 17 34 17 17 34 17 17 34 17 17 34 17 17 34 17 17 34 17 17 34 17 17 34 17 17 34 17 17 34 17 17 34 17 17 34 17 17 34 17 17 34 17 17 34 17 17 34 17 17 34 17 17 34 17 17 34 17 17 34 17 17 34 17 17 34 17 17 34 17 17 34 17 17 34 17 17 34 17 17 34 17 17 34 17 17 34 17 17 34 17 17 34 17 17 34 17 17 34 17 17 34
51 68 85 51 68 85 51 68 85 51 68 85 51 68 85 51 68 85 51 68 85 51 68 85 51 68 85 51 68 85 51 68 85 51 68 85 51 68 85 51 68 85 51 68 85 51 68 85 51 68 85 51 68 85 51 68 85 51 68 85 51 68 85 51 68 85 51 68 85 51 68 85 51 68 85 51 68 85 51 68 85 51 68 85 51 68 85 51 68 85 51 68 85 51 68 85 51 68 85 51 68 85 51 68 85 51 68 85 51 68 85 51 68 85 51 68 85 51 68 85 51 68 85 51 68 85 51 68 85 51 68 85 51 68 85 51 68 85 51 68 85 51 68 85 51 68 85 51 68 85 51 68 85 51 68 85 51 68 85 51 68 85 51 68 85 51 68 85 51 68 85 51 68 85 51 68 85 51 68 85 51 68 85 51 68 85 51 68 85 51 68 85 51 68 85 51 68 85 51 68 85 51 68 85 51 68 85 51 68 85 51 68 85 51 68 85 51 68 85 51 68 85 51 68 85 51 68 85 51 68 85 51 68 85 51 68 85 51 68 85 51 68 85 51 68 85 17 17 34 17 17 34 17 17 34 17 17 34 17 17 34 17 17 34 17 17 34 17 17 34 17 17 34 17 17 34 17 17 34 17 17 34 17 17 34 17 17 34 17 17 34 17 17 34 17 17 34 17 17 34 17 17 34 17 17 34 17 17 34 17 17 34 17 17 34 17 17 34 17 17 34 17 17 34 17 17 34 17 17 34 17 17 34 17 17 34 17 17 34 17 17 34 17 17 34 17 17 34 17 17 34 17 17 34 17 17 34 17 17 34 17 17 34 17 17 34 17 17 34 17 17 34 17 17 34 17 17 34 17 17 34 17 17 34 17 17 34 17 17 34 17 17 34 17 17 34 17 17 34 17 17 34 17 17 34 17 17 34 17 17 34 17 17 34 17 17 34 17 17 34 17 17 34 17 17 34 17 17 34 17 17 34 17 17 34 17 17 34 17 17 34 17 17 34 17 17 34 17 17 34 17 17 34 85 102 119 85 102 119 85 102 119 85 102 119 85 102 119 170 187 204 170 187 204 0 170 221 0 170 221 0 170 221 0 170 221 170 187 204 170 187 204 85 102 119 85 102 119 85 102 119 85 102 119 85 102 119 17 17 34 17 17 34 17 17 34 17 17 34 17 17 34 17 17 34 17 17 34 17 17 34 17 17 34 17 17 34 17 17 34 17 17 34 17 17 34 17 17 34 17 17 34 17 17 34 17 17 34 17 17 34 17 17 34 17 17 34 17 17 34 17 17 34 17 17 34 17 17 34 17 17 34 17 17 34 17 17 34 17 17 34 17 17 34 17 17 34 17 17 34 17 17 34 17 17 34 17 17 34 17 17 34 17 17 34 17 17 34 17 17 34 17 17 34 17 17 34 17 17 34 17 17 34 17 17 34 17 17 34 17 17 34 17 17 34 17 17 34 17 17 34 17 17 34 17 17 34 17 17 34 17 17 34 17 17 34 17 17 34 17 17 34 17 17 34 17 17 34 17 17 34 17 17 34 17 17 34 17 17 34 17 17 34 17 17 34 17 17 34 17 17 34 17 17 34 17 17 34 17 17 34 17 17 34 17 17 34 17 17 34 17 17 34 17 17 34 17 17 34 17 17 34 17 17 34 17 17 34 17 17 34 17 17 34 17 17 34 17 17 34 17 17 34 17 17 34 17 17 34 17 17 34 17 17 34 17 17 34 17 17 34 17 17 34 17 17 34 17 17 34 17 17 34 17 17 34 17 17 34 17 17 34 17 17 34 17 17 34 17 17 34 17 17 34 17 17 34 17 17 34 17 17 34 17 17 34 17 17 34 17 17 34 17 17 34 17 17 34 17 17 34 17 17 34 17 17 34 17 17 34 17 17 34 17 17 34 17 17 34 17 17 34 17 17 34 17 17 34 17 17 34 17 17 34 17 17 34 17 17 34 17 17 34 17 17 34 17 17 34 17 17 34 17 17 34 17 17 34 17 17 34 17 17 34 17 17 34 17 17 34 17 17 34 17 17 34 17 17 34 17 17 34 17 17 34 17 17 34 17 17 34 17 17 34 17 17 34 17 17 34 17 17 34 17 17 34 17 17 34 17 17 34 17 17 34 17 17 34 17 17 34 17 17 34 17 17 34 17 17 34
51 68 85 51 68 85 51 68 85 51 68 85 85 102 119 85 102 119 85 102 119 85 102 119 85 102 119 85 102 119 85 102 119 85 102 119 85 102 119 85 102 119 85 102 119 85 102 119 85 102 119 85 102 119 85 102 119 85 102 119 85 102 119 85 102 119 85 102 119 85 102 119 85 102 119 85 102 119 85 102 119 85 102 119 85 102 119 85 102 119 85 102 119 85 102 119 85 102 119 85 102 119 85 102 119 85 102 119 85 102 119 85 102 119 85 102 119 85 102 119 85 102 119 85 102 119 85 102 119 85 102 119 85 102 119 85 102 119 85 102 119 85 102 119 85 102 119 85 102 119 85 102 119 85 102 119 85 102 119 85 102 119 85 102 119 85 102 119 85 102 119 85 102 119 85 102 119 85 102 119 85 102 119 85 102 119 85 102 119 85 102 119 85 102 119 85 102 119 85 102 119 85 102 119 85 102 119 85 102 119 85 102 119 85 102 119 85 102 119 85 102 119 51 68 85 51 68 85 51 68 85 51 68 85 51 68 85 51 68 85 51 68 85 51 68 85 17 17 34 17 17 34 17 17 34 17 17 34 17 17 34 17 17 34 17 17 34 17 17 34 17 17 34 17 17 34 17 17 34 17 17 34 17 17 34 17 17 34 17 17 34 17 17 34 17 17 34 17 17 34 17 17 34 17 17 34 17 17 34 17 17 34 17 17 34 17 17 34 17 17 34 17 17 34 17 17 34 17 17 34 17 17 34 17 17 34 17 17 34 17 17 34 17 17 34 17 17 34 17 17 34 17 17 34 17 17 34 17 17 34 17 17 34 17 17 34 17 17 34 17 17 34 17 17 34 17 17 34 17 17 34 17 17 34 17 17 34 17 17 34 17 17 34 17 17 34 17 17 34 17 17 34 17 17 34 17 17 34 17 17 34 17 17 34 17 17 34 17 17 34 17 17 34 17 17 34 17 17 34 17 17 34 17 17 34 17 17 34 17 17 34 17 17 34 17 17 34 17 17 34 17 17 34 85 102 119 85 102 119 85 102 119 85 102 119 85 102 119 170 187 204 170 187 204 170 187 204 170 187 204 170 187 204 170 187 204 170 187 204 170 187 204 85 102 119 85 102 119 85 102 119 85 102 119 85 102 119 17 17 34 17 17 34 17 17 34 17 17 34 17 17 34 17 17 34 17 17 34 17 17 34 17 17 34 17 17 34 17 17 34 17 17 34 17 17 34 17 17 34 17 17 34 17 17 34 17 17 34 17 17 34 17 17 34 17 17 34 17 17 34 17 17 34 17 17 34 17 17 34 17 17 34 17 17 34 17 17 34 17 17 34 17 17 34 17 17 34 17 17 34 17 17 34 17 17 34 17 17 34 17 17 34 17 17 34 17 17 34 17 17 34 17 17 34 17 17 34 17 17 34 17 17 34 17 17 34 17 17 34 17 17 34 17 17 34 17 17 34 17 17 34 17 17 34 17 17 34 17 17 34 17 17 34 17 17 34 17 17 34 17 17 34 17 17 34 17 17 34 17 17 34 17 17 34 17 17 34 17 17 34 17 17 34 17 17 34 17 17 34 17 17 34 17 17 34 17 17 34 17 17 34 17 17 34 17 17 34 17 17 34 17 17 34 17 17 34 17 17 34 17 17 34 17 17 34 17 17 34 17 17 34 17 17 34 17 17 34 17 17 34 17 17 34 17 17 34 17 17 34 17 17 34 17 17 34 17 17 34 17 17 34 17 17 34 17 17 34 17 17 34 17 17 34 17 17 34 17 17 34 17 17 34 17 17 34 17 17 34 17 17 34 17 17 34 17 17 34 17 17 34 17 17 34 17 17 34 17 17 34 17 17 34 17 17 34 17 17 34 17 17 34 17 17 34 17 17 34 17 17 34 17 17 34 17 17 34 17 17 34 17 17 34 17 17 34 17 17 34 17 17 34 17 17 34 17 17 34 17 17 34 17 17 34 17 17 34 17 17 34 17 17 34 17 17 34 17 17 34 17 17 34 17 17 34 17 17 34 17 17 34 17 17 34 17 17 34 17 17 34 17 17 34 17 17 34 17 17 34 17 17 34 17 17 34 17 17 34 17 17 34 17 17 34 17 17 34 17 17 34 17 17 34 17 17 34 17 17 34 17 17 34 17 17 34 17 17 34 17 17 34
51 68 85 51 68 85 51 68 85 51 68 85 85 102 119 85 102 119 85 102 119 85 102 119 85 102 119 85 102 119 85 102 119 85 102 119 85 102 119 85 102 119 85 102 119 85 102 119 85 102 119 85 102 119 85 102 119 85 102 119 85 102 119 85 102 119 85 102 119 85 102 119 85 102 119 85 102 119 85 102 119 85 102 119 85 102 119 85 102 119 85 102 119 85 102 119 85 102 119 85 102 119 85 102 119 85 102 119 85 102 119 85 102 119 85 102 119 85 102 119 85 102 119 85 102 119 85 102 119 85 102 119 85 102 119 85 102 119 85 102 119 85 102 119 85 102 119 85 102 119 85 102 119 85 102 119 85 102 119 85 102 119 85 102 119 85 102 119 85 102 119 85 102 119 85 102 119 85 102 119 85 102 119 85 102 119 85 102 119 85 102 119 85 102 119 85 102 119 85 102 119 85 102 119 85 102 119 85 102 119 85 102 119 85 102 119 85 102 119 85 102 119 51 68 85 51 68 85 51 68 85 51 68 85 51 68 85 51 68 85 51 68 85 51 68 85 17 17 34 17 17 34 17 17 34 17 17 34 17 17 34 17 17 34 17 17 34 17 17 34 17 17 34 17 17 34 17 17 34 17 17 34 17 17 34 17 17 34 17 17 34 17 17 34 17 17 34 17 17 34 17 17 34 17 17 34 17 17 34 17 17 34 17 17 34 17 17 34 17 17 34 17 17 34 17 17 34 17 17 34 17 17 34 17 17 34 17 17 34 17 17 34 17 17 34 17 17 34 17 17 34 17 17 34 17 17 34 17 17 34 17 17 34 17 17 34 17 17 34 17 17 34 17 17 34 17 17 34 17 17 34 17 17 34 17 17 34 17 17 34 17 17 34 17 17 34 17 17 34 17 17 34 17 17 34 17 17 34 17 17 34 17 17 34 17 17 34 17 17 34 17 17 34 17 17 34 17 17 34 17 17 34 17 17 34 17 17 34 17 17 34 17 17 34 17 17 34 17 17 34 17 17 34 85 102 119 85 102 119 85 102 119 85 102 119 85 102 119 170 187 204 170 187 204 170 187 204 170 187 204 170 187 204 170 187 204 170 187 204 170 187 204 85 102 119 85 102 119 85 102 119 85 102 119 85 102 119 17 17 34 17 17 34 17 17 34 17 17 34 17 17 34 17 17 34 17 17 34 17 17 34 17 17 34 17 17 34 17 17 34 17 17 34 17 17 34 17 17 34 17 17 34 17 17 34 17 17 34 17 17 34 17 17 34 17 17 34 17 17 34 17 17 34 17 17 34 17 17 34 17 17 34 17 17 34 17 17 34 17 17 34 17 17 34 17 17 34 17 17 34 17 17 34 17 17 34 17 17 34 17 17 34 17 17 34 17 17 34 17 17 34 17 17 34 17 17 34 17 17 34 17 17 34 17 17 34 17 17 34 17 17 34 17 17 34 17 17 34 17 17 34 17 17 34 17 17 34 17 17 34 17 17 34 17 17 34 17 17 34 17 17 34 17 17 34 17 17 34 17 17 34 17 17 34 17 17 34 17 17 34 17 17 34 17 17 34 17 17 34 17 17 34 17 17 34 17 17 34 17 17 34 17 17 34 17 17 34 17 17 34 17 17 34 17 17 34 17 17 34 17 17 34 17 17 34 17 17 34 17 17 34 17 17 34 17 17 34 17 17 34 17 17 34 17 17 34 17 17 34 17 17 34 17 17 34 17 17 34 17 17 34 17 17 34 17 17 34 17 17 34 17 17 34 17 17 34 17 17 34 17 17 34 17 17 34 17 17 34 17 17 34 17 17 34 17 17 34 17 17 34 17 17 34 17 17 34 17 17 34 17 17 34 17 17 34 17 17 34 17 17 34 17 17 34 17 17 34 17 17 34 17 17 34 17 17 34 17 17 34 17 17 34 17 17 34 17 17 34 17 17 34 17 17 34 17 17 34 17 17 34 17 17 34 17 17 34 17 17 34 17 17 34 17 17 34 17 17 34 17 17 34 17 17 34 17 17 34 17 17 34 17 17 34 17 17 34 17 17 34 17 17 34 17 17 34 17 17 34 17 17 34 17 17 34 17 17 34 17 17 34 17 17 34 17 17 34 17 17 34 17 17 34 17 17 34 17 17 34 17 17 34 17 17 34 17 17 34 17 17 34
51 68 85 51 68 85 51 68 85 51 68 85 85 102 119 85 102 119 85 102 119 85 102 119 85 102 119 85 102 119 85 102 119 85 102 119 85 102 119 85 102 119 85 102 119 85 102 119 85 102 119 85 102 119 85 102 119 85 102 119 85 102 119 85 102 119 85 102 119 85 102 119 85 102 119 85 102 119 85 102 119 85 102 119 85 102 119 85 102 119 85 102 119 85 102 119 85 102 119 85 102 119 85 102 119 85 102 119 85 102 119 85 102 119 85 102 119 85 102 119 85 102 119 85 102 119 85 102 119 85 102 119 85 102 119 85 102 119 85 102 119 85 102 119 85 102 119 85 102 119 85 102 119 85 102 119 85 102 119 85 102 119 85 102 119 85 102 119 85 102 119 85 102 119 85 102 119 85 102 119 85 102 119 85 102 119 85 102 119 85 102 119 85 102 119 85 102 119 85 102 119 85 102 119 85 102 119 85 102 119 85 102 119 85 102 119 85 102 119 85 102 119 51 68 85 51 68 85 51 68 85 51 68 85 51 68 85 51 68 85 51 68 85 51 68 85 17 17 34 17 17 34 17 17 34 17 17 34 17 17 34 17 17 34 17 17 34 17 17 34 17 17 34 17 17 34 17 17 34 17 17 34 17 17 34 17 17 34 17 17 34 17 17 34 17 17 34 17 17 34 17 17 34 17 17 34 17 17 34 17 17 34 17 17 34 17 17 34 17 17 34 17 17 34 17 17 34 17 17 34 17 17 34 17 17 34 17 17 34 17 17 34 17 17 34 17 17 34 17 17 34 17 17 34 17 17 34 17 17 34 17 17 34 17 17 34 17 17 34 17 17 34 17 17 34 17 17 34 0 170 221 0 170 221 0 170 221 0 170 221 0 170 221 0 170 221 0 170 221 0 170 221 17 17 34 17 17 34 17 17 34 17 17 34 17 17 34 17 17 34 17 17 34 17 17 34 17 17 34 17 17 34 17 17 34 17 17 34 17 17 34 17 17 34 17 17 34 17 17 34 17 17 34 85 102 119 85 102 119 85 102 119 85 102 119 85 102 119 170 187 204 170 187 204 170 187 204 170 187 204 170 187 204 170 187 204 170 187 204 170 187 204 85 102 119 85 102 119 85 102 119 85 102 119 85 102 119 17 17 34 17 17 34 17 17 34 17 17 34 17 17 34 17 17 34 17 17 34 17 17 34 17 17 34 17 17 34 17 17 34 17 17 34 17 17 34 17 17 34 17 17 34 17 17 34 17 17 34 0 170 221 0 170 221 0 170 221 0 170 221 0 170 221 0 170 221 0 170 221 0 170 221 17 17 34 17 17 34 17 17 34 17 17 34 17 17 34 17 17 34 17 17 34 17 17 34 17 17 34 17 17 34 17 17 34 17 17 34 17 17 34 17 17 34 17 17 34 17 17 34 17 17 34 17 17 34 17 17 34 17 17 34 17 17 34 17 17 34 17 17 34 17 17 34 17 17 34 17 17 34 17 17 34 17 17 34 17 17 34 17 17 34 17 17 34 17 17 34 17 17 34 17 17 34 17 17 34 17 17 34 17 17 34 17 17 34 17 17 34 17 17 34 17 17 34 17 17 34 17 17 34 17 17 34 17 17 34 17 17 34 17 17 34 17 17 34 17 17 34 17 17 34 17 17 34 17 17 34 17 17 34 17 17 34 17 17 34 17 17 34 17 17 34 17 17 34 17 17 34 17 17 34 17 17 34 17 17 34 17 17 34 17 17 34 17 17 34 17 17 34 17 17 34 17 17 34 17 17 34 17 17 34 17 17 34 17 17 34 17 17 34 17 17 34 17 17 34 17 17 34 17 17 34 17 17 34 17 17 34 17 17 34 17 17 34 17 17 34 17 17 34 17 17 34 17 17 34 17 17 34 17 17 34 17 17 34 17 17 34 17 17 34 17 17 34 17 17 34 17 17 34 17 17 34 17 17 34 17 17 34 17 17 34 17 17 34 17 17 34 17 17 34 17 17 34 17 17 34 17 17 34 17 17 34 17 17 34 17 17 34 17 17 34 17 17 34 17 17 34 17 17 34 17 17 34 17 17 34 17 17 34 17 17 34 17 17 34 17 17 34 17 17 34 17 17 34 17 17 34 17 17 34 17 17 34 17 17 34 17 17 34 17 17 34 17 17 34 17 17 34
51 68 85 51 68 85 51 68 85 51 68 85 85 102 119 85 102 119 85 102 119 85 102 119 85 102 119 85 102 119 85 102 119 85 102 119 85 102 119 85 102 119 85 102 119 85 102 119 85 102 119 85 102 119 85 102 119 85 102 119 85 102 119 85 102 119 85 102 119 85 102 119 85 102 119 85 102 119 85 102 119 85 102 119 85 102 119 85 102 119 85 102 119 85 102 119 85 102 119 85 102 119 85 102 119 85 102 119 85 102 119 85 102 119 85 102 119 85 102 119 85 102 119 85 102 119 85 102 119 85 102 119 85 102 119 85 102 119 85 102 119 85 102 119 85 102 119 85 102 119 85 102 119 85 102 119 85 102 119 85 102 119 85 102 119 85 102 119 85 102 119 85 102 119 85 102 119 85 102 119 85 102 119 85 102 119 85 102 119 85 102 119 85 102 119 85 102 119 85 102 119 85 102 119 85 102 119 85 102 119 85 102 119 85 102 119 85 102 119 85 102 119 51 68 85 51 68 85 51 68 85 51 68 85 51 68 85 51 68 85 51 68 85 51 68 85 17 17 34 17 17 34 17 17 34 17 17 34 17 17 34 17 17 34 17 17 34 17 17 34 17 17 34 17 17 34 17 17 34 17 17 34 17 17 34 17 17 34 17 17 34 17 17 34 17 17 34 17 17 34 17 17 34 17 17 34 17 17 34 17 17 34 17 17 34 17 17 34 17 17 34 17 17 34 17 17 34 17 17 34 17 17 34 17 17 34 17 17 34 17 17 34 17 17 34 17 17 34 17 17 34 17 17 34 17 17 34 17 17 34 17 17 34 17 17 34 17 17 34 17 17 34 17 17 34 17 17 34 0 170 221 0 170 221 0 170 221 0 170 221 0 170 221 0 170 221 0 170 221 0 170 221 17 17 34 17 17 34 17 17 34 17 17 34 17 17 34 17 17 34 17 17 34 17 17 34 17 17 34 17 17 34 17 17 34 17 17 34 17 17 34 17 17 34 17 17 34 17 17 34 17 17 34 85 102 119 85 102 119 85 102 119 85 102 119 85 102 119 170 187 204 170 187 204 170 187 204 170 187 204 170 187 204 170 187 204 170 187 204 170 187 204 85 102 119 85 102 119 85 102 119 85 102 119 85 102 119 17 17 34 17 17 34 17 17 34 17 17 34 17 17 34 17 17 34 17 17 34 17 17 34 17 17 34 17 17 34 17 17 34 17 17 34 17 17 34 17 17 34 17 17 34 17 17 34 17 17 34 0 170 221 0 170 221 0 170 221 0 170 221 0 170 221 0 170 221 0 170 221 0 170 221 17 17 34 17 17 34 17 17 34 17 17 34 17 17 34 17 17 34 17 17 34 17 17 34 17 17 34 17 17 34 17 17 34 17 17 34 17 17 34 17 17 34 17 17 34 17 17 34 17 17 34 17 17 34 17 17 34 17 17 34 17 17 34 17 17 34 17 17 34 17 17 34 17 17 34 17 17 34 17 17 34 17 17 34 17 17 34 17 17 34 17 17 34 17 17 34 17 17 34 17 17 34 17 17 34 17 17 34 17 17 34 17 17 34 17 17 34 17 17 34 17 17 34 17 17 34 17 17 34 17 17 34 17 17 34 17 17 34 17 17 34 17 17 34 17 17 34 17 17 34 17 17 34 17 17 34 17 17 34 17 17 34 17 17 34 17 17 34 17 17 34 17 17 34 17 17 34 17 17 34 17 17 34 17 17 34 17 17 34 17 17 34 17 17 34 17 17 34 17 17 34 17 17 34 17 17 34 17 17 34 17 17 34 17 17 34 17 17 34 17 17 34 17 17 34 17 17 34 17 17 34 17 17 34 17 17 34 17 17 34 17 17 34 17 17 34 17 17 34 17 17 34 17 17 34 17 17 34 17 17 34 17 17 34 17 17 34 17 17 34 17 17 34 17 17 34 17 17 34 17 17 34 17 17 34 17 17 34 17 17 34 17 17 34 17 17 34 17 17 34 17 17 34 17 17 34 17 17 34 17 17 34 17 17 34 17 17 34 17 17 34 17 17 34 17 17 34 17 17 34 17 17 34 17 17 34 17 17 34 17 17 34 17 17 34 17 17 34 17 17 34 17 17 34 17 17 34 17 17 34 17 17 34 17 17 34 17 17 34 17 17 34 17 17 34 17 17 34
51 68 85 51 68 85 51 68 85 51 68 85 85 102 119 85 102 119 85 102 119 85 102 119 85 102 119 85 102 119 85 102 119 85 102 119 85 102 119 85 102 119 85 102 119 85 102 119 85 102 119 85 102 119 85 102 119 85 102 119 85 102 119 85 102 119 85 102 119 85 102 119 85 102 119 85 102 119 85 102 119 85 102 119 85 102 119 85 102 119 85 102 119 85 102 119 85 102 119 85 102 119 85 102 119 85 102 119 85 102 119 85 102 119 85 102 119 85 102 119 85 102 119 85 102 119 85 102 119 85 102 119 85 102 119 85 102 119 85 102 119 85 102 119 85 102 119 85 102 119 85 102 119 85 102 119 85 102 119 85 102 119 85 102 119 85 102 119 85 102 119 85 102 119 85 102 119 85 102 119 85 102 119 85 102 119 85 102 119 85 102 119 85 102 119 85 102 119 85 102 119 85 102 119 85 102 119 85 102 119 85 102 119 85 102 119 85 102 119 85 102 119 51 68 85 51 68 85 51 68 85 51 68 85 51 68 85 51 68 85 51 68 85 51 68 85 17 17 34 17 17 34 17 17 34 17 17 34 17 17 34 17 17 34 17 17 34 17 17 34 17 17 34 17 17 34 17 17 34 17 17 34 17 17 34 17 17 34 17 17 34 17 17 34 17 17 34 17 17 34 17 17 34 17 17 34 17 17 34 17 17 34 17 17 34 17 17 34 17 17 34 17 17 34 17 17 34 17 17 34 17 17 34 17 17 34 17 17 34 17 17 34 17 17 34 17 17 34 17 17 34 17 17 34 17 17 34 17 17 34 17 17 34 17 17 34 17 17 34 17 17 34 17 17 34 17 17 34 0 170 221 0 170 221 0 170 221 0 170 221 0 170 221 0 170 221 0 170 221 0 170 221 17 17 34 17 17 34 17 17 34 17 17 34 17 17 34 17 17 34 17 17 34 17 17 34 17 17 34 17 17 34 17 17 34 17 17 34 17 17 34 17 17 34 17 17 34 17 17 34 17 17 34 85 102 119 85 102 119 85 102 119 85 102 119 85 102 119 170 187 204 170 187 204 170 187 204 170 187 204 170 187 204 170 187 204 170 187 204 170 187 204 85 102 119 85 102 119 85 102 119 85 102 119 85 102 119 17 17 34 17 17 34 17 17 34 17 17 34 17 17 34 17 17 34 17 17 34 17 17 34 17 17 34 17 17 34 17 17 34 17 17 34 17 17 34 17 17 34 17 17 34 17 17 34 17 17 34 0 170 221 0 170 221 0 170 221 0 170 221 0 170 221 0 170 221 0 170 221 0 170 221 17 17 34 17 17 34 17 17 34 17 17 34 17 17 34 17 17 34 17 17 34 17 17 34 17 17 34 17 17 34 17 17 34 17 17 34 17 17 34 17 17 34 17 17 34 17 17 34 17 17 34 17 17 34 17 17 34 17 17 34 17 17 34 17 17 34 17 17 34 17 17 34 17 17 34 17 17 34 17 17 34 17 17 34 17 17 34 17 17 34 17 17 34 17 17 34 17 17 34 17 17 34 17 17 34 17 17 34 17 17 34 17 17 34 17 17 34 17 17 34 17 17 34 17 17 34 17 17 34 17 17 34 51 68 85 51 68 85 51 68 85 51 68 85 51 68 85 51 68 85 51 68 85 51 68 85 51 68 85 51 68 85 51 68 85 51 68 85 51 68 85 51 68 85 51 68 85 51 68 85 51 68 85 51 68 85 51 68 85 51 68 85 51 68 85 51 68 85 51 68 85 51 68 85 51 68 85 51 68 85 51 68 85 51 68 85 51 68 85 51 68 85 51 68 85 51 68 85 51 68 85 51 68 85 51 68 85 51 68 85 51 68 85 51 68 85 51 68 85 51 68 85 51 68 85 51 68 85 51 68 85 51 68 85 51 68 85 51 68 85 51 68 85 51 68 85 51 68 85 51 68 85 51 68 85 51 68 85 51 68 85 51 68 85 51 68 85 51 68 85 51 68 85 51 68 85 51 68 85 51 68 85 51 68 85 51 68 85 51 68 85 51 68 85 51 68 85 51 68 85 51 68 85 51 68 85 51 68 85 51 68 85 51 68 85 51 68 85 51 68 85 51 68 85 51 68 85 51 68 85 51 68 85 51 68 85 51 68 85 51 68 85 51 68 85 51 68 85
51 68 85 51 68 85 51 68 85 51 68 85 85 102 119 85 102 119 85 102 119 85 102 119 85 102 119 85 102 119 85 102 119 85 102 119 85 102 119 85 102 119 85 102 119 85 102 119 85 102 119 85 102 119 85 102 119 85 102 119 85 102 119 85 102 119 85 102 119 85 102 119 85 102 119 85 102 119 85 102 119 85 102 119 85 102 119 85 102 119 85 102 119 85 102 119 85 102 119 85 102 119 85 102 119 85 102 119 85 102 119 85 102 119 85 102 119 85 102 119 85 102 119 85 102 119 85 102 119 85 102 119 85 102 119 85 102 119 85 102 119 85 102 119 85 102 119 85 102 119 85 102 119 85 102 119 85 102 119 85 102 119 85 102 119 85 102 119 85 102 119 85 102 119 85 102 119 85 102 119 85 102 119 85 102 119 85 102 119 85 102 119 85 102 119 85 102 119 85 102 119 85 102 119 85 102 119 85 102 119 85 102 119 85 102 119 85 102 119 85 102 119 51 68 85 51 68 85 51 68 85 51 68 85 51 68 85 51 68 85 51 68 85 51 68 85 17 17 34 17 17 34 17 17 34 17 17 34 17 17 34 17 17 34 17 17 34 17 17 34 17 17 34 17 17 34 17 17 34 17 17 34 17 17 34 17 17 34 17 17 34 17 17 34 17 17 34 17 17 34 17 17 34 17 17 34 17 17 34 17 17 34 17 17 34 17 17 34 17 17 34 17 17 34 17 17 34 17 17 34 17 17 34 17 17 34 17 17 34 17 17 34 17 17 34 17 17 34 17 17 34 17 17 34 17 17 34 17 17 34 17 17 34 17 17 34 17 17 34 17 17 34 17 17 34 17 17 34 0 170 221 0 170 221 0 170 221 0 170 221 0 170 221 0 170 221 0 170 221 0 170 221 17 17 34 17 17 34 17 17 34 17 17 34 17 17 34 17 17 34 17 17 34 17 17 34 17 17 34 17 17 34 17 17 34 17 17 34 17 17 34 17 17 34 17 17 34 17 17 34 17 17 34 85 102 119 85 102 119 85 102 119 85 102 119 85 102 119 170 187 204 170 187 204 170 187 204 170 187 204 170 187 204 170 187 204 170 187 204 170 187 204 85 102 119 85 102 119 85 102 119 85 102 119 85 102 119 17 17 34 17 17 34 17 17 34 17 17 34 17 17 34 17 17 34 17 17 34 17 17 34 17 17 34 17 17 34 17 17 34 17 17 34 17 17 34 17 17 34 17 17 34 17 17 34 17 17 34 0 170 221 0 170 221 0 170 221 0 170 221 0 170 221 0 170 221 0 170 221 0 170 221 17 17 34 17 17 34 17 17 34 17 17 34 17 17 34 17 17 34 17 17 34 17 17 34 17 17 34 17 17 34 17 17 34 17 17 34 17 17 34 17 17 34 17 17 34 17 17 34 17 17 34 17 17 34 17 17 34 17 17 34 17 17 34 17 17 34 17 17 34 17 17 34 17 17 34 17 17 34 17 17 34 17 17 34 17 17 34 17 17 34 17 17 34 17 17 34 17 17 34 17 17 34 17 17 34 17 17 34 17 17 34 17 17 34 17 17 34 17 17 34 17 17 34 17 17 34 17 17 34 17 17 34 51 68 85 51 68 85 51 68 85 51 68 85 51 68 85 51 68 85 51 68 85 51 68 85 51 68 85 51 68 85 51 68 85 51 68 85 51 68 85 51 68 85 51 68 85 51 68 85 51 68 85 51 68 85 51 68 85 51 68 85 51 68 85 51 68 85 51 68 85 51 68 85 51 68 85 51 68 85 51 68 85 51 68 85 51 68 85 51 68 85 51 68 85 51 68 85 51 68 85 51 68 85 51 68 85 51 68 85 51 68 85 51 68 85 51 68 85 51 68 85 51 68 85 51 68 85 51 68 85 51 68 85 51 68 85 51 68 85 51 68 85 51 68 85 51 68 85 51 68 85 51 68 85 51 68 85 51 68 85 51 68 85 51 68 85 51 68 85 51 68 85 51 68 85 51 68 85 51 68 85 51 68 85 51 68 85 51 68 85 51 68 85 51 68 85 51 68 85 51 68 85 51 68 85 51 68 85 51 68 85 51 68 85 51 68 85 51 68 85 51 68 85 51 68 85 51 68 85 51 68 85 51 68 85 51 68 85 51 68 85 51 68 85 51 68 85
51 68 85 51 68 85 51 68 85 51 68 85 85 102 119 85 102 119 85 102 119 85 102 119 85 102 119 85 102 119 85 102 119 85 102 119 85 102 119 85 102 119 85 102 119 85 102 119 85 102 119 85 102 119 85 102 119 85 102 119 85 102 119 85 102 119 85 102 119 85 102 119 85 102 119 85 102 119 85 102 119 85 102 119 85 102 119 85 102 119 85 102 119 85 102 119 85 102 119 85 102 119 85 102 119 85 102 119 85 102 119 85 102 119 85 102 119 85 102 119 85 102 119 85 102 119 85 102 119 85 102 119 85 102 119 85 102 119 85 102 119 85 102 119 85 102 119 85 102 119 85 102 119 85 102 119 85 102 119 85 102 119 85 102 119 85 102 119 85 102 119 85 102 119 85 102 119 85 102 119 85 102 119 85 102 119 85 102 119 85 102 119 85 102 119 85 102 119 85 102 119 85 102 119 85 102 119 85 102 119 85 102 119 85 102 119 85 102 119 85 102 119 51 68 85 51 68 85 51 68 85 51 68 85 0 51 102 0 51 102 0 51 102 0 51 102 0 51 102 0 51 102 0 51 102 0 51 102 0 51 102 0 51 102 17 17 34 17 17 34 17 17 34 17 17 34 17 17 34 17 17 34 17 17 34 17 17 34 17 17 34 17 17 34 17 17 34 17 17 34 17 17 34 17 17 34 17 17 34 17 17 34 17 17 34 17 17 34 17 17 34 17 17 34 17 17 34 17 17 34 17 17 34 17 17 34 17 17 34 17 17 34 17 17 34 17 17 34 17 17 34 17 17 34 17 17 34 17 17 34 17 17 34 17 17 34 17 17 34 17 17 34 17 17 34 17 17 34 0 170 221 0 170 221 0 170 221 0 170 221 0 170 221 0 170 221 0 170 221 0 170 221 119 136 153 119 136 153 119 136 153 119 136 153 119 136 153 119 136 153 119 136 153 119 136 153 119 136 153 119 136 153 119 136 153 119 136 153 119 136 153 119 136 153 119 136 153 119 136 153 119 136 153 119 136 153 119 136 153 119 136 153 85 102 119 85 102 119 85 102 119 85 102 119 85 102 119 85 102 119 85 102 119 85 102 119 85 102 119 85 102 119 85 102 119 85 102 119 119 136 153 119 136 153 119 136 153 119 136 153 119 136 153 119 136 153 119 136 153 119 136 153 119 136 153 119 136 153 119 136 153 119 136 153 119 136 153 119 136 153 119 136 153 119 136 153 119 136 153 119 136 153 119 136 153 119 136 153 0 170 221 0 170 221 0 170 221 0 170 221 0 170 221 0 170 221 0 170 221 0 170 221 17 17 34 17 17 34 17 17 34 17 17 34 17 17 34 17 17 34 17 17 34 17 17 34 17 17 34 17 17 34 17 17 34 17 17 34 17 17 34 17 17 34 17 17 34 17 17 34 17 17 34 17 17 34 17 17 34 17 17 34 17 17 34 17 17 34 17 17 34 17 17 34 17 17 34 17 17 34 17 17 34 17 17 34 17 17 34 17 17 34 17 17 34 17 17 34 17 17 34 17 17 34 17 17 34 17 17 34 17 17 34 17 17 34 17 17 34 17 17 34 17 17 34 17 17 34 17 17 34 17 17 34 51 68 85 51 68 85 51 68 85 51 68 85 51 68 85 51 68 85 51 68 85 51 68 85 51 68 85 51 68 85 51 68 85 51 68 85 51 68 85 51 68 85 51 68 85 51 68 85 51 68 85 51 68 85 51 68 85 51 68 85 51 68 85 51 68 85 51 68 85 51 68 85 51 68 85 51 68 85 51 68 85 51 68 85 51 68 85 51 68 85 51 68 85 51 68 85 51 68 85 51 68 85 51 68 85 51 68 85 51 68 85 51 68 85 51 68 85 51 68 85 51 68 85 51 68 85 51 68 85 51 68 85 51 68 85 51 68 85 51 68 85 51 68 85 51 68 85 51 68 85 51 68 85 51 68 85 51 68 85 51 68 85 51 68 85 51 68 85 51 68 85 51 68 85 51 68 85 51 68 85 51 68 85 51 68 85 51 68 85 51 68 85 51 68 85 51 68 85 51 68 85 51 68 85 51 68 85 51 68 85 51 68 85 51 68 85 51 68 85 51 68 85 51 68 85 51 68 85 51 68 85 51 68 85 51 68 85 51 68 85 51 68 85 51 68 85
51 68 85 51 68 85 51 68 85 51 68 85 85 102 119 85 102 119 85 102 119 85 102 119 85 102 119 85 102 119 85 102 119 85 102 119 85 102 119 85 102 119 85 102 119 85 102 119 85 102 119 85 102 119 85 102 119 85 102 119 85 102 119 85 102 119 85 102 119 85 102 119 85 102 119 85 102 119 85 102 119 85 102 119 85 102 119 85 102 119 85 102 119 85 102 119 85 102 119 85 102 119 85 102 119 85 102 119 85 102 119 85 102 119 85 102 119 85 102 119 85 102 119 85 102 119 85 102 119 85 102 119 85 102 119 85 102 119 85 102 119 85 102 119 85 102 119 85 102 119 85 102 119 85 102 119 85 102 119 85 102 119 85 102 119 85 102 119 85 102 119 85 102 119 85 102 119 85 102 119 85 102 119 85 102 119 85 102 119 85 102 119 85 102 119 85 102 119 85 102 119 85 102 119 85 102 119 85 102 119 85 102 119 85 102 119 85 102 119 85 102 119 51 68 85 51 68 85 51 68 85 51 68 85 0 51 102 0 51 102 0 170 221 0 170 221 0 170 221 0 170 221 0 170 221 0 170 221 0 51 102 0 51 102 17 17 34 17 17 34 17 17 34 17 17 34 17 17 34 17 17 34 17 17 34 17 17 34 17 17 34 17 17 34 17 17 34 17 17 34 17 17 34 17 17 34 17 17 34 17 17 34 17 17 34 17 17 34 17 17 34 17 17 34 17 17 34 17 17 34 17 17 34 17 17 34 17 17 34 17 17 34 17 17 34 17 17 34 17 17 34 17 17 34 17 17 34 17 17 34 17 17 34 17 17 34 17 17 34 17 17 34 17 17 34 17 17 34 17 17 34 17 17 34 119 136 153 119 136 153 119 136 153 119 136 153 119 136 153 119 136 153 119 136 153 119 136 153 119 136 153 119 136 153 119 136 153 119 136 153 119 136 153 119 136 153 119 136 153 119 136 153 119 136 153 119 136 153 119 136 153 119 136 153 119 136 153 119 136 153 119 136 153 119 136 153 119 136 153 119 136 153 85 102 119 85 102 119 85 102 119 85 102 119 85 102 119 85 102 119 85 102 119 85 102 119 85 102 119 85 102 119 85 102 119 85 102 119 119 136 153 119 136 153 119 136 153 119 136 153 119 136 153 119 136 153 119 136 153 119 136 153 119 136 153 119 136 153 119 136 153 119 136 153 119 136 153 119 136 153 119 136 153 119 136 153 119 136 153 119 136 153 119 136 153 119 136 153 119 136 153 119 136 153 119 136 153 119 136 153 119 136 153 119 136 153 17 17 34 17 17 34 17 17 34 17 17 34 17 17 34 17 17 34 17 17 34 17 17 34 17 17 34 17 17 34 17 17 34 17 17 34 17 17 34 17 17 34 17 17 34 17 17 34 17 17 34 17 17 34 17 17 34 17 17 34 17 17 34 17 17 34 17 17 34 17 17 34 17 17 34 17 17 34 17 17 34 17 17 34 17 17 34 17 17 34 17 17 34 17 17 34 17 17 34 17 17 34 17 17 34 17 17 34 17 17 34 17 17 34 17 17 34 17 17 34 17 17 34 17 17 34 17 17 34 17 17 34 17 17 34 17 17 34 51 68 85 51 68 85 51 68 85 51 68 85 51 68 85 51 68 85 51 68 85 51 68 85 51 68 85 51 68 85 51 68 85 51 68 85 51 68 85 51 68 85 51 68 85 51 68 85 51 68 85 51 68 85 51 68 85 51 68 85 51 68 85 51 68 85 51 68 85 51 68 85 51 68 85 51 68 85 51 68 85 51 68 85 51 68 85 51 68 85 51 68 85 51 68 85 51 68 85 51 68 85 51 68 85 51 68 85 51 68 85 51 68 85 51 68 85 51 68 85 51 68 85 51 68 85 51 68 85 51 68 85 51 68 85 51 68 85 51 68 85 51 68 85 51 68 85 51 68 85 51 68 85 51 68 85 51 68 85 51 68 85 51 68 85 51 68 85 51 68 85 51 68 85 51 68 85 51 68 85 51 68 85 51 68 85 51 68 85 51 68 85 51 68 85 51 68 85 51 68 85 51 68 85 51 68 85 51 68 85 51 68 85 51 68 85 51 68 85 51 68 85 51 68 85 51 68 85 51 68 85 51 68 85 51 68 85 51 68 85 51 68 85 51 68 85
51 68 85 51 68 85 51 68 85 51 68 85 85 102 119 85 102 119 85 102 119 85 102 119 85 102 119 85 102 119 85 102 119 85 102 119 85 102 119 85 102 119 85 102 119 85 102 119 85 102 119 85 102 119 85 102 119 85 102 119 85 102 119 85 102 119 85 102 119 85 102 119 85 102 119 85 102 119 85 102 119 85 102 119 85 102 119 85 102 119 85 102 119 85 102 119 85 102 119 85 102 119 85 102 119 85 102 119 85 102 119 85 102 119 85 102 119 85 102 119 85 102 119 85 102 119 85 102 119 85 102 119 85 102 119 85 102 119 85 102 119 85 102 119 85 102 119 85 102 119 85 102 119 85 102 119 85 102 119 85 102 119 85 102 119 85 102 119 85 102 119 85 102 119 85 102 119 85 102 119 85 102 119 85 102 119 85 102 119 85 102 119 85 102 119 85 102 119 85 102 119 85 102 119 85 102 119 85 102 119 85 102 119 85 102 119 85 102 119 85 102 119 51 68 85 51 68 85 51 68 85 51 68 85 0 51 102 0 51 102 0 170 221 0 170 221 0 170 221 0 170 221 0 170 221 0 170 221 0 51 102 0 51 102 17 17 34 17 17 34 17 17 34 17 17 34 17 17 34 17 17 34 17 17 34 17 17 34 17 17 34 17 17 34 17 17 34 17 17 34 17 17 34 17 17 34 17 17 34 17 17 34 17 17 34 17 17 34 17 17 34 17 17 34 17 17 34 17 17 34 17 17 34 17 17 34 17 17 34 17 17 34 17 17 34 17 17 34 17 17 34 17 17 34 17 17 34 17 17 34 17 17 34 17 17 34 17 17 34 17 17 34 17 17 34 17 17 34 17 17 34 17 17 34 119 136 153 119 136 153 119 136 153 119 136 153 119 136 153 119 136 153 119 136 153 119 136 153 119 136 153 119 136 153 119 136 153 119 136 153 119 136 153 119 136 153 119 136 153 119 136 153 119 136 153 119 136 153 119 136 153 119 136 153 119 136 153 119 136 153 119 136 153 119 136 153 119 136 153 119 136 153 85 102 119 85 102 119 85 102 119 85 102 119 85 102 119 85 102 119 85 102 119 85 102 119 85 102 119 85 102 119 85 102 119 85 102 119 119 136 153 119 136 153 119 136 153 119 136 153 119 136 153 119 136 153 119 136 153 119 136 153 119 136 153 119 136 153 119 136 153 119 136 153 119 136 153 119 136 153 119 136 153 119 136 153 119 136 153 119 136 153 119 136 153 119 136 153 119 136 153 119 136 153 119 136 153 119 136 153 119 136 153 119 136 153 17 17 34 17 17 34 17 17 34 17 17 34 17 17 34 17 17 34 17 17 34 17 17 34 17 17 34 17 17 34 17 17 34 17 17 34 17 17 34 17 17 34 17 17 34 17 17 34 17 17 34 17 17 34 17 17 34 17 17 34 17 17 34 17 17 34 17 17 34 17 17 34 17 17 34 17 17 34 17 17 34 17 17 34 17 17 34 17 17 34 17 17 34 17 17 34 17 17 34 17 17 34 17 17 34 17 17 34 17 17 34 17 17 34 17 17 34 17 17 34 17 17 34 17 17 34 17 17 34 17 17 34 17 17 34 17 17 34 51 68 85 51 68 85 51 68 85 51 68 85 51 68 85 51 68 85 51 68 85 51 68 85 85 102 119 85 102 119 85 102 119 85 102 119 85 102 119 85 102 119 85 102 119 85 102 119 85 102 119 85 102 119 85 102 119 85 102 119 85 102 119 85 102 119 85 102 119 85 102 119 85 102 119 85 102 119 85 102 119 85 102 119 85 102 119 85 102 119 85 102 119 85 102 119 85 102 119 85 102 119 85 102 119 85 102 119 85 102 119 85 102 119 85 102 119 85 102 119 85 102 119 85 102 119 85 102 119 85 102 119 85 102 119 85 102 119 85 102 119 85 102 119 85 102 119 85 102 119 85 102 119 85 102 119 85 102 119 85 102 119 85 102 119 85 102 119 85 102 119 85 102 119 85 102 119 85 102 119 85 102 119 85 102 119 85 102 119 85 102 119 85 102 119 85 102 119 85 102 119 85 102 119 85 102 119 85 102 119 85 102 119 85 102 119 85 102 119 85 102 119 85 102 119 85 102 119 85 102 119 85 102 119 51 68 85 51 68 85 51 68 85 51 68 85
51 68 85 51 68 85 51 68 85 51 68 85 85 102 119 85 102 119 85 102 119 85 102 119 85 102 119 85 102 119 85 102 119 85 102 119 85 102 119 85 102 119 85 102 119 85 102 119 85 102 119 85 102 119 85 102 119 85 102 119 85 102 119 85 102 119 85 102 119 85 102 119 85 102 119 85 102 119 85 102 119 85 102 119 85 102 119 85 102 119 85 102 119 85 102 119 85 102 119 85 102 119 85 102 119 85 102 119 85 102 119 85 102 119 85 102 119 85 102 119 85 102 119 85 102 119 85 102 119 85 102 119 85 102 119 85 102 119 85 102 119 85 102 119 85 102 119 85 102 119 85 102 119 85 102 119 85 102 119 85 102 119 85 102 119 85 102 119 85 102 119 85 102 119 85 102 119 85 102 119 85 102 119 85 102 119 85 102 119 85 102 119 85 102 119 85 102 119 85 102 119 85 102 119 85 102 119 85 102 119 85 102 119 85 102 119 85 102 119 85 102 119 51 68 85 51 68 85 51 68 85 51 68 85 0 51 102 0 51 102 0 51 102 0 51 102 0 51 102 0 51 102 0 51 102 0 51 102 0 51 102 0 51 102 17 17 34 17 17 34 17 17 34 17 17 34 17 17 34 17 17 34 17 17 34 17 17 34 17 17 34 17 17 34 17 17 34 17 17 34 17 17 34 17 17 34 17 17 34 17 17 34 17 17 34 17 17 34 17 17 34 17 17 34 17 17 34 17 17 34 17 17 34 17 17 34 17 17 34 17 17 34 17 17 34 17 17 34 17 17 34 17 17 34 17 17 34 17 17 34 17 17 34 17 17 34 17 17 34 17 17 34 17 17 34 17 17 34 17 17 34 17 17 34 119 136 153 119 136 153 119 136 153 119 136 153 119 136 153 119 136 153 119 136 153 119 136 153 119 136 153 119 136 153 119 136 153 119 136 153 119 136 153 119 136 153 119 136 153 119 136 153 119 136 153 119 136 153 119 136 153 119 136 153 119 136 153 119 136 153 119 136 153 119 136 153 119 136 153 119 136 153 85 102 119 85 102 119 85 102 119 85 102 119 85 102 119 85 102 119 85 102 119 85 102 119 85 102 119 85 102 119 85 102 119 85 102 119 119 136 153 119 136 153 119 136 153 119 136 153 119 136 153 119 136 153 119 136 153 119 136 153 119 136 153 119 136 153 119 136 153 119 136 153 119 136 153 119 136 153 119 136 153 119 136 153 119 136 153 119 136 153 119 136 153 119 136 153 119 136 153 119 136 153 119 136 153 119 136 153 119 136 153 119 136 153 17 17 34 17 17 34 17 17 34 17 17 34 17 17 34 17 17 34 17 17 34 17 17 34 17 17 34 17 17 34 17 17 34 17 17 34 17 17 34 17 17 34 17 17 34 17 17 34 17 17 34 17 17 34 17 17 34 17 17 34 17 17 34 17 17 34 17 17 34 17 17 34 17 17 34 17 17 34 17 17 34 17 17 34 17 17 34 17 17 34 17 17 34 17 17 34 17 17 34 17 17 34 17 17 34 17 17 34 17 17 34 17 17 34 17 17 34 17 17 34 17 17 34 17 17 34 17 17 34 17 17 34 17 17 34 17 17 34 51 68 85 51 68 85 51 68 85 51 68 85 51 68 85 51 68 85 51 68 85 51 68 85 85 102 119 85 102 119 85 102 119 85 102 119 85 102 119 85 102 119 85 102 119 85 102 119 85 102 119 85 102 119 85 102 119 85 102 119 85 102 119 85 102 119 85 102 119 85 102 119 85 102 119 85 102 119 85 102 119 85 102 119 85 102 119 85 102 119 85 102 119 85 102 119 85 102 119 85 102 119 85 102 119 85 102 119 85 102 119 85 102 119 85 102 119 85 102 119 85 102 119 85 102 119 85 102 119 85 102 119 85 102 119 85 102 119 85 102 119 85 102 119 85 102 119 85 102 119 85 102 119 85 102 119 85 102 119 85 102 119 85 102 119 85 102 119 85 102 119 85 102 119 85 102 119 85 102 119 85 102 119 85 102 119 85 102 119 85 102 119 85 102 119 85 102 119 85 102 119 85 102 119 85 102 119 85 102 119 85 102 119 85 102 119 85 102 119 85 102 119 85 102 119 85 102 119 85 102 119 85 102 119 51 68 85 51 68 85 51 68 85 51 68 85
51 68 85 51 68 85 51 68 85 51 68 85 85 102 119 85 102 119 85 102 119 85 102 119 85 102 119 85 102 119 85 102 119 85 102 119 85 102 119 85 102 119 85 102 119 85 102 119 85 102 119 85 102 119 85 102 119 85 102 119 85 102 119 85 102 119 85 102 119 85 102 119 85 102 119 85 102 119 85 102 119 85 102 119 85 102 119 85 102 119 85 102 119 85 102 119 85 102 119 85 102 119 85 102 119 85 102 119 85 102 119 85 102 119 85 102 119 85 102 119 85 102 119 85 102 119 85 102 119 85 102 119 85 102 119 85 102 119 85 102 119 85 102 119 85 102 119 85 102 119 85 102 119 85 102 119 85 102 119 85 102 119 85 102 119 85 102 119 85 102 119 85 102 119 85 102 119 85 102 119 85 102 119 85 102 119 85 102 119 85 102 119 85 102 119 85 102 119 85 102 119 85 102 119 85 102 119 85 102 119 85 102 119 85 102 119 85 102 119 85 102 119 51 68 85 51 68 85 51 68 85 51 68 85 51 68 85 51 68 85 51 68 85 51 68 85 17 17 34 17 17 34 17 17 34 17 17 34 17 17 34 17 17 34 17 17 34 17 17 34 17 17 34 17 17 34 17 17 34 17 17 34 17 17 34 17 17 34 17 17 34 17 17 34 17 17 34 17 17 34 17 17 34 17 17 34 17 17 34 17 17 34 17 17 34 17 17 34 17 17 34 17 17 34 17 17 34 17 17 34 17 17 34 17 17 34 17 17 34 17 17 34 17 17 34 17 17 34 17 17 34 17 17 34 17 17 34 17 17 34 17 17 34 17 17 34 17 17 34 17 17 34 17 17 34 17 17 34 17 17 34 17 17 34 119 136 153 119 136 153 119 136 153 119 136 153 119 136 153 119 136 153 119 136 153 119 136 153 119 136 153 119 136 153 119 136 153 119 136 153 119 136 153 119 136 153 119 136 153 119 136 153 119 136 153 119 136 153 119 136 153 119 136 153 119 136 153 119 136 153 119 136 153 119 136 153 119 136 153 119 136 153 85 102 119 85 102 119 85 102 119 85 102 119 85 102 119 85 102 119 85 102 119 85 102 119 85 102 119 85 102 119 85 102 119 85 102 119 119 136 153 119 136 153 119 136 153 119 136 153 119 136 153 119 136 153 119 136 153 119 136 153 119 136 153 119 136 153 119 136 153 119 136 153 119 136 153 119 136 153 119 136 153 119 136 153 119 136 153 119 136 153 119 136 153 119 136 153 119 136 153 119 136 153 119 136 153 119 136 153 119 136 153 119 136 153 17 17 34 17 17 34 17 17 34 17 17 34 17 17 34 17 17 34 17 17 34 17 17 34 17 17 34 17 17 34 17 17 34 17 17 34 17 17 34 17 17 34 17 17 34 17 17 34 17 17 34 17 17 34 17 17 34 17 17 34 17 17 34 17 17 34 17 17 34 17 17 34 17 17 34 17 17 34 17 17 34 17 17 34 17 17 34 17 17 34 17 17 34 17 17 34 17 17 34 17 17 34 17 17 34 17 17 34 17 17 34 17 17 34 17 17 34 17 17 34 17 17 34 17 17 34 17 17 34 17 17 34 17 17 34 17 17 34 51 68 85 51 68 85 51 68 85 51 68 85 51 68 85 51 68 85 51 68 85 51 68 85 85 102 119 85 102 119 85 102 119 85 102 119 85 102 119 85 102 119 85 102 119 85 102 119 85 102 119 85 102 119 85 102 119 85 102 119 85 102 119 85 102 119 85 102 119 85 102 119 85 102 119 85 102 119 85 102 119 85 102 119 85 102 119 85 102 119 85 102 119 85 102 119 85 102 119 85 102 119 85 102 119 85 102 119 85 102 119 85 102 119 85 102 119 85 102 119 85 102 119 85 102 119 85 102 119 85 102 119 85 102 119 85 102 119 85 102 119 85 102 119 85 102 119 85 102 119 85 102 119 85 102 119 85 102 119 85 102 119 85 102 119 85 102 119 85 102 119 85 102 119 85 102 119 85 102 119 85 102 119 85 102 119 85 102 119 85 102 119 85 102 119 85 102 119 85 102 119 85 102 119 85 102 119 85 102 119 85 102 119 85 102 119 85 102 119 85 102 119 85 102 119 85 102 119 85 102 119 85 102 119 51 68 85 51 68 85 51 68 85 51 68 85
51 68 85 51 68 85 51 68 85 51 68 85 85 102 119 85 102 119 85 102 119 85 102 119 85 102 119 85 102 119 85 102 119 85 102 119 85 102 119 85 102 119 85 102 119 85 102 119 85 102 119 85 102 119 85 102 119 85 102 119 85 102 119 85 102 119 85 102 119 85 102 119 85 102 119 85 102 119 85 102 119 85 102 119 85 102 119 85 102 119 85 102 119 85 102 119 85 102 119 85 102 119 85 102 119 85 102 119 85 102 119 85 102 119 85 102 119 85 102 119 85 102 119 85 102 119 85 102 119 85 102 119 85 102 119 85 102 119 85 102 119 85 102 119 85 102 119 85 102 119 85 102 119 85 102 119 85 102 119 85 102 119 85 102 119 85 102 119 85 102 119 85 102 119 85 102 119 85 102 119 85 102 119 85 102 119 85 102 119 85 102 119 85 102 119 85 102 119 85 102 119 85 102 119 85 102 119 85 102 119 85 102 119 85 102 119 85 102 119 85 102 119 51 68 85 51 68 85 51 68 85 51 68 85 51 68 85 51 68 85 51 68 85 51 68 85 17 17 34 17 17 34 17 17 34 17 17 34 17 17 34 17 17 34 17 17 34 17 17 34 17 17 34 17 17 34 17 17 34 17 17 34 17 17 34 17 17 34 17 17 34 17 17 34 17 17 34 17 17 34 17 17 34 17 17 34 17 17 34 17 17 34 17 17 34 17 17 34 17 17 34 17 17 34 17 17 34 17 17 34 17 17 34 17 17 34 17 17 34 17 17 34 17 17 34 17 17 34 17 17 34 17 17 34 17 17 34 17 17 34 17 17 34 17 17 34 17 17 34 17 17 34 17 17 34 17 17 34 17 17 34 17 17 34 119 136 153 119 136 153 119 136 153 119 136 153 119 136 153 119 136 153 119 136 153 119 136 153 119 136 153 119 136 153 119 136 153 119 136 153 119 136 153 119 136 153 119 136 153 119 136 153 119 136 153 119 136 153 119 136 153 119 136 153 119 136 153 119 136 153 119 136 153 119 136 153 119 136 153 119 136 153 85 102 119 85 102 119 85 102 119 85 102 119 85 102 119 85 102 119 85 102 119 85 102 119 85 102 119 85 102 119 85 102 119 85 102 119 119 136 153 119 136 153 119 136 153 119 136 153 119 136 153 119 136 153 119 136 153 119 136 153 119 136 153 119 136 153 119 136 153 119 136 153 119 136 153 119 136 153 119 136 153 119 136 153 119 136 153 119 136 153 119 136 153 119 136 153 119 136 153 119 136 153 119 136 153 119 136 153 119 136 153 119 136 153 17 17 34 17 17 34 17 17 34 17 17 34 17 17 34 17 17 34 17 17 34 17 17 34 17 17 34 17 17 34 17 17 34 17 17 34 17 17 34 17 17 34 17 17 34 17 17 34 17 17 34 17 17 34 17 17 34 17 17 34 17 17 34 17 17 34 17 17 34 17 17 34 17 17 34 17 17 34 17 17 34 17 17 34 17 17 34 17 17 34 17 17 34 17 17 34 17 17 34 17 17 34 17 17 34 17 17 34 17 17 34 17 17 34 17 17 34 17 17 34 17 17 34 17 17 34 17 17 34 17 17 34 17 17 34 17 17 34 51 68 85 51 68 85 51 68 85 51 68 85 51 68 85 51 68 85 51 68 85 51 68 85 85 102 119 85 102 119 85 102 119 85 102 119 85 102 119 85 102 119 85 102 119 85 102 119 85 102 119 85 102 119 85 102 119 85 102 119 85 102 119 85 102 119 85 102 119 85 102 119 85 102 119 85 102 119 85 102 119 85 102 119 85 102 119 85 102 119 85 102 119 85 102 119 85 102 119 85 102 119 85 102 119 85 102 119 85 102 119 85 102 119 85 102 119 85 102 119 85 102 119 85 102 119 85 102 119 85 102 119 85 102 119 85 102 119 85 102 119 85 102 119 85 102 119 85 102 119 85 102 119 85 102 119 85 102 119 85 102 119 85 102 119 85 102 119 85 102 119 85 102 119 85 102 119 85 102 119 85 102 119 85 102 119 85 102 119 85 102 119 85 102 119 85 102 119 85 102 119 85 102 119 85 102 119 85 102 119 85 102 119 85 102 119 85 102 119 85 102 119 85 102 119 85 102 119 85 102 119 85 102 119 51 68 85 51 68 85 51 68 85 51 68 85
51 68 85 51 68 85 51 68 85 51 68 85 85 102 119 85 102 119 85 102 119 85 102 119 85 102 119 85 102 119 85 102 119 85 102 119 85 102 119 85 102 119 85 102 119 85 102 119 85 102 119 85 102 119 85 102 119 85 102 119 85 102 119 85 102 119 85 102 119 85 102 119 85 102 119 85 102 119 85 102 119 85 102 119 85 102 119 85 102 119 85 102 119 85 102 119 85 102 119 85 102 119 85 102 119 85 102 119 85 102 119 85 102 119 85 102 119 85 102 119 85 102 119 85 102 119 85 102 119 85 102 119 85 102 119 85 102 119 85 102 119 85 102 119 85 102 119 85 102 119 85 102 119 85 102 119 85 102 119 85 102 119 85 102 119 85 102 119 85 102 119 85 102 119 85 102 119 85 102 119 85 102 119 85 102 119 85 102 119 85 102 119 85 102 119 85 102 119 85 102 119 85 102 119 85 102 119 85 102 119 85 102 119 85 102 119 85 102 119 85 102 119 51 68 85 51 68 85 51 68 85 51 68 85 51 68 85 51 68 85 51 68 85 51 68 85 17 17 34 17 17 34 17 17 34 17 17 34 17 17 34 17 17 34 17 17 34 17 17 34 17 17 34 17 17 34 17 17 34 17 17 34 17 17 34 17 17 34 17 17 34 17 17 34 17 17 34 17 17 34 17 17 34 17 17 34 17 17 34 17 17 34 17 17 34 17 17 34 17 17 34 17 17 34 17 17 34 17 17 34 17 17 34 17 17 34 17 17 34 17 17 34 17 17 34 17 17 34 17 17 34 17 17 34 17 17 34 17 17 34 17 17 34 17 17 34 17 17 34 17 17 34 17 17 34 17 17 34 17 17 34 17 17 34 119 136 153 119 136 153 119 136 153 119 136 153 119 136 153 119 136 153 119 136 153 119 136 153 119 136 153 119 136 153 119 136 153 119 136 153 119 136 153 119 136 153 119 136 153 119 136 153 119 136 153 119 136 153 119 136 153 119 136 153 119 136 153 119 136 153 119 136 153 119 136 153 119 136 153 119 136 153 85 102 119 85 102 119 85 102 119 85 102 119 85 102 119 85 102 119 85 102 119 85 102 119 85 102 119 85 102 119 85 102 119 85 102 119 119 136 153 119 136 153 119 136 153 119 136 153 119 136 153 119 136 153 119 136 153 119 136 153 119 136 153 119 136 153 119 136 153 119 136 153 119 136 153 119 136 153 119 136 153 119 136 153 119 136 153 119 136 153 119 136 153 119 136 153 119 136 153 119 136 153 119 136 153 119 136 153 119 136 153 119 136 153 17 17 34 17 17 34 17 17 34 17 17 34 17 17 34 17 17 34 17 17 34 17 17 34 17 17 34 17 17 34 17 17 34 17 17 34 17 17 34 17 17 34 17 17 34 17 17 34 17 17 34 17 17 34 17 17 34 17 17 34 17 17 34 17 17 34 17 17 34 17 17 34 17 17 34 17 17 34 17 17 34 17 17 34 17 17 34 17 17 34 17 17 34 17 17 34 17 17 34 17 17 34 17 17 34 17 17 34 17 17 34 17 17 34 17 17 34 17 17 34 17 17 34 17 17 34 17 17 34 17 17 34 17 17 34 17 17 34 51 68 85 51 68 85 51 68 85 51 68 85 51 68 85 51 68 85 51 68 85 51 68 85 85 102 119 85 102 119 85 102 119 85 102 119 85 102 119 85 102 119 85 102 119 85 102 119 85 102 119 85 102 119 85 102 119 85 102 119 85 102 119 85 102 119 85 102 119 85 102 119 85 102 119 85 102 119 85 102 119 85 102 119 85 102 119 85 102 119 85 102 119 85 102 119 85 102 119 85 102 119 85 102 119 85 102 119 85 102 119 85 102 119 85 102 119 85 102 119 85 102 119 85 102 119 85 102 119 85 102 119 85 102 119 85 102 119 85 102 119 85 102 119 85 102 119 85 102 119 85 102 119 85 102 119 85 102 119 85 102 119 85 102 119 85 102 119 85 102 119 85 102 119 85 102 119 85 102 119 85 102 119 85 102 119 85 102 119 85 102 119 85 102 119 85 102 119 85 102 119 85 102 119 85 102 119 85 102 119 85 102 119 85 102 119 85 102 119 85 102 119 85 102 119 85 102 119 85 102 119 85 102 119 51 68 85 51 68 85 51 68 85 51 68 85
51 68 85 51 68 85 51 68 85 51 68 85 85 102 119 85 102 119 85 102 119 85 102 119 85 102 119 85 102 119 85 102 119 85 102 119 85 102 119 85 102 119 85 102 119 85 102 119 85 102 119 85 102 119 85 102 119 85 102 119 85 102 119 85 102 119 85 102 119 85 102 119 85 102 119 85 102 119 85 102 119 85 102 119 85 102 119 85 102 119 85 102 119 85 102 119 85 102 119 85 102 119 85 102 119 85 102 119 85 102 119 85 102 119 85 102 119 85 102 119 85 102 119 85 102 119 85 102 119 85 102 119 85 102 119 85 102 119 85 102 119 85 102 119 85 102 119 85 102 119 85 102 119 85 102 119 85 102 119 85 102 119 85 102 119 85 102 119 85 102 119 85 102 119 85 102 119 85 102 119 85 102 119 85 102 119 85 102 119 85 102 119 85 102 119 85 102 119 85 102 119 85 102 119 85 102 119 85 102 119 85 102 119 85 102 119 85 102 119 85 102 119 51 68 85 51 68 85 51 68 85 51 68 85 51 68 85 51 68 85 51 68 85 51 68 85 17 17 34 17 17 34 17 17 34 17 17 34 17 17 34 17 17 34 17 17 34 17 17 34 17 17 34 17 17 34 17 17 34 17 17 34 17 17 34 17 17 34 17 17 34 17 17 34 17 17 34 17 17 34 17 17 34 17 17 34 17 17 34 17 17 34 17 17 34 17 17 34 17 17 34 17 17 34 17 17 34 17 17 34 17 17 34 17 17 34 17 17 34 17 17 34 17 17 34 17 17 34 17 17 34 17 17 34 17 17 34 17 17 34 17 17 34 17 17 34 17 17 34 17 17 34 17 17 34 17 17 34 17 17 34 17 17 34 119 136 153 119 136 153 119 136 153 119 136 153 119 136 153 119 136 153 119 136 153 119 136 153 119 136 153 119 136 153 119 136 153 119 136 153 119 136 153 119 136 153 119 136 153 119 136 153 119 136 153 119 136 153 119 136 153 119 136 153 119 136 153 119 136 153 119 136 153 119 136 153 119 136 153 119 136 153 85 102 119 85 102 119 85 102 119 85 102 119 85 102 119 85 102 119 85 102 119 85 102 119 85 102 119 85 102 119 85 102 119 85 102 119 119 136 153 119 136 153 119 136 153 119 136 153 119 136 153 119 136 153 119 136 153 119 136 153 119 136 153 119 136 153 119 136 153 119 136 153 119 136 153 119 136 153 119 136 153 119 136 153 119 136 153 119 136 153 119 136 153 119 136 153 119 136 153 119 136 153 119 136 153 119 136 153 119 136 153 119 136 153 17 17 34 17 17 34 17 17 34 17 17 34 17 17 34 17 17 34 17 17 34 17 17 34 17 17 34 17 17 34 17 17 34 17 17 34 17 17 34 17 17 34 17 17 34 17 17 34 17 17 34 17 17 34 17 17 34 17 17 34 17 17 34 17 17 34 17 17 34 17 17 34 17 17 34 17 17 34 17 17 34 17 17 34 17 17 34 17 17 34 17 17 34 17 17 34 17 17 34 17 17 34 17 17 34 17 17 34 17 17 34 17 17 34 17 17 34 17 17 34 17 17 34 17 17 34 17 17 34 17 17 34 17 17 34 17 17 34 51 68 85 51 68 85 51 68 85 51 68 85 51 68 85 51 68 85 51 68 85 51 68 85 85 102 119 85 102 119 85 102 119 85 102 119 85 102 119 85 102 119 85 102 119 85 102 119 85 102 119 85 102 119 85 102 119 85 102 119 85 102 119 85 102 119 85 102 119 85 102 119 85 102 119 85 102 119 85 102 119 85 102 119 85 102 119 85 102 119 85 102 119 85 102 119 85 102 119 85 102 119 85 102 119 85 102 119 85 102 119 85 102 119 85 102 119 85 102 119 85 102 119 85 102 119 85 102 119 85 102 119 85 102 119 85 102 119 85 102 119 85 102 119 85 102 119 85 102 119 85 102 119 85 102 119 85 102 119 85 102 119 85 102 119 85 102 119 85 102 119 85 102 119 85 102 119 85 102 119 85 102 119 85 102 119 85 102 119 85 102 119 85 102 119 85 102 119 85 102 119 85 102 119 85 102 119 85 102 119 85 102 119 85 102 119 85 102 119 85 102 119 85 102 119 85 102 119 85 102 119 85 102 119 51 68 85 51 68 85 51 68 85 51 68 85
51 68 85 51 68 85 51 68 85 51 68 85 85 102 119 85 102 119 85 102 119 85 102 119 85 102 119 85 102 119 85 102 119 85 102 119 85 102 119 85 102 119 85 102 119 85 102 119 85 102 119 85 102 119 85 102 119 85 102 119 85 102 119 85 102 119 85 102 119 85 102 119 85 102 119 85 102 119 85 102 119 85 102 119 85 102 119 85 102 119 85 102 119 85 102 119 85 102 119 85 102 119 85 102 119 85 102 119 85 102 119 85 102 119 85 102 119 85 102 119 85 102 119 85 102 119 85 102 119 85 102 119 85 102 119 85 102 119 85 102 119 85 102 119 85 102 119 85 102 119 85 102 119 85 102 119 85 102 119 85 102 119 85 102 119 85 102 119 85 102 119 85 102 119 85 102 119 85 102 119 85 102 119 85 102 119 85 102 119 85 102 119 85 102 119 85 102 119 85 102 119 85 102 119 85 102 119 85 102 119 85 102 119 85 102 119 85 102 119 85 102 119 51 68 85 51 68 85 51 68 85 51 68 85 51 68 85 51 68 85 51 68 85 51 68 85 17 17 34 17 17 34 17 17 34 17 17 34 17 17 34 17 17 34 17 17 34 17 17 34 17 17 34 17 17 34 17 17 34 17 17 34 17 17 34 17 17 34 17 17 34 17 17 34 17 17 34 17 17 34 17 17 34 17 17 34 17 17 34 17 17 34 17 17 34 17 17 34 17 17 34 17 17 34 17 17 34 17 17 34 17 17 34 17 17 34 17 17 34 17 17 34 17 17 34 17 17 34 17 17 34 17 17 34 17 17 34 17 17 34 17 17 34 17 17 34 17 17 34 17 17 34 17 17 34 17 17 34 17 17 34 17 17 34 119 136 153 119 136 153 119 136 153 119 136 153 119 136 153 119 136 153 119 136 153 119 136 153 119 136 153 119 136 153 119 136 153 119 136 153 119 136 153 119 136 153 119 136 153 119 136 153 119 136 153 119 136 153 119 136 153 119 136 153 119 136 153 119 136 153 119 136 153 119 136 153 119 136 153 119 136 153 85 102 119 85 102 119 85 102 119 85 102 119 85 102 119 85 102 119 85 102 119 85 102 119 85 102 119 85 102 119 85 102 119 85 102 119 119 136 153 119 136 153 119 136 153 119 136 153 119 136 153 119 136 153 119 136 153 119 136 153 119 136 153 119 136 153 119 136 153 119 136 153 119 136 153 119 136 153 119 136 153 119 136 153 119 136 153 119 136 153 119 136 153 119 136 153 119 136 153 119 136 153 119 136 153 119 136 153 119 136 153 119 136 153 17 17 34 17 17 34 17 17 34 17 17 34 17 17 34 17 17 34 17 17 34 17 17 34 17 17 34 17 17 34 17 17 34 17 17 34 17 17 34 17 17 34 17 17 34 17 17 34 17 17 34 17 17 34 17 17 34 17 17 34 17 17 34 17 17 34 17 17 34 17 17 34 17 17 34 17 17 34 17 17 34 17 17 34 17 17 34 17 17 34 17 17 34 17 17 34 17 17 34 17 17 34 17 17 34 17 17 34 17 17 34 17 17 34 17 17 34 17 17 34 0 51 102 0 51 102 0 51 102 0 51 102 0 51 102 0 51 102 0 51 102 0 51 102 0 51 102 0 51 102 51 68 85 51 68 85 51 68 85 51 68 85 85 102 119 85 102 119 85 102 119 85 102 119 85 102 119 85 102 119 85 102 119 85 102 119 85 102 119 85 102 119 85 102 119 85 102 119 85 102 119 85 102 119 85 102 119 85 102 119 85 102 119 85 102 119 85 102 119 85 102 119 85 102 119 85 102 119 85 102 119 85 102 119 85 102 119 85 102 119 85 102 119 85 102 119 85 102 119 85 102 119 85 102 119 85 102 119 85 102 119 85 102 119 85 102 119 85 102 119 85 102 119 85 102 119 85 102 119 85 102 119 85 102 119 85 102 119 85 102 119 85 102 119 85 102 119 85 102 119 85 102 119 85 102 119 85 102 119 85 102 119 85 102 119 85 102 119 85 102 119 85 102 119 85 102 119 85 102 119 85 102 119 85 102 119 85 102 119 85 102 119 85 102 119 85 102 119 85 102 119 85 102 119 85 102 119 85 102 119 85 102 119 85 102 119 85 102 119 85 102 119 51 68 85 51 68 85 51 68 85 51 68 85
51 68 85 51 68 85 51 68 85 51 68 85 85 102 119 85 102 119 85 102 119 85 102 119 85 102 119 85 102 119 85 102 119 85 102 119 85 102 119 85 102 119 85 102 119 85 102 119 85 102 119 85 102 119 85 102 119 85 102 119 85 102 119 85 102 119 85 102 119 85 102 119 85 102 119 85 102 119 85 102 119 85 102 119 85 102 119 85 102 119 85 102 119 85 102 119 85 102 119 85 102 119 85 102 119 85 102 119 85 102 119 85 102 119 85 102 119 85 102 119 85 102 119 85 102 119 85 102 119 85 102 119 85 102 119 85 102 119 85 102 119 85 102 119 85 102 119 85 102 119 85 102 119 85 102 119 85 102 119 85 102 119 85 102 119 85 102 119 85 102 119 85 102 119 85 102 119 85 102 119 85 102 119 85 102 119 85 102 119 85 102 119 85 102 119 85 102 119 85 102 119 85 102 119 85 102 119 85 102 119 85 102 119 85 102 119 85 102 119 85 102 119 51 68 85 51 68 85 51 68 85 51 68 85 51 68 85 51 68 85 51 68 85 51 68 85 17 17 34 17 17 34 17 17 34 17 17 34 17 17 34 17 17 34 17 17 34 17 17 34 17 17 34 17 17 34 17 17 34 17 17 34 17 17 34 17 17 34 17 17 34 17 17 34 17 17 34 17 17 34 17 17 34 17 17 34 17 17 34 17 17 34 17 17 34 17 17 34 17 17 34 17 17 34 17 17 34 17 17 34 17 17 34 17 17 34 17 17 34 17 17 34 17 17 34 17 17 34 17 17 34 17 17 34 17 17 34 17 17 34 17 17 34 17 17 34 17 17 34 17 17 34 17 17 34 17 17 34 17 17 34 17 17 34 119 136 153 119 136 153 119 136 153 119 136 153 119 136 153 119 136 153 119 136 153 119 136 153 119 136 153 119 136 153 119 136 153 119 136 153 119 136 153 119 136 153 119 136 153 119 136 153 119 136 153 119 136 153 119 136 153 119 136 153 119 136 153 119 136 153 119 136 153 119 136 153 119 136 153 119 136 153 85 102 119 85 102 119 85 102 119 85 102 119 85 102 119 85 102 119 85 102 119 85 102 119 85 102 119 85 102 119 85 102 119 85 102 119 119 136 153 119 136 153 119 136 153 119 136 153 119 136 153 119 136 153 119 136 153 119 136 153 119 136 153 119 136 153 119 136 153 119 136 153 119 136 153 119 136 153 119 136 153 119 136 153 119 136 153 119 136 153 119 136 153 119 136 153 119 136 153 119 136 153 119 136 153 119 136 153 119 136 153 119 136 153 17 17 34 17 17 34 17 17 34 17 17 34 17 17 34 17 17 34 17 17 34 17 17 34 17 17 34 17 17 34 17 17 34 17 17 34 17 17 34 17 17 34 17 17 34 17 17 34 17 17 34 17 17 34 17 17 34 17 17 34 17 17 34 17 17 34 17 17 34 17 17 34 17 17 34 17 17 34 17 17 34 17 17 34 17 17 34 17 17 34 17 17 34 17 17 34 17 17 34 17 17 34 17 17 34 17 17 34 17 17 34 17 17 34 17 17 34 17 17 34 0 51 102 0 51 102 0 170 221 0 170 221 0 170 221 0 170 221 0 170 221 0 170 221 0 51 102 0 51 102 51 68 85 51 68 85 51 68 85 51 68 85 85 102 119 85 102 119 85 102 119 85 102 119 85 102 119 85 102 119 85 102 119 85 102 119 85 102 119 85 102 119 85 102 119 85 102 119 85 102 119 85 102 119 85 102 119 85 102 119 85 102 119 85 102 119 85 102 119 85 102 119 85 102 119 85 102 119 85 102 119 85 102 119 85 102 119 85 102 119 85 102 119 85 102 119 85 102 119 85 102 119 85 102 119 85 102 119 85 102 119 85 102 119 85 102 119 85 102 119 85 102 119 85 102 119 85 102 119 85 102 119 85 102 119 85 102 119 85 102 119 85 102 119 85 102 119 85 102 119 85 102 119 85 102 119 85 102 119 85 102 119 85 102 119 85 102 119 85 102 119 85 102 119 85 102 119 85 102 119 85 102 119 85 102 119 85 102 119 85 102 119 85 102 119 85 102 119 85 102 119 85 102 119 85 102 119 85 102 119 85 102 119 85 102 119 85 102 119 85 102 119 51 68 85 51 68 85 51 68 85 51 68 85
51 68 85 51 68 85 51 68 85 51 68 85 85 102 119 85 102 119 85 102 119 85 102 119 85 102 119 85 102 119 85 102 119 85 102 119 85 102 119 85 102 119 85 102 119 85 102 119 85 102 119 85 102 119 85 102 119 85 102 119 85 102 119 85 102 119 85 102 119 85 102 119 85 102 119 85 102 119 85 102 119 85 102 119 85 102 119 85 102 119 85 102 119 85 102 119 85 102 119 85 102 119 85 102 119 85 102 119 85 102 119 85 102 119 85 102 119 85 102 119 85 102 119 85 102 119 85 102 119 85 102 119 85 102 119 85 102 119 85 102 119 85 102 119 85 102 119 85 102 119 85 102 119 85 102 119 85 102 119 85 102 119 85 102 119 85 102 119 85 102 119 85 102 119 85 102 119 85 102 119 85 102 119 85 102 119 85 102 119 85 102 119 85 102 119 85 102 119 85 102 119 85 102 119 85 102 119 85 102 119 85 102 119 85 102 119 85 102 119 85 102 119 51 68 85 51 68 85 51 68 85 51 68 85 51 68 85 51 68 85 51 68 85 51 68 85 17 17 34 17 17 34 17 17 34 17 17 34 17 17 34 17 17 34 17 17 34 17 17 34 17 17 34 17 17 34 17 17 34 17 17 34 17 17 34 17 17 34 17 17 34 17 17 34 17 17 34 17 17 34 17 17 34 17 17 34 17 17 34 17 17 34 17 17 34 17 17 34 17 17 34 17 17 34 17 17 34 17 17 34 17 17 34 17 17 34 17 17 34 17 17 34 17 17 34 17 17 34 17 17 34 17 17 34 17 17 34 17 17 34 17 17 34 17 17 34 17 17 34 17 17 34 17 17 34 17 17 34 17 17 34 17 17 34 17 17 34 17 17 34 17 17 34 17 17 34 17 17 34 17 17 34 17 17 34 17 17 34 17 17 34 17 17 34 17 17 34 17 17 34 17 17 34 17 17 34 17 17 34 17 17 34 17 17 34 17 17 34 17 17 34 17 17 34 17 17 34 17 17 34 17 17 34 85 102 119 85 102 119 85 102 119 85 102 119 85 102 119 85 102 119 85 102 119 85 102 119 85 102 119 85 102 119 85 102 119 85 102 119 85 102 119 85 102 119 85 102 119 85 102 119 85 102 119 85 102 119 17 17 34 17 17 34 17 17 34 17 17 34 17 17 34 17 17 34 17 17 34 17 17 34 17 17 34 17 17 34 17 17 34 17 17 34 17 17 34 17 17 34 17 17 34 17 17 34 17 17 34 17 17 34 17 17 34 17 17 34 17 17 34 17 17 34 17 17 34 17 17 34 17 17 34 17 17 34 17 17 34 17 17 34 17 17 34 17 17 34 17 17 34 17 17 34 17 17 34 17 17 34 17 17 34 17 17 34 17 17 34 17 17 34 17 17 34 17 17 34 17 17 34 17 17 34 17 17 34 17 17 34 17 17 34 17 17 34 17 17 34 17 17 34 17 17 34 17 17 34 17 17 34 17 17 34 17 17 34 17 17 34 17 17 34 17 17 34 17 17 34 17 17 34 17 17 34 17 17 34 17 17 34 17 17 34 17 17 34 0 51 102 0 51 102 0 170 221 0 170 221 0 170 221 0 170 221 0 170 221 0 170 221 0 51 102 0 51 102 51 68 85 51 68 85 51 68 85 51 68 85 85 102 119 85 102 119 85 102 119 85 102 119 85 102 119 85 102 119 85 102 119 85 102 119 85 102 119 85 102 119 85 102 119 85 102 119 85 102 119 85 102 119 85 102 119 85 102 119 85 102 119 85 102 119 85 102 119 85 102 119 85 102 119 85 102 119 85 102 119 85 102 119 85 102 119 85 102 119 85 102 119 85 102 119 85 102 119 85 102 119 85 102 119 85 102 119 85 102 119 85 102 119 85 102 119 85 102 119 85 102 119 85 102 119 85 102 119 85 102 119 85 102 119 85 102 119 85 102 119 85 102 119 85 102 119 85 102 119 85 102 119 85 102 119 85 102 119 85 102 119 85 102 119 85 102 119 85 102 119 85 102 119 85 102 119 85 102 119 85 102 119 85 102 119 85 102 119 85 102 119 85 102 119 85 102 119 85 102 119 85 102 119 85 102 119 85 102 119 85 102 119 85 102 119 85 102 119 85 102 119 51 68 85 51 68 85 51 68 85 51 68 85
51 68 85 51 68 85 51 68 85 51 68 85 85 102 119 85 102 119 85 102 119 85 102 119 85 102 119 85 102 119 85 102 119 85 102 119 85 102 119 85 102 119 85 102 119 85 102 119 85 102 119 85 102 119 85 102 119 85 102 119 85 102 119 85 102 119 85 102 119 85 102 119 85 102 119 85 102 119 85 102 119 85 102 119 85 102 119 85 102 119 85 102 119 85 102 119 85 102 119 85 102 119 85 102 119 85 102 119 85 102 119 85 102 119 85 102 119 85 102 119 85 102 119 85 102 119 85 102 119 85 102 119 85 102 119 85 102 119 85 102 119 85 102 119 85 102 119 85 102 119 85 102 119 85 102 119 85 102 119 85 102 119 85 102 119 85 102 119 85 102 119 85 102 119 85 102 119 85 102 119 85 102 119 85 102 119 85 102 119 85 102 119 85 102 119 85 102 119 85 102 119 85 102 119 85 102 119 85 102 119 85 102 119 85 102 119 85 102 119 85 102 119 51 68 85 51 68 85 51 68 85 51 68 85 51 68 85 51 68 85 51 68 85 51 68 85 17 17 34 17 17 34 17 17 34 17 17 34 17 17 34 17 17 34 17 17 34 17 17 34 17 17 34 17 17 34 17 17 34 17 17 34 17 17 34 17 17 34 17 17 34 17 17 34 17 17 34 17 17 34 17 17 34 17 17 34 17 17 34 17 17 34 17 17 34 17 17 34 17 17 34 17 17 34 17 17 34 17 17 34 17 17 34 17 17 34 17 17 34 17 17 34 17 17 34 17 17 34 17 17 34 17 17 34 17 17 34 17 17 34 17 17 34 17 17 34 17 17 34 17 17 34 17 17 34 17 17 34 17 17 34 17 17 34 17 17 34 17 17 34 17 17 34 17 17 34 17 17 34 17 17 34 17 17 34 17 17 34 17 17 34 17 17 34 17 17 34 17 17 34 17 17 34 17 17 34 17 17 34 17 17 34 17 17 34 17 17 34 17 17 34 17 17 34 17 17 34 17 17 34 17 17 34 85 102 119 85 102 119 85 102 119 85 102 119 85 102 119 85 102 119 85 102 119 85 102 119 85 102 119 85 102 119 85 102 119 85 102 119 85 102 119 85 102 119 85 102 119 85 102 119 85 102 119 85 102 119 17 17 34 17 17 34 17 17 34 17 17 34 17 17 34 17 17 34 17 17 34 17 17 34 17 17 34 17 17 34 17 17 34 17 17 34 17 17 34 17 17 34 17 17 34 17 17 34 17 17 34 17 17 34 17 17 34 17 17 34 17 17 34 17 17 34 17 17 34 17 17 34 17 17 34 17 17 34 17 17 34 17 17 34 17 17 34 17 17 34 17 17 34 17 17 34 17 17 34 17 17 34 17 17 34 17 17 34 17 17 34 17 17 34 17 17 34 17 17 34 17 17 34 17 17 34 17 17 34 17 17 34 17 17 34 17 17 34 17 17 34 17 17 34 17 17 34 17 17 34 17 17 34 17 17 34 17 17 34 17 17 34 17 17 34 17 17 34 17 17 34 17 17 34 17 17 34 17 17 34 17 17 34 17 17 34 17 17 34 0 51 102 0 51 102 0 51 102 0 51 102 0 51 102 0 51 102 0 51 102 0 51 102 0 51 102 0 51 102 51 68 85 51 68 85 51 68 85 51 68 85 85 102 119 85 102 119 85 102 119 85 102 119 85 102 119 85 102 119 85 102 119 85 102 119 85 102 119 85 102 119 85 102 119 85 102 119 85 102 119 85 102 119 85 102 119 85 102 119 85 102 119 85 102 119 85 102 119 85 102 119 85 102 119 85 102 119 85 102 119 85 102 119 85 102 119 85 102 119 85 102 119 85 102 119 85 102 119 85 102 119 85 102 119 85 102 119 85 102 119 85 102 119 85 102 119 85 102 119 85 102 119 85 102 119 85 102 119 85 102 119 85 102 119 85 102 119 85 102 119 85 102 119 85 102 119 85 102 119 85 102 119 85 102 119 85 102 119 85 102 119 85 102 119 85 102 119 85 102 119 85 102 119 85 102 119 85 102 119 85 102 119 85 102 119 85 102 119 85 102 119 85 102 119 85 102 119 85 102 119 85 102 119 85 102 119 85 102 119 85 102 119 85 102 119 85 102 119 85 102 119 51 68 85 51 68 85 51 68 85 51 68 85
51 68 85 51 68 85 51 68 85 51 68 85 85 102 119 85 102 119 85 102 119 85 102 119 85 102 119 85 102 119 85 102 119 85 102 119 85 102 119 85 102 119 85 102 119 85 102 119 85 102 119 85 102 119 85 102 119 85 102 119 85 102 119 85 102 119 85 102 119 85 102 119 85 102 119 85 102 119 85 102 119 85 102 119 85 102 119 85 102 119 85 102 119 85 102 119 85 102 119 85 102 119 85 102 119 85 102 119 85 102 119 85 102 119 85 102 119 85 102 119 85 102 119 85 102 119 85 102 119 85 102 119 85 102 119 85 102 119 85 102 119 85 102 119 85 102 119 85 102 119 85 102 119 85 102 119 85 102 119 85 102 119 85 102 119 85 102 119 85 102 119 85 102 119 85 102 119 85 102 119 85 102 119 85 102 119 85 102 119 85 102 119 85 102 119 85 102 119 85 102 119 85 102 119 85 102 119 85 102 119 85 102 119 85 102 119 85 102 119 85 102 119 51 68 85 51 68 85 51 68 85 51 68 85 51 68 85 51 68 85 51 68 85 51 68 85 17 17 34 17 17 34 17 17 34 17 17 34 17 17 34 17 17 34 17 17 34 17 17 34 17 17 34 17 17 34 17 17 34 17 17 34 17 17 34 17 17 34 17 17 34 17 17 34 17 17 34 17 17 34 17 17 34 17 17 34 17 17 34 17 17 34 17 17 34 17 17 34 17 17 34 17 17 34 17 17 34 17 17 34 17 17 34 17 17 34 17 17 34 17 17 34 17 17 34 17 17 34 17 17 34 17 17 34 17 17 34 17 17 34 17 17 34 17 17 34 17 17 34 17 17 34 17 17 34 17 17 34 17 17 34 17 17 34 17 17 34 17 17 34 17 17 34 17 17 34 17 17 34 17 17 34 17 17 34 17 17 34 17 17 34 17 17 34 17 17 34 17 17 34 17 17 34 17 17 34 17 17 34 17 17 34 17 17 34 17 17 34 17 17 34 17 17 34 17 17 34 17 17 34 17 17 34 85 102 119 85 102 119 85 102 119 85 102 119 85 102 119 85 102 119 85 102 119 85 102 119 85 102 119 85 102 119 85 102 119 85 102 119 85 102 119 85 102 119 85 102 119 85 102 119 85 102 119 85 102 119 17 17 34 17 17 34 17 17 34 17 17 34 17 17 34 17 17 34 17 17 34 17 17 34 17 17 34 17 17 34 17 17 34 17 17 34 17 17 34 17 17 34 17 17 34 17 17 34 17 17 34 17 17 34 17 17 34 17 17 34 17 17 34 17 17 34 17 17 34 17 17 34 17 17 34 17 17 34 17 17 34 17 17 34 17 17 34 17 17 34 17 17 34 17 17 34 17 17 34 17 17 34 17 17 34 17 17 34 17 17 34 17 17 34 17 17 34 17 17 34 17 17 34 68 221 119 68 221 119 68 221 119 68 221 119 68 221 119 68 221 119 17 17 34 17 17 34 17 17 34 17 17 34 17 17 34 17 17 34 17 17 34 17 17 34 17 17 34 17 17 34 17 17 34 17 17 34 17 17 34 17 17 34 17 17 34 17 17 34 17 17 34 17 17 34 17 17 34 17 17 34 17 17 34 17 17 34 51 68 85 51 68 85 51 68 85 51 68 85 51 68 85 51 68 85 51 68 85 51 68 85 85 102 119 85 102 119 85 102 119 85 102 119 85 102 119 85 102 119 85 102 119 85 102 119 85 102 119 85 102 119 85 102 119 85 102 119 85 102 119 85 102 119 85 102 119 85 102 119 85 102 119 85 102 119 85 102 119 85 102 119 85 102 119 85 102 119 85 102 119 85 102 119 85 102 119 85 102 119 85 102 119 85 102 119 85 102 119 85 102 119 85 102 119 85 102 119 85 102 119 85 102 119 85 102 119 85 102 119 85 102 119 85 102 119 85 102 119 85 102 119 85 102 119 85 102 119 85 102 119 85 102 119 85 102 119 85 102 119 85 102 119 85 102 119 85 102 119 85 102 119 85 102 119 85 102 119 85 102 119 85 102 119 85 102 119 85 102 119 85 102 119 85 102 119 85 102 119 85 102 119 85 102 119 85 102 119 85 102 119 85 102 119 85 102 119 85 102 119 85 102 119 85 102 119 85 102 119 85 102 119 51 68 85 51 68 85 51 68 85 51 68 85
51 68 85 51 68 85 51 68 85 51 68 85 85 102 119 85 102 119 85 102 119 85 102 119 85 102 119 85 102 119 85 102 119 85 102 119 85 102 119 85 102 119 85 102 119 85 102 119 85 102 119 85 102 119 85 102 119 85 102 119 85 102 119 85 102 119 85 102 119 85 102 119 85 102 119 85 102 119 85 102 119 85 102 119 85 102 119 85 102 119 85 102 119 85 102 119 85 102 119 85 102 119 85 102 119 85 102 119 85 102 119 85 102 119 85 102 119 85 102 119 85 102 119 85 102 119 85 102 119 85 102 119 85 102 119 85 102 119 85 102 119 85 102 119 85 102 119 85 102 119 85 102 119 85 102 119 85 102 119 85 102 119 85 102 119 85 102 119 85 102 119 85 102 119 85 102 119 85 102 119 85 102 119 85 102 119 85 102 119 85 102 119 85 102 119 85 102 119 85 102 119 85 102 119 85 102 119 85 102 119 85 102 119 85 102 119 85 102 119 85 102 119 51 68 85 51 68 85 51 68 85 51 68 85 51 68 85 51 68 85 51 68 85 51 68 85 17 17 34 17 17 34 17 17 34 17 17 34 17 17 34 17 17 34 17 17 34 17 17 34 17 17 34 17 17 34 17 17 34 17 17 34 17 17 34 17 17 34 17 17 34 17 17 34 17 17 34 17 17 34 17 17 34 17 17 34 17 17 34 17 17 34 17 17 34 17 17 34 17 17 34 17 17 34 17 17 34 17 17 34 17 17 34 17 17 34 17 17 34 17 17 34 17 17 34 17 17 34 17 17 34 17 17 34 17 17 34 17 17 34 17 17 34 17 17 34 17 17 34 17 17 34 17 17 34 17 17 34 17 17 34 17 17 34 17 17 34 17 17 34 17 17 34 17 17 34 17 17 34 17 17 34 17 17 34 17 17 34 17 17 34 17 17 34 17 17 34 17 17 34 17 17 34 17 17 34 17 17 34 17 17 34 17 17 34 17 17 34 17 17 34 17 17 34 17 17 34 17 17 34 17 17 34 85 102 119 85 102 119 85 102 119 85 102 119 85 102 119 85 102 119 85 102 119 85 102 119 85 102 119 85 102 119 85 102 119 85 102 119 85 102 119 85 102 119 85 102 119 85 102 119 85 102 119 85 102 119 17 17 34 17 17 34 17 17 34 17 17 34 17 17 34 17 17 34 17 17 34 17 17 34 17 17 34 17 17 34 17 17 34 17 17 34 17 17 34 17 17 34 17 17 34 17 17 34 17 17 34 17 17 34 17 17 34 17 17 34 17 17 34 17 17 34 17 17 34 17 17 34 17 17 34 17 17 34 17 17 34 17 17 34 17 17 34 17 17 34 17 17 34 17 17 34 17 17 34 17 17 34 17 17 34 17 17 34 17 17 34 17 17 34 17 17 34 17 17 34 17 17 34 68 221 119 68 221 119 68 221 119 68 221 119 68 221 119 68 221 119 17 17 34 17 17 34 17 17 34 17 17 34 17 17 34 17 17 34 17 17 34 17 17 34 17 17 34 17 17 34 17 17 34 17 17 34 17 17 34 17 17 34 17 17 34 17 17 34 17 17 34 17 17 34 17 17 34 17 17 34 17 17 34 17 17 34 51 68 85 51 68 85 51 68 85 51 68 85 51 68 85 51 68 85 51 68 85 51 68 85 85 102 119 85 102 119 85 102 119 85 102 119 85 102 119 85 102 119 85 102 119 85 102 119 85 102 119 85 102 119 85 102 119 85 102 119 85 102 119 85 102 119 85 102 119 85 102 119 85 102 119 85 102 119 85 102 119 85 102 119 85 102 119 85 102 119 85 102 119 85 102 119 85 102 119 85 102 119 85 102 119 85 102 119 85 102 119 85 102 119 85 102 119 85 102 119 85 102 119 85 102 119 85 102 119 85 102 119 85 102 119 85 102 119 85 102 119 85 102 119 85 102 119 85 102 119 85 102 119 85 102 119 85 102 119 85 102 119 85 102 119 85 102 119 85 102 119 85 102 119 85 102 119 85 102 119 85 102 119 85 102 119 85 102 119 85 102 119 85 102 119 85 102 119 85 102 119 85 102 119 85 102 119 85 102 119 85 102 119 85 102 119 85 102 119 85 102 119 85 102 119 85 102 119 85 102 119 85 102 119 51 68 85 51 68 85 51 68 85 51 68 85
51 68 85 51 68 85 51 68 85 51 68 85 51 68 85 51 68 85 51 68 85 51 68 85 51 68 85 51 68 85 51 68 85 51 68 85 51 68 85 51 68 85 51 68 85 51 68 85 51 68 85 51 68 85 51 68 85 51 68 85 51 68 85 51 68 85 51 68 85 51 68 85 51 68 85 51 68 85 51 68 85 51 68 85 51 68 85 51 68 85 51 68 85 51 68 85 51 68 85 51 68 85 51 68 85 51 68 85 51 68 85 51 68 85 51 68 85 51 68 85 51 68 85 51 68 85 51 68 85 51 68 85 51 68 85 51 68 85 51 68 85 51 68 85 51 68 85 51 68 85 51 68 85 51 68 85 51 68 85 51 68 85 51 68 85 51 68 85 51 68 85 51 68 85 51 68 85 51 68 85 51 68 85 51 68 85 51 68 85 51 68 85 51 68 85 51 68 85 51 68 85 51 68 85 51 68 85 51 68 85 51 68 85 51 68 85 51 68 85 51 68 85 51 68 85 51 68 85 51 68 85 51 68 85 51 68 85 51 68 85 51 68 85 51 68 85 17 17 34 17 17 34 17 17 34 17 17 34 17 17 34 17 17 34 17 17 34 17 17 34 17 17 34 17 17 34 17 17 34 17 17 34 17 17 34 17 17 34 17 17 34 17 17 34 17 17 34 17 17 34 17 17 34 17 17 34 17 17 34 17 17 34 17 17 34 17 17 34 17 17 34 17 17 34 17 17 34 17 17 34 17 17 34 17 17 34 17 17 34 17 17 34 17 17 34 17 17 34 17 17 34 17 17 34 17 17 34 17 17 34 17 17 34 17 17 34 17 17 34 17 17 34 17 17 34 17 17 34 17 17 34 17 17 34 17 17 34 17 17 34 17 17 34 17 17 34 17 17 34 17 17 34 17 17 34 17 17 34 17 17 34 17 17 34 17 17 34 17 17 34 17 17 34 17 17 34 17 17 34 17 17 34 17 17 34 17 17 34 17 17 34 17 17 34 17 17 34 17 17 34 17 17 34 85 102 119 85 102 119 85 102 119 85 102 119 85 102 119 85 102 119 85 102 119 85 102 119 85 102 119 85 102 119 85 102 119 85 102 119 85 102 119 85 102 119 85 102 119 85 102 119 85 102 119 85 102 119 17 17 34 17 17 34 17 17 34 17 17 34 17 17 34 17 17 34 17 17 34 17 17 34 17 17 34 17 17 34 17 17 34 17 17 34 17 17 34 17 17 34 17 17 34 17 17 34 17 17 34 17 17 34 17 17 34 17 17 34 17 17 34 17 17 34 17 17 34 17 17 34 17 17 34 17 17 34 17 17 34 17 17 34 17 17 34 17 17 34 17 17 34 17 17 34 17 17 34 17 17 34 17 17 34 17 17 34 17 17 34 17 17 34 17 17 34 17 17 34 17 17 34 68 221 119 68 221 119 68 221 119 68 221 119 68 221 119 68 221 119 17 17 34 17 17 34 17 17 34 17 17 34 17 17 34 17 17 34 17 17 34 17 17 34 17 17 34 17 17 34 17 17 34 17 17 34 17 17 34 17 17 34 17 17 34 17 17 34 17 17 34 17 17 34 17 17 34 17 17 34 17 17 34 17 17 34 51 68 85 51 68 85 51 68 85 51 68 85 51 68 85 51 68 85 51 68 85 51 68 85 85 102 119 85 102 119 85 102 119 85 102 119 85 102 119 85 102 119 85 102 119 85 102 119 85 102 119 85 102 119 85 102 119 85 102 119 85 102 119 85 102 119 85 102 119 85 102 119 85 102 119 85 102 119 85 102 119 85 102 119 85 102 119 85 102 119 85 102 119 85 102 119 85 102 119 85 102 119 85 102 119 85 102 119 85 102 119 85 102 119 85 102 119 85 102 119 85 102 119 85 102 119 85 102 119 85 102 119 85 102 119 85 102 119 85 102 119 85 102 119 85 102 119 85 102 119 85 102 119 85 102 119 85 102 119 85 102 119 85 102 119 85 102 119 85 102 119 85 102 119 85 102 119 85 102 119 85 102 119 85 102 119 85 102 119 85 102 119 85 102 119 85 102 119 85 102 119 85 102 119 85 102 119 85 102 119 85 102 119 85 102 119 85 102 119 85 102 119 85 102 119 85 102 119 85 102 119 85 102 119 51 68 85 51 68 85 51 68 85 51 68 85
51 68 85 51 68 85 51 68 85 51 68 85 51 68 85 51 68 85 51 68 85 51 68 85 51 68 85 51 68 85 51 68 85 51 68 85 51 68 85 51 68 85 51 68 85 51 68 85 51 68 85 51 68 85 51 68 85 51 68 85 51 68 85 51 68 85 51 68 85 51 68 85 51 68 85 51 68 85 51 68 85 51 68 85 51 68 85 51 68 85 51 68 85 51 68 85 51 68 85 51 68 85 51 68 85 51 68 85 51 68 85 51 68 85 51 68 85 51 68 85 51 68 85 51 68 85 51 68 85 51 68 85 51 68 85 51 68 85 51 68 85 51 68 85 51 68 85 51 68 85 51 68 85 51 68 85 51 68 85 51 68 85 51 68 85 51 68 85 51 68 85 51 68 85 51 68 85 51 68 85 51 68 85 51 68 85 51 68 85 51 68 85 51 68 85 51 68 85 51 68 85 51 68 85 51 68 85 51 68 85 51 68 85 51 68 85 51 68 85 51 68 85 51 68 85 51 68 85 51 68 85 51 68 85 51 68 85 51 68 85 51 68 85 51 68 85 17 17 34 17 17 34 17 17 34 17 17 34 17 17 34 17 17 34 17 17 34 17 17 34 17 17 34 17 17 34 17 17 34 17 17 34 17 17 34 17 17 34 17 17 34 17 17 34 17 17 34 17 17 34 17 17 34 17 17 34 17 17 34 17 17 34 17 17 34 17 17 34 17 17 34 17 17 34 17 17 34 17 17 34 17 17 34 17 17 34 17 17 34 17 17 34 17 17 34 17 17 34 17 17 34 17 17 34 17 17 34 17 17 34 17 17 34 17 17 34 17 17 34 17 17 34 17 17 34 17 17 34 17 17 34 17 17 34 17 17 34 17 17 34 17 17 34 17 17 34 17 17 34 17 17 34 17 17 34 17 17 34 17 17 34 17 17 34 17 17 34 17 17 34 17 17 34 17 17 34 17 17 34 17 17 34 17 17 34 17 17 34 17 17 34 17 17 34 17 17 34 17 17 34 17 17 34 85 102 119 85 102 119 85 102 119 85 102 119 85 102 119 85 102 119 85 102 119 85 102 119 85 102 119 85 102 119 85 102 119 85 102 119 85 102 119 85 102 119 85 102 119 85 102 119 85 102 119 85 102 119 17 17 34 17 17 34 17 17 34 17 17 34 17 17 34 17 17 34 17 17 34 17 17 34 17 17 34 17 17 34 17 17 34 17 17 34 17 17 34 17 17 34 17 17 34 17 17 34 17 17 34 17 17 34 17 17 34 17 17 34 17 17 34 17 17 34 17 17 34 17 17 34 17 17 34 17 17 34 17 17 34 17 17 34 17 17 34 17 17 34 17 17 34 17 17 34 17 17 34 17 17 34 17 17 34 17 17 34 17 17 34 17 17 34 0 170 221 0 170 221 0 170 221 0 170 221 0 170 221 0 170 221 0 170 221 0 170 221 0 170 221 0 170 221 0 170 221 0 170 221 17 17 34 17 17 34 17 17 34 17 17 34 17 17 34 17 17 34 17 17 34 17 17 34 17 17 34 17 17 34 17 17 34 17 17 34 17 17 34 17 17 34 17 17 34 17 17 34 17 17 34 17 17 34 17 17 34 51 68 85 51 68 85 51 68 85 51 68 85 51 68 85 51 68 85 51 68 85 51 68 85 85 102 119 85 102 119 85 102 119 85 102 119 85 102 119 85 102 119 85 102 119 85 102 119 85 102 119 85 102 119 85 102 119 85 102 119 85 102 119 85 102 119 85 102 119 85 102 119 85 102 119 85 102 119 85 102 119 85 102 119 85 102 119 85 102 119 85 102 119 85 102 119 85 102 119 85 102 119 85 102 119 85 102 119 85 102 119 85 102 119 85 102 119 85 102 119 85 102 119 85 102 119 85 102 119 85 102 119 85 102 119 85 102 119 85 102 119 85 102 119 85 102 119 85 102 119 85 102 119 85 102 119 85 102 119 85 102 119 85 102 119 85 102 119 85 102 119 85 102 119 85 102 119 85 102 119 85 102 119 85 102 119 85 102 119 85 102 119 85 102 119 85 102 119 85 102 119 85 102 119 85 102 119 85 102 119 85 102 119 85 102 119 85 102 119 85 102 119 85 102 119 85 102 119 85 102 119 85 102 119 51 68 85 51 68 85 51 68 85 51 68 85
51 68 85 51 68 85 51 68 85 51 68 85 51 68 85 51 68 85 51 68 85 51 68 85 51 68 85 51 68 85 51 68 85 51 68 85 51 68 85 51 68 85 51 68 85 51 68 85 51 68 85 51 68 85 51 68 85 51 68 85 51 68 85 51 68 85 51 68 85 51 68 85 51 68 85 51 68 85 51 68 85 51 68 85 51 68 85 51 68 85 51 68 85 51 68 85 51 68 85 51 68 85 51 68 85 51 68 85 51 68 85 51 68 85 51 68 85 51 68 85 51 68 85 51 68 85 51 68 85 51 68 85 51 68 85 51 68 85 51 68 85 51 68 85 51 68 85 51 68 85 51 68 85 51 68 85 51 68 85 51 68 85 51 68 85 51 68 85 51 68 85 51 68 85 51 68 85 51 68 85 51 68 85 51 68 85 51 68 85 51 68 85 51 68 85 51 68 85 51 68 85 51 68 85 51 68 85 51 68 85 51 68 85 51 68 85 51 68 85 51 68 85 51 68 85 51 68 85 51 68 85 51 68 85 51 68 85 51 68 85 51 68 85 51 68 85 17 17 34 17 17 34 17 17 34 17 17 34 17 17 34 17 17 34 17 17 34 17 17 34 17 17 34 17 17 34 17 17 34 17 17 34 17 17 34 17 17 34 17 17 34 17 17 34 17 17 34 17 17 34 17 17 34 17 17 34 17 17 34 17 17 34 17 17 34 17 17 34 17 17 34 17 17 34 17 17 34 17 17 34 17 17 34 17 17 34 17 17 34 17 17 34 17 17 34 17 17 34 17 17 34 17 17 34 17 17 34 17 17 34 17 17 34 17 17 34 17 17 34 17 17 34 17 17 34 17 17 34 17 17 34 17 17 34 17 17 34 17 17 34 17 17 34 17 17 34 17 17 34 17 17 34 17 17 34 17 17 34 17 17 34 17 17 34 17 17 34 17 17 34 17 17 34 17 17 34 17 17 34 17 17 34 17 17 34 17 17 34 17 17 34 17 17 34 17 17 34 17 17 34 17 17 34 17 17 34 17 17 34 17 17 34 17 17 34 17 17 34 0 170 221 0 170 221 0 170 221 0 170 221 0 170 221 0 170 221 0 170 221 0 170 221 17 17 34 17 17 34 17 17 34 17 17 34 17 17 34 17 17 34 17 17 34 17 17 34 17 17 34 17 17 34 17 17 34 17 17 34 17 17 34 17 17 34 17 17 34 17 17 34 17 17 34 17 17 34 17 17 34 17 17 34 17 17 34 17 17 34 17 17 34 17 17 34 17 17 34 17 17 34 17 17 34 17 17 34 17 17 34 17 17 34 17 17 34 17 17 34 17 17 34 17 17 34 17 17 34 17 17 34 17 17 34 17 17 34 17 17 34 17 17 34 17 17 34 17 17 34 17 17 34 0 170 221 0 170 221 0 170 221 0 170 221 0 170 221 0 170 221 0 170 221 0 170 221 0 170 221 0 170 221 0 170 221 0 170 221 17 17 34 17 17 34 17 17 34 17 17 34 17 17 34 17 17 34 17 17 34 17 17 34 17 17 34 17 17 34 17 17 34 17 17 34 17 17 34 17 17 34 17 17 34 17 17 34 17 17 34 17 17 34 17 17 34 51 68 85 51 68 85 51 68 85 51 68 85 51 68 85 51 68 85 51 68 85 51 68 85 85 102 119 85 102 119 85 102 119 85 102 119 85 102 119 85 102 119 85 102 119 85 102 119 85 102 119 85 102 119 85 102 119 85 102 119 85 102 119 85 102 119 85 102 119 85 102 119 85 102 119 85 102 119 85 102 119 85 102 119 85 102 119 85 102 119 85 102 119 85 102 119 85 102 119 85 102 119 85 102 119 85 102 119 85 102 119 85 102 119 85 102 119 85 102 119 85 102 119 85 102 119 85 102 119 85 102 119 85 102 119 85 102 119 85 102 119 85 102 119 85 102 119 85 102 119 85 102 119 85 102 119 85 102 119 85 102 119 85 102 119 85 102 119 85 102 119 85 102 119 85 102 119 85 102 119 85 102 119 85 102 119 85 102 119 85 102 119 85 102 119 85 102 119 85 102 119 85 102 119 85 102 119 85 102 119 85 102 119 85 102 119 85 102 119 85 102 119 85 102 119 85 102 119 85 102 119 85 102 119 51 68 85 51 68 85 51 68 85 51 68 85
51 68 85 51 68 85 51 68 85 51 68 85 51 68 85 51 68 85 51 68 85 51 68 85 51 68 85 51 68 85 51 68 85 51 68 85 51 68 85 51 68 85 51 68 85 51 68 85 51 68 85 51 68 85 51 68 85 51 68 85 51 68 85 51 68 85 51 68 85 51 68 85 51 68 85 51 68 85 51 68 85 51 68 85 51 68 85 51 68 85 51 68 85 51 68 85 51 68 85 51 68 85 51 68 85 51 68 85 51 68 85 51 68 85 51 68 85 51 68 85 51 68 85 51 68 85 51 68 85 51 68 85 51 68 85 51 68 85 51 68 85 51 68 85 51 68 85 51 68 85 51 68 85 51 68 85 51 68 85 51 68 85 51 68 85 51 68 85 51 68 85 51 68 85 51 68 85 51 68 85 51 68 85 51 68 85 51 68 85 51 68 85 51 68 85 51 68 85 51 68 85 51 68 85 51 68 85 51 68 85 51 68 85 51 68 85 51 68 85 51 68 85 51 68 85 51 68 85 51 68 85 51 68 85 51 68 85 51 68 85 51 68 85 51 68 85 17 17 34 17 17 34 17 17 34 17 17 34 17 17 34 17 17 34 17 17 34 17 17 34 17 17 34 17 17 34 17 17 34 17 17 34 17 17 34 17 17 34 17 17 34 17 17 34 17 17 34 17 17 34 17 17 34 17 17 34 17 17 34 17 17 34 17 17 34 17 17 34 17 17 34 17 17 34 17 17 34 17 17 34 17 17 34 17 17 34 17 17 34 17 17 34 17 17 34 17 17 34 17 17 34 17 17 34 17 17 34 17 17 34 17 17 34 17 17 34 17 17 34 17 17 34 17 17 34 17 17 34 17 17 34 17 17 34 17 17 34 17 17 34 17 17 34 17 17 34 17 17 34 17 17 34 17 17 34 17 17 34 17 17 34 17 17 34 17 17 34 17 17 34 17 17 34 17 17 34 17 17 34 17 17 34 17 17 34 17 17 34 17 17 34 17 17 34 17 17 34 17 17 34 17 17 34 17 17 34 17 17 34 17 17 34 17 17 34 17 17 34 0 170 221 0 170 221 0 170 221 0 170 221 0 170 221 0 170 221 0 170 221 0 170 221 17 17 34 17 17 34 17 17 34 17 17 34 17 17 34 17 17 34 17 17 34 17 17 34 17 17 34 17 17 34 17 17 34 17 17 34 17 17 34 17 17 34 17 17 34 17 17 34 17 17 34 17 17 34 17 17 34 17 17 34 17 17 34 17 17 34 17 17 34 17 17 34 17 17 34 17 17 34 17 17 34 17 17 34 17 17 34 17 17 34 17 17 34 17 17 34 17 17 34 17 17 34 17 17 34 17 17 34 17 17 34 17 17 34 17 17 34 17 17 34 17 17 34 17 17 34 17 17 34 0 170 221 0 170 221 0 170 221 0 170 221 0 170 221 0 170 221 0 170 221 0 170 221 0 170 221 0 170 221 0 170 221 0 170 221 17 17 34 17 17 34 17 17 34 17 17 34 17 17 34 17 17 34 17 17 34 17 17 34 17 17 34 17 17 34 17 17 34 17 17 34 17 17 34 17 17 34 17 17 34 17 17 34 17 17 34 17 17 34 17 17 34 51 68 85 51 68 85 51 68 85 51 68 85 51 68 85 51 68 85 51 68 85 51 68 85 85 102 119 85 102 119 85 102 119 85 102 119 85 102 119 85 102 119 85 102 119 85 102 119 85 102 119 85 102 119 85 102 119 85 102 119 85 102 119 85 102 119 85 102 119 85 102 119 85 102 119 85 102 119 85 102 119 85 102 119 85 102 119 85 102 119 85 102 119 85 102 119 85 102 119 85 102 119 85 102 119 85 102 119 85 102 119 85 102 119 85 102 119 85 102 119 85 102 119 85 102 119 85 102 119 85 102 119 85 102 119 85 102 119 85 102 119 85 102 119 85 102 119 85 102 119 85 102 119 85 102 119 85 102 119 85 102 119 85 102 119 85 102 119 85 102 119 85 102 119 85 102 119 85 102 119 85 102 119 85 102 119 85 102 119 85 102 119 85 102 119 85 102 119 85 102 119 85 102 119 85 102 119 85 102 119 85 102 119 85 102 119 85 102 119 85 102 119 85 102 119 85 102 119 85 102 119 85 102 119 51 68 85 51 68 85 51 68 85 51 68 85
17 17 34 17 17 34 17 17 34 17 17 34 17 17 34 17 17 34 17 17 34 17 17 34 17 17 34 17 17 34 17 17 34 17 17 34 17 17 34 17 17 34 17 17 34 17 17 34 17 17 34 17 17 34 17 17 34 17 17 34 17 17 34 17 17 34 17 17 34 17 17 34 17 17 34 17 17 34 17 17 34 17 17 34 17 17 34 17 17 34 17 17 34 17 17 34 17 17 34 17 17 34 17 17 34 17 17 34 17 17 34 17 17 34 17 17 34 17 17 34 17 17 34 17 17 34 17 17 34 17 17 34 17 17 34 17 17 34 17 17 34 17 17 34 17 17 34 17 17 34 17 17 34 17 17 34 17 17 34 17 17 34 17 17 34 17 17 34 17 17 34 17 17 34 17 17 34 17 17 34 17 17 34 17 17 34 17 17 34 17 17 34 17 17 34 17 17 34 17 17 34 17 17 34 17 17 34 17 17 34 17 17 34 17 17 34 17 17 34 17 17 34 17 17 34 17 17 34 17 17 34 17 17 34 17 17 34 17 17 34 17 17 34 17 17 34 17 17 34 17 17 34 17 17 34 17 17 34 17 17 34 17 17 34 17 17 34 17 17 34 17 17 34 17 17 34 17 17 34 17 17 34 17 17 34 17 17 34 17 17 34 17 17 34 17 17 34 17 17 34 17 17 34 17 17 34 17 17 34 17 17 34 17 17 34 17 17 34 17 17 34 17 17 34 17 17 34 17 17 34 17 17 34 17 17 34 17 17 34 17 17 34 17 17 34 17 17 34 17 17 34 17 17 34 17 17 34 17 17 34 17 17 34 17 17 34 17 17 34 17 17 34 17 17 34 17 17 34 17 17 34 17 17 34 17 17 34 17 17 34 17 17 34 17 17 34 17 17 34 17 17 34 17 17 34 17 17 34 17 17 34 17 17 34 17 17 34 17 17 34 17 17 34 17 17 34 17 17 34 17 17 34 17 17 34 17 17 34 17 17 34 17 17 34 17 17 34 17 17 34 17 17 34 17 17 34 17 17 34 17 17 34 17 17 34 17 17 34 0 170 221 0 170 221 0 170 221 0 170 221 0 170 221 0 170 221 0 170 221 0 170 221 17 17 34 17 17 34 17 17 34 17 17 34 17 17 34 17 17 34 17 17 34 17 17 34 17 17 34 17 17 34 17 17 34 17 17 34 17 17 34 17 17 34 17 17 34 17 17 34 17 17 34 17 17 34 17 17 34 17 17 34 17 17 34 17 17 34 17 17 34 17 17 34 17 17 34 17 17 34 17 17 34 17 17 34 17 17 34 17 17 34 17 17 34 17 17 34 17 17 34 17 17 34 17 17 34 17 17 34 17 17 34 17 17 34 17 17 34 17 17 34 17 17 34 17 17 34 17 17 34 0 170 221 0 170 221 0 170 221 0 170 221 0 170 221 0 170 221 0 170 221 0 170 221 0 170 221 0 170 221 0 170 221 0 170 221 17 17 34 17 17 34 17 17 34 17 17 34 17 17 34 17 17 34 17 17 34 17 17 34 17 17 34 17 17 34 17 17 34 17 17 34 17 17 34 17 17 34 17 17 34 17 17 34 17 17 34 17 17 34 17 17 34 51 68 85 51 68 85 51 68 85 51 68 85 51 68 85 51 68 85 51 68 85 51 68 85 51 68 85 51 68 85 51 68 85 51 68 85 51 68 85 51 68 85 51 68 85 51 68 85 51 68 85 51 68 85 51 68 85 51 68 85 51 68 85 51 68 85 51 68 85 51 68 85 51 68 85 51 68 85 51 68 85 51 68 85 51 68 85 51 68 85 51 68 85 51 68 85 51 68 85 51 68 85 51 68 85 51 68 85 51 68 85 51 68 85 51 68 85 51 68 85 51 68 85 51 68 85 51 68 85 51 68 85 51 68 85 51 68 85 51 68 85 51 68 85 51 68 85 51 68 85 51 68 85 51 68 85 51 68 85 51 68 85 51 68 85 51 68 85 51 68 85 51 68 85 51 68 85 51 68 85 51 68 85 51 68 85 51 68 85 51 68 85 51 68 85 51 68 85 51 68 85 51 68 85 51 68 85 51 68 85 51 68 85 51 68 85 51 68 85 51 68 85 51 68 85 51 68 85 51 68 85 51 68 85 51 68 85 51 68 85 51 68 85 51 68 85
17 17 34 17 17 34 17 17 34 17 17 34 17 17 34 17 17 34 17 17 34 17 17 34 17 17 34 17 17 34 17 17 34 17 17 34 17 17 34 17 17 34 17 17 34 17 17 34 17 17 34 17 17 34 17 17 34 17 17 34 17 17 34 17 17 34 17 17 34 17 17 34 17 17 34 17 17 34 17 17 34 17 17 34 17 17 34 17 17 34 17 17 34 17 17 34 17 17 34 17 17 34 17 17 34 17 17 34 17 17 34 17 17 34 17 17 34 17 17 34 17 17 34 17 17 34 17 17 34 17 17 34 17 17 34 17 17 34 17 17 34 17 17 34 17 17 34 17 17 34 17 17 34 17 17 34 17 17 34 17 17 34 17 17 34 17 17 34 17 17 34 17 17 34 17 17 34 17 17 34 17 17 34 17 17 34 17 17 34 17 17 34 17 17 34 17 17 34 17 17 34 17 17 34 17 17 34 17 17 34 17 17 34 17 17 34 17 17 34 17 17 34 17 17 34 17 17 34 17 17 34 17 17 34 17 17 34 17 17 34 17 17 34 17 17 34 17 17 34 17 17 34 17 17 34 17 17 34 17 17 34 17 17 34 17 17 34 17 17 34 17 17 34 17 17 34 17 17 34 17 17 34 17 17 34 17 17 34 17 17 34 17 17 34 17 17 34 17 17 34 17 17 34 17 17 34 17 17 34 17 17 34 17 17 34 17 17 34 17 17 34 17 17 34 17 17 34 17 17 34 17 17 34 17 17 34 17 17 34 17 17 34 17 17 34 17 17 34 17 17 34 17 17 34 17 17 34 17 17 34 17 17 34 17 17 34 17 17 34 17 17 34 17 17 34 17 17 34 17 17 34 17 17 34 17 17 34 17 17 34 17 17 34 17 17 34 17 17 34 17 17 34 17 17 34 17 17 34 17 17 34 17 17 34 17 17 34 17 17 34 17 17 34 17 17 34 17 17 34 17 17 34 17 17 34 17 17 34 17 17 34 17 17 34 17 17 34 17 17 34 17 17 34 17 17 34 17 17 34 17 17 34 17 17 34 17 17 34 0 170 221 0 170 221 0 170 221 0 170 221 0 170 221 0 170 221 0 170 221 0 170 221 17 17 34 17 17 34 17 17 34 17 17 34 17 17 34 17 17 34 17 17 34 17 17 34 17 17 34 17 17 34 17 17 34 17 17 34 17 17 34 17 17 34 17 17 34 17 17 34 17 17 34 17 17 34 17 17 34 17 17 34 17 17 34 17 17 34 17 17 34 17 17 34 17 17 34 17 17 34 17 17 34 17 17 34 17 17 34 17 17 34 17 17 34 17 17 34 17 17 34 17 17 34 17 17 34 17 17 34 17 17 34 17 17 34 17 17 34 17 17 34 17 17 34 17 17 34 17 17 34 0 170 221 0 170 221 0 170 221 0 170 221 255 221 68 255 221 68 255 221 68 255 221 68 0 170 221 0 170 221 0 170 221 0 170 221 17 17 34 17 17 34 17 17 34 17 17 34 17 17 34 17 17 34 17 17 34 17 17 34 17 17 34 17 17 34 17 17 34 17 17 34 17 17 34 17 17 34 17 17 34 17 17 34 17 17 34 17 17 34 17 17 34 51 68 85 51 68 85 51 68 85 51 68 85 51 68 85 51 68 85 51 68 85 51 68 85 51 68 85 51 68 85 51 68 85 51 68 85 51 68 85 51 68 85 51 68 85 51 68 85 51 68 85 51 68 85 51 68 85 51 68 85 51 68 85 51 68 85 51 68 85 51 68 85 51 68 85 51 68 85 51 68 85 51 68 85 51 68 85 51 68 85 51 68 85 51 68 85 51 68 85 51 68 85 51 68 85 51 68 85 51 68 85 51 68 85 51 68 85 51 68 85 51 68 85 51 68 85 51 68 85 51 68 85 51 68 85 51 68 85 51 68 85 51 68 85 51 68 85 51 68 85 51 68 85 51 68 85 51 68 85 51 68 85 51 68 85 51 68 85 51 68 85 51 68 85 51 68 85 51 68 85 51 68 85 51 68 85 51 68 85 51 68 85 51 68 85 51 68 85 51 68 85 51 68 85 51 68 85 51 68 85 51 68 85 51 68 85 51 68 85 51 68 85 51 68 85 51 68 85 51 68 85 51 68 85 51 68 85 51 68 85 51 68 85 51 68 85
17 17 34 17 17 34 17 17 34 17 17 34 17 17 34 17 17 34 17 17 34 17 17 34 17 17 34 17 17 34 17 17 34 17 17 34 17 17 34 17 17 34 17 17 34 17 17 34 17 17 34 17 17 34 17 17 34 17 17 34 17 17 34 17 17 34 17 17 34 17 17 34 17 17 34 17 17 34 17 17 34 17 17 34 17 17 34 17 17 34 17 17 34 17 17 34 17 17 34 17 17 34 17 17 34 17 17 34 17 17 34 17 17 34 17 17 34 17 17 34 17 17 34 17 17 34 17 17 34 17 17 34 17 17 34 17 17 34 17 17 34 17 17 34 17 17 34 17 17 34 17 17 34 17 17 34 17 17 34 17 17 34 17 17 34 17 17 34 17 17 34 17 17 34 17 17 34 17 17 34 17 17 34 17 17 34 17 17 34 17 17 34 17 17 34 17 17 34 17 17 34 17 17 34 17 17 34 17 17 34 17 17 34 17 17 34 17 17 34 17 17 34 17 17 34 17 17 34 17 17 34 17 17 34 17 17 34 17 17 34 17 17 34 17 17 34 17 17 34 17 17 34 17 17 34 17 17 34 17 17 34 17 17 34 17 17 34 17 17 34 17 17 34 17 17 34 17 17 34 17 17 34 17 17 34 17 17 34 17 17 34 17 17 34 17 17 34 17 17 34 17 17 34 17 17 34 17 17 34 17 17 34 17 17 34 17 17 34 17 17 34 17 17 34 17 17 34 17 17 34 17 17 34 17 17 34 17 17 34 17 17 34 17 17 34 17 17 34 17 17 34 17 17 34 17 17 34 17 17 34 17 17 34 17 17 34 17 17 34 17 17 34 17 17 34 17 17 34 17 17 34 17 17 34 17 17 34 17 17 34 17 17 34 17 17 34 17 17 34 17 17 34 17 17 34 17 17 34 17 17 34 17 17 34 17 17 34 17 17 34 17 17 34 17 17 34 17 17 34 17 17 34 17 17 34 17 17 34 17 17 34 17 17 34 17 17 34 17 17 34 17 17 34 17 17 34 17 17 34 17 17 34 17 17 34 17 17 34 0 170 221 0 170 221 0 170 221 0 170 221 0 170 221 0 170 221 0 170 221 0 170 221 17 17 34 17 17 34 17 17 34 17 17 34 17 17 34 17 17 34 17 17 34 17 17 34 17 17 34 17 17 34 17 17 34 17 17 34 17 17 34 17 17 34 17 17 34 17 17 34 17 17 34 17 17 34 17 17 34 17 17 34 17 17 34 17 17 34 17 17 34 17 17 34 17 17 34 17 17 34 17 17 34 17 17 34 17 17 34 17 17 34 17 17 34 17 17 34 17 17 34 17 17 34 17 17 34 17 17 34 17 17 34 17 17 34 17 17 34 17 17 34 17 17 34 17 17 34 17 17 34 0 170 221 0 170 221 0 170 221 0 170 221 255 221 68 255 221 68 255 221 68 255 221 68 0 170 221 0 170 221 0 170 221 0 170 221 17 17 34 17 17 34 17 17 34 17 17 34 17 17 34 17 17 34 17 17 34 17 17 34 17 17 34 17 17 34 17 17 34 17 17 34 17 17 34 17 17 34 17 17 34 17 17 34 17 17 34 17 17 34 17 17 34 51 68 85 51 68 85 51 68 85 51 68 85 51 68 85 51 68 85 51 68 85 51 68 85 51 68 85 51 68 85 51 68 85 51 68 85 51 68 85 51 68 85 51 68 85 51 68 85 51 68 85 51 68 85 51 68 85 51 68 85 51 68 85 51 68 85 51 68 85 51 68 85 51 68 85 51 68 85 51 68 85 51 68 85 51 68 85 51 68 85 51 68 85 51 68 85 51 68 85 51 68 85 51 68 85 51 68 85 51 68 85 51 68 85 51 68 85 51 68 85 51 68 85 51 68 85 51 68 85 51 68 85 51 68 85 51 68 85 51 68 85 51 68 85 51 68 85 51 68 85 51 68 85 51 68 85 51 68 85 51 68 85 51 68 85 51 68 85 51 68 85 51 68 85 51 68 85 51 68 85 51 68 85 51 68 85 51 68 85 51 68 85 51 68 85 51 68 85 51 68 85 51 68 85 51 68 85 51 68 85 51 68 85 51 68 85 51 68 85 51 68 85 51 68 85 51 68 85 51 68 85 51 68 85 51 68 85 51 68 85 51 68 85 51 68 85
17 17 34 17 17 34 17 17 34 17 17 34 17 17 34 17 17 34 17 17 34 17 17 34 17 17 34 17 17 34 17 17 34 17 17 34 17 17 34 17 17 34 17 17 34 17 17 34 17 17 34 17 17 34 17 17 34 17 17 34 17 17 34 17 17 34 17 17 34 17 17 34 17 17 34 17 17 34 17 17 34 17 17 34 17 17 34 17 17 34 17 17 34 17 17 34 17 17 34 17 17 34 17 17 34 17 17 34 17 17 34 17 17 34 17 17 34 17 17 34 17 17 34 17 17 34 17 17 34 17 17 34 17 17 34 17 17 34 17 17 34 17 17 34 17 17 34 17 17 34 17 17 34 17 17 34 17 17 34 17 17 34 17 17 34 17 17 34 17 17 34 17 17 34 17 17 34 17 17 34 17 17 34 17 17 34 17 17 34 17 17 34 17 17 34 17 17 34 17 17 34 17 17 34 17 17 34 17 17 34 17 17 34 17 17 34 17 17 34 17 17 34 17 17 34 17 17 34 17 17 34 17 17 34 17 17 34 17 17 34 17 17 34 17 17 34 17 17 34 17 17 34 17 17 34 17 17 34 17 17 34 17 17 34 17 17 34 17 17 34 17 17 34 17 17 34 17 17 34 17 17 34 17 17 34 17 17 34 17 17 34 17 17 34 17 17 34 17 17 34 17 17 34 17 17 34 17 17 34 17 17 34 17 17 34 17 17 34 17 17 34 17 17 34 17 17 34 17 17 34 17 17 34 17 17 34 17 17 34 17 17 34 17 17 34 17 17 34 17 17 34 17 17 34 17 17 34 17 17 34 17 17 34 17 17 34 17 17 34 17 17 34 17 17 34 17 17 34 17 17 34 17 17 34 17 17 34 17 17 34 17 17 34 17 17 34 17 17 34 17 17 34 17 17 34 17 17 34 17 17 34 17 17 34 17 17 34 17 17 34 17 17 34 17 17 34 17 17 34 17 17 34 17 17 34 17 17 34 17 17 34 17 17 34 17 17 34 17 17 34 17 17 34 17 17 34 17 17 34 17 17 34 17 17 34 17 17 34 0 170 221 0 170 221 0 170 221 0 170 221 0 170 221 0 170 221 0 170 221 0 170 221 17 17 34 17 17 34 17 17 34 17 17 34 17 17 34 17 17 34 17 17 34 17 17 34 17 17 34 17 17 34 17 17 34 17 17 34 17 17 34 17 17 34 17 17 34 17 17 34 17 17 34 17 17 34 17 17 34 17 17 34 17 17 34 17 17 34 17 17 34 17 17 34 17 17 34 17 17 34 17 17 34 17 17 34 17 17 34 17 17 34 17 17 34 17 17 34 17 17 34 17 17 34 17 17 34 17 17 34 17 17 34 17 17 34 17 17 34 17 17 34 17 17 34 17 17 34 17 17 34 17 17 34 17 17 34 17 17 34 17 17 34 255 221 68 255 221 68 255 221 68 255 221 68 17 17 34 17 17 34 17 17 34 17 17 34 17 17 34 17 17 34 17 17 34 17 17 34 17 17 34 17 17 34 17 17 34 17 17 34 17 17 34 17 17 34 17 17 34 17 17 34 17 17 34 17 17 34 17 17 34 17 17 34 17 17 34 17 17 34 17 17 34 51 68 85 51 68 85 51 68 85 51 68 85 51 68 85 51 68 85 51 68 85 51 68 85 51 68 85 51 68 85 51 68 85 51 68 85 51 68 85 51 68 85 51 68 85 51 68 85 51 68 85 51 68 85 51 68 85 51 68 85 51 68 85 51 68 85 51 68 85 51 68 85 51 68 85 51 68 85 51 68 85 51 68 85 51 68 85 51 68 85 51 68 85 51 68 85 51 68 85 51 68 85 51 68 85 51 68 85 51 68 85 51 68 85 51 68 85 51 68 85 51 68 85 51 68 85 51 68 85 51 68 85 51 68 85 51 68 85 51 68 85 51 68 85 51 68 85 51 68 85 51 68 85 51 68 85 51 68 85 51 68 85 51 68 85 51 68 85 51 68 85 51 68 85 51 68 85 51 68 85 51 68 85 51 68 85 51 68 85 51 68 85 51 68 85 51 68 85 51 68 85 51 68 85 51 68 85 51 68 85 51 68 85 51 68 85 51 68 85 51 68 85 51 68 85 51 68 85 51 68 85 51 68 85 51 68 85 51 68 85 51 68 85 51 68 85
51 68 85 51 68 85 51 68 85 51 68 85 51 68 85 51 68 85 51 68 85 51 68 85 51 68 85 51 68 85 51 68 85 51 68 85 51 68 85 51 68 85 51 68 85 51 68 85 51 68 85 51 68 85 51 68 85 51 68 85 51 68 85 51 68 85 51 68 85 51 68 85 51 68 85 51 68 85 51 68 85 51 68 85 51 68 85 51 68 85 51 68 85 51 68 85 51 68 85 51 68 85 51 68 85 51 68 85 51 68 85 51 68 85 51 68 85 51 68 85 51 68 85 51 68 85 51 68 85 51 68 85 51 68 85 51 68 85 51 68 85 51 68 85 51 68 85 51 68 85 51 68 85 51 68 85 51 68 85 51 68 85 51 68 85 51 68 85 51 68 85 51 68 85 51 68 85 51 68 85 51 68 85 51 68 85 51 68 85 51 68 85 51 68 85 51 68 85 51 68 85 51 68 85 51 68 85 51 68 85 51 68 85 51 68 85 51 68 85 51 68 85 51 68 85 51 68 85 51 68 85 51 68 85 51 68 85 51 68 85 51 68 85 51 68 85 17 17 34 17 17 34 17 17 34 17 17 34 17 17 34 17 17 34 17 17 34 17 17 34 17 17 34 17 17 34 17 17 34 17 17 34 17 17 34 17 17 34 17 17 34 17 17 34 17 17 34 17 17 34 17 17 34 17 17 34 17 17 34 17 17 34 17 17 34 17 17 34 17 17 34 17 17 34 17 17 34 17 17 34 17 17 34 17 17 34 17 17 34 17 17 34 17 17 34 17 17 34 17 17 34 17 17 34 17 17 34 17 17 34 17 17 34 17 17 34 17 17 34 17 17 34 17 17 34 17 17 34 17 17 34 17 17 34 17 17 34 17 17 34 17 17 34 17 17 34 17 17 34 17 17 34 17 17 34 17 17 34 17 17 34 17 17 34 17 17 34 17 17 34 17 17 34 17 17 34 17 17 34 17 17 34 17 17 34 17 17 34 17 17 34 17 17 34 17 17 34 17 17 34 17 17 34 17 17 34 17 17 34 17 17 34 17 17 34 17 17 34 0 170 221 0 170 221 0 170 221 0 170 221 0 170 221 0 170 221 0 170 221 0 170 221 17 17 34 17 17 34 17 17 34 17 17 34 17 17 34 17 17 34 17 17 34 17 17 34 17 17 34 17 17 34 17 17 34 17 17 34 17 17 34 17 17 34 17 17 34 17 17 34 17 17 34 17 17 34 17 17 34 17 17 34 17 17 34 17 17 34 17 17 34 17 17 34 17 17 34 17 17 34 17 17 34 17 17 34 17 17 34 17 17 34 17 17 34 17 17 34 17 17 34 17 17 34 17 17 34 17 17 34 17 17 34 17 17 34 17 17 34 17 17 34 17 17 34 17 17 34 17 17 34 17 17 34 17 17 34 17 17 34 17 17 34 255 221 68 255 221 68 255 221 68 255 221 68 17 17 34 17 17 34 17 17 34 17 17 34 17 17 34 17 17 34 17 17 34 17 17 34 17 17 34 17 17 34 17 17 34 17 17 34 17 17 34 17 17 34 17 17 34 17 17 34 17 17 34 17 17 34 17 17 34 17 17 34 17 17 34 17 17 34 17 17 34 17 17 34 17 17 34 17 17 34 17 17 34 17 17 34 17 17 34 17 17 34 17 17 34 17 17 34 17 17 34 17 17 34 17 17 34 17 17 34 17 17 34 17 17 34 17 17 34 17 17 34 17 17 34 17 17 34 17 17 34 17 17 34 17 17 34 17 17 34 17 17 34 17 17 34 17 17 34 17 17 34 17 17 34 17 17 34 17 17 34 17 17 34 17 17 34 17 17 34 17 17 34 17 17 34 17 17 34 17 17 34 17 17 34 17 17 34 17 17 34 17 17 34 17 17 34 17 17 34 17 17 34 17 17 34 17 17 34 17 17 34 17 17 34 17 17 34 17 17 34 17 17 34 17 17 34 17 17 34 17 17 34 17 17 34 17 17 34 17 17 34 17 17 34 17 17 34 17 17 34 17 17 34 17 17 34 17 17 34 17 17 34 17 17 34 17 17 34 17 17 34 17 17 34 17 17 34 17 17 34 17 17 34 17 17 34 17 17 34 17 17 34 17 17 34 17 17 34 17 17 34 17 17 34 17 17 34 17 17 34 17 17 34 17 17 34
51 68 85 51 68 85 51 68 85 51 68 85 51 68 85 51 68 85 51 68 85 51 68 85 51 68 85 51 68 85 51 68 85 51 68 85 51 68 85 51 68 85 51 68 85 51 68 85 51 68 85 51 68 85 51 68 85 51 68 85 51 68 85 51 68 85 51 68 85 51 68 85 51 68 85 51 68 85 51 68 85 51 68 85 51 68 85 51 68 85 51 68 85 51 68 85 51 68 85 51 68 85 51 68 85 51 68 85 51 68 85 51 68 85 51 68 85 51 68 85 51 68 85 51 68 85 51 68 85 51 68 85 51 68 85 51 68 85 51 68 85 51 68 85 51 68 85 51 68 85 51 68 85 51 68 85 51 68 85 51 68 85 51 68 85 51 68 85 51 68 85 51 68 85 51 68 85 51 68 85 51 68 85 51 68 85 51 68 85 51 68 85 51 68 85 51 68 85 51 68 85 51 68 85 51 68 85 51 68 85 51 68 85 51 68 85 51 68 85 51 68 85 51 68 85 51 68 85 51 68 85 51 68 85 51 68 85 51 68 85 51 68 85 51 68 85 17 17 34 17 17 34 17 17 34 17 17 34 17 17 34 17 17 34 17 17 34 17 17 34 17 17 34 17 17 34 17 17 34 17 17 34 17 17 34 17 17 34 17 17 34 17 17 34 17 17 34 17 17 34 17 17 34 17 17 34 17 17 34 17 17 34 17 17 34 17 17 34 17 17 34 17 17 34 17 17 34 17 17 34 17 17 34 17 17 34 17 17 34 17 17 34 17 17 34 17 17 34 17 17 34 17 17 34 17 17 34 17 17 34 17 17 34 17 17 34 17 17 34 17 17 34 17 17 34 17 17 34 17 17 34 17 17 34 17 17 34 17 17 34 17 17 34 17 17 34 17 17 34 17 17 34 17 17 34 17 17 34 17 17 34 17 17 34 17 17 34 17 17 34 17 17 34 17 17 34 17 17 34 17 17 34 17 17 34 17 17 34 17 17 34 17 17 34 17 17 34 17 17 34 17 17 34 17 17 34 17 17 34 17 17 34 17 17 34 17 17 34 0 170 221 0 170 221 0 170 221 0 170 221 0 170 221 0 170 221 0 170 221 0 170 221 17 17 34 17 17 34 17 17 34 17 17 34 17 17 34 17 17 34 17 17 34 17 17 34 17 17 34 17 17 34 17 17 34 17 17 34 17 17 34 17 17 34 17 17 34 17 17 34 17 17 34 17 17 34 17 17 34 17 17 34 17 17 34 17 17 34 17 17 34 17 17 34 17 17 34 17 17 34 17 17 34 17 17 34 17 17 34 17 17 34 17 17 34 17 17 34 17 17 34 17 17 34 17 17 34 17 17 34 17 17 34 17 17 34 17 17 34 17 17 34 17 17 34 17 17 34 17 17 34 17 17 34 17 17 34 17 17 34 17 17 34 255 221 68 255 221 68 255 221 68 255 221 68 17 17 34 17 17 34 17 17 34 17 17 34 17 17 34 17 17 34 17 17 34 17 17 34 17 17 34 17 17 34 17 17 34 17 17 34 17 17 34 17 17 34 17 17 34 17 17 34 17 17 34 17 17 34 17 17 34 17 17 34 17 17 34 17 17 34 17 17 34 17 17 34 17 17 34 17 17 34 17 17 34 17 17 34 17 17 34 17 17 34 17 17 34 17 17 34 17 17 34 17 17 34 17 17 34 17 17 34 17 17 34 17 17 34 17 17 34 17 17 34 17 17 34 17 17 34 17 17 34 17 17 34 17 17 34 17 17 34 17 17 34 17 17 34 17 17 34 17 17 34 17 17 34 17 17 34 17 17 34 17 17 34 17 17 34 17 17 34 17 17 34 17 17 34 17 17 34 17 17 34 17 17 34 17 17 34 17 17 34 17 17 34 17 17 34 17 17 34 17 17 34 17 17 34 17 17 34 17 17 34 17 17 34 17 17 34 17 17 34 17 17 34 17 17 34 17 17 34 17 17 34 17 17 34 17 17 34 17 17 34 17 17 34 17 17 34 17 17 34 17 17 34 17 17 34 17 17 34 17 17 34 17 17 34 17 17 34 17 17 34 17 17 34 17 17 34 17 17 34 17 17 34 17 17 34 17 17 34 17 17 34 17 17 34 17 17 34 17 17 34 17 17 34 17 17 34 17 17 34 17 17 34 17 17 34
51 68 85 51 68 85 51 68 85 51 68 85 51 68 85 51 68 85 51 68 85 51 68 85 51 68 85 51 68 85 51 68 85 51 68 85 51 68 85 51 68 85 51 68 85 51 68 85 51 68 85 51 68 85 51 68 85 51 68 85 51 68 85 51 68 85 51 68 85 51 68 85 51 68 85 51 68 85 51 68 85 51 68 85 51 68 85 51 68 85 51 68 85 51 68 85 51 68 85 51 68 85 51 68 85 51 68 85 51 68 85 51 68 85 51 68 85 51 68 85 51 68 85 51 68 85 51 68 85 51 68 85 51 68 85 51 68 85 51 68 85 51 68 85 51 68 85 51 68 85 51 68 85 51 68 85 51 68 85 51 68 85 51 68 85 51 68 85 51 68 85 51 68 85 51 68 85 51 68 85 51 68 85 51 68 85 51 68 85 51 68 85 51 68 85 51 68 85 51 68 85 51 68 85 51 68 85 51 68 85 51 68 85 51 68 85 51 68 85 51 68 85 51 68 85 51 68 85 51 68 85 51 68 85 51 68 85 51 68 85 51 68 85 51 68 85 17 17 34 17 17 34 17 17 34 17 17 34 17 17 34 17 17 34 17 17 34 17 17 34 17 17 34 17 17 34 17 17 34 17 17 34 17 17 34 17 17 34 17 17 34 17 17 34 17 17 34 17 17 34 17 17 34 17 17 34 17 17 34 17 17 34 17 17 34 17 17 34 17 17 34 17 17 34 17 17 34 17 17 34 17 17 34 17 17 34 17 17 34 17 17 34 17 17 34 17 17 34 17 17 34 17 17 34 17 17 34 17 17 34 17 17 34 17 17 34 17 17 34 17 17 34 17 17 34 17 17 34 17 17 34 17 17 34 17 17 34 17 17 34 17 17 34 17 17 34 17 17 34 17 17 34 17 17 34 17 17 34 17 17 34 17 17 34 17 17 34 17 17 34 17 17 34 17 17 34 17 17 34 17 17 34 17 17 34 17 17 34 17 17 34 17 17 34 17 17 34 17 17 34 17 17 34 17 17 34 17 17 34 17 17 34 17 17 34 17 17 34 0 170 221 0 170 221 0 170 221 0 170 221 0 170 221 0 170 221 0 170 221 0 170 221 17 17 34 17 17 34 17 17 34 17 17 34 17 17 34 17 17 34 17 17 34 17 17 34 17 17 34 17 17 34 17 17 34 17 17 34 17 17 34 17 17 34 17 17 34 17 17 34 17 17 34 17 17 34 17 17 34 17 17 34 17 17 34 17 17 34 17 17 34 17 17 34 17 17 34 17 17 34 17 17 34 17 17 34 17 17 34 17 17 34 17 17 34 17 17 34 17 17 34 17 17 34 17 17 34 17 17 34 17 17 34 17 17 34 17 17 34 17 17 34 17 17 34 17 17 34 17 17 34 17 17 34 17 17 34 17 17 34 17 17 34 17 17 34 17 17 34 17 17 34 17 17 34 17 17 34 17 17 34 17 17 34 17 17 34 17 17 34 17 17 34 17 17 34 17 17 34 17 17 34 17 17 34 17 17 34 17 17 34 17 17 34 17 17 34 17 17 34 17 17 34 17 17 34 17 17 34 17 17 34 17 17 34 17 17 34 17 17 34 17 17 34 17 17 34 17 17 34 17 17 34 17 17 34 17 17 34 17 17 34 17 17 34 17 17 34 17 17 34 17 17 34 17 17 34 17 17 34 17 17 34 17 17 34 17 17 34 17 17 34 17 17 34 17 17 34 17 17 34 17 17 34 17 17 34 17 17 34 17 17 34 17 17 34 17 17 34 17 17 34 17 17 34 17 17 34 17 17 34 17 17 34 17 17 34 17 17 34 17 17 34 17 17 34 17 17 34 17 17 34 17 17 34 17 17 34 17 17 34 17 17 34 17 17 34 17 17 34 17 17 34 17 17 34 17 17 34 17 17 34 17 17 34 17 17 34 17 17 34 17 17 34 17 17 34 17 17 34 17 17 34 17 17 34 17 17 34 17 17 34 17 17 34 17 17 34 17 17 34 17 17 34 17 17 34 17 17 34 17 17 34 17 17 34 17 17 34 17 17 34 17 17 34 17 17 34 17 17 34 17 17 34 17 17 34 17 17 34 17 17 34 17 17 34 17 17 34 17 17 34 17 17 34 17 17 34 17 17 34 17 17 34 17 17 34 17 17 34
51 68 85 51 68 85 51 68 85 51 68 85 51 68 85 51 68 85 51 68 85 51 68 85 51 68 85 51 68 85 51 68 85 51 68 85 51 68 85 51 68 85 51 68 85 51 68 85 51 68 85 51 68 85 51 68 85 51 68 85 51 68 85 51 68 85 51 68 85 51 68 85 51 68 85 51 68 85 51 68 85 51 68 85 51 68 85 51 68 85 51 68 85 51 68 85 51 68 85 51 68 85 51 68 85 51 68 85 51 68 85 51 68 85 51 68 85 51 68 85 51 68 85 51 68 85 51 68 85 51 68 85 51 68 85 51 68 85 51 68 85 51 68 85 51 68 85 51 68 85 51 68 85 51 68 85 51 68 85 51 68 85 51 68 85 51 68 85 51 68 85 51 68 85 51 68 85 51 68 85 51 68 85 51 68 85 51 68 85 51 68 85 51 68 85 51 68 85 51 68 85 51 68 85 51 68 85 51 68 85 51 68 85 51 68 85 51 68 85 51 68 85 51 68 85 51 68 85 51 68 85 51 68 85 51 68 85 51 68 85 51 68 85 51 68 85 17 17 34 17 17 34 17 17 34 17 17 34 17 17 34 17 17 34 17 17 34 17 17 34 17 17 34 17 17 34 17 17 34 17 17 34 17 17 34 17 17 34 17 17 34 17 17 34 17 17 34 17 17 34 17 17 34 17 17 34 17 17 34 17 17 34 17 17 34 17 17 34 17 17 34 17 17 34 17 17 34 17 17 34 17 17 34 17 17 34 17 17 34 17 17 34 17 17 34 17 17 34 17 17 34 17 17 34 17 17 34 17 17 34 17 17 34 17 17 34 17 17 34 17 17 34 17 17 34 17 17 34 17 17 34 17 17 34 17 17 34 17 17 34 17 17 34 17 17 34 17 17 34 17 17 34 17 17 34 17 17 34 17 17 34 17 17 34 17 17 34 17 17 34 17 17 34 17 17 34 17 17 34 17 17 34 17 17 34 17 17 34 17 17 34 17 17 34 17 17 34 17 17 34 17 17 34 17 17 34 17 17 34 17 17 34 17 17 34 17 17 34 0 170 221 0 170 221 0 170 221 0 170 221 0 170 221 0 170 221 0 170 221 0 170 221 17 17 34 17 17 34 17 17 34 17 17 34 17 17 34 17 17 34 17 17 34 17 17 34 17 17 34 17 17 34 17 17 34 17 17 34 17 17 34 17 17 34 17 17 34 17 17 34 17 17 34 17 17 34 17 17 34 17 17 34 17 17 34 17 17 34 17 17 34 17 17 34 17 17 34 17 17 34 17 17 34 17 17 34 17 17 34 17 17 34 17 17 34 17 17 34 17 17 34 17 17 34 17 17 34 17 17 34 17 17 34 17 17 34 17 17 34 17 17 34 17 17 34 17 17 34 17 17 34 17 17 34 17 17 34 17 17 34 17 17 34 17 17 34 17 17 34 17 17 34 17 17 34 17 17 34 17 17 34 17 17 34 17 17 34 17 17 34 17 17 34 17 17 34 17 17 34 17 17 34 17 17 34 17 17 34 17 17 34 17 17 34 17 17 34 17 17 34 17 17 34 17 17 34 17 17 34 17 17 34 17 17 34 17 17 34 17 17 34 17 17 34 17 17 34 17 17 34 17 17 34 17 17 34 17 17 34 17 17 34 17 17 34 17 17 34 17 17 34 17 17 34 17 17 34 17 17 34 17 17 34 17 17 34 17 17 34 17 17 34 17 17 34 17 17 34 17 17 34 17 17 34 17 17 34 17 17 34 17 17 34 17 17 34 17 17 34 17 17 34 17 17 34 17 17 34 17 17 34 17 17 34 17 17 34 17 17 34 17 17 34 17 17 34 17 17 34 17 17 34 17 17 34 17 17 34 17 17 34 17 17 34 17 17 34 17 17 34 17 17 34 17 17 34 17 17 34 17 17 34 17 17 34 17 17 34 17 17 34 17 17 34 17 17 34 17 17 34 17 17 34 17 17 34 17 17 34 17 17 34 17 17 34 17 17 34 17 17 34 17 17 34 17 17 34 17 17 34 17 17 34 17 17 34 17 17 34 17 17 34 17 17 34 17 17 34 17 17 34 17 17 34 17 17 34 17 17 34 17 17 34 17 17 34 17 17 34 17 17 34 17 17 34 17 17 34 17 17 34 17 17 34 17 17 34 17 17 34
51 68 85 51 68 85 51 68 85 51 68 85 85 102 119 85 102 119 85 102 119 85 102 119 85 102 119 85 102 119 85 102 119 85 102 119 85 102 119 85 102 119 85 102 119 85 102 119 85 102 119 85 102 119 85 102 119 85 102 119 85 102 119 85 102 119 85 102 119 85 102 119 85 102 119 85 102 119 85 102 119 85 102 119 85 102 119 85 102 119 85 102 119 85 102 119 85 102 119 85 102 119 85 102 119 85 102 119 85 102 119 85 102 119 85 102 119 85 102 119 85 102 119 85 102 119 85 102 119 85 102 119 85 102 119 85 102 119 85 102 119 85 102 119 85 102 119 85 102 119 85 102 119 85 102 119 85 102 119 85 102 119 85 102 119 85 102 119 85 102 119 85 102 119 85 102 119 85 102 119 85 102 119 85 102 119 85 102 119 85 102 119 85 102 119 85 102 119 85 102 119 85 102 119 85 102 119 85 102 119 85 102 119 85 102 119 85 102 119 85 102 119 51 68 85 51 68 85 51 68 85 51 68 85 51 68 85 51 68 85 51 68 85 51 68 85 17 17 34 17 17 34 17 17 34 17 17 34 17 17 34 17 17 34 17 17 34 17 17 34 17 17 34 17 17 34 17 17 34 17 17 34 17 17 34 17 17 34 17 17 34 17 17 34 17 17 34 17 17 34 17 17 34 17 17 34 17 17 34 17 17 34 17 17 34 17 17 34 17 17 34 17 17 34 17 17 34 17 17 34 17 17 34 17 17 34 17 17 34 17 17 34 17 17 34 17 17 34 17 17 34 17 17 34 17 17 34 17 17 34 17 17 34 17 17 34 17 17 34 17 17 34 17 17 34 17 17 34 17 17 34 17 17 34 17 17 34 17 17 34 17 17 34 17 17 34 17 17 34 17 17 34 17 17 34 17 17 34 17 17 34 17 17 34 17 17 34 17 17 34 17 17 34 17 17 34 17 17 34 17 17 34 17 17 34 17 17 34 17 17 34 17 17 34 17 17 34 17 17 34 17 17 34 17 17 34 17 17 34 17 17 34 17 17 34 17 17 34 17 17 34 17 17 34 17 17 34 17 17 34 17 17 34 17 17 34 17 17 34 17 17 34 17 17 34 17 17 34 17 17 34 17 17 34 17 17 34 17 17 34 17 17 34 17 17 34 17 17 34 17 17 34 17 17 34 17 17 34 17 17 34 17 17 34 17 17 34 17 17 34 17 17 34 17 17 34 17 17 34 17 17 34 17 17 34 17 17 34 17 17 34 17 17 34 17 17 34 17 17 34 17 17 34 17 17 34 17 17 34 17 17 34 17 17 34 17 17 34 17 17 34 17 17 34 17 17 34 17 17 34 17 17 34 17 17 34 17 17 34 17 17 34 17 17 34 17 17 34 17 17 34 17 17 34 17 17 34 17 17 34 17 17 34 17 17 34 17 17 34 17 17 34 17 17 34 17 17 34 17 17 34 17 17 34 17 17 34 17 17 34 17 17 34 17 17 34 17 17 34 17 17 34 17 17 34 17 17 34 17 17 34 17 17 34 17 17 34 17 17 34 17 17 34 17 17 34 17 17 34 17 17 34 17 17 34 17 17 34 17 17 34 17 17 34 17 17 34 17 17 34 17 17 34 17 17 34 17 17 34 17 17 34 17 17 34 17 17 34 17 17 34 17 17 34 17 17 34 17 17 34 17 17 34 17 17 34 17 17 34 17 17 34 17 17 34 17 17 34 17 17 34 17 17 34 17 17 34 17 17 34 17 17 34 17 17 34 17 17 34 17 17 34 17 17 34 17 17 34 17 17 34 17 17 34 17 17 34 17 17 34 17 17 34 17 17 34 17 17 34 17 17 34 17 17 34 17 17 34 17 17 34 17 17 34 17 17 34 17 17 34 17 17 34 17 17 34 17 17 34 17 17 34 17 17 34 17 17 34 17 17 34 17 17 34 17 17 34 17 17 34 17 17 34 17 17 34 17 17 34 17 17 34 17 17 34 17 17 34 17 17 34 17 17 34 17 17 34 17 17 34 17 17 34 17 17 34 17 17 34 17 17 34 17 17 34 17 17 34 17 17 34 17 17 34 17 17 34 17 17 34 17 17 34 17 17 34 17 17 34 17 17 34 17 17 34 17 17 34 17 17 34 17 17 34 17 17 34 17 17 34
51 68 85 51 68 85 51 68 85 51 68 85 85 102 119 85 102 119 85 102 119 85 102 119 85 102 119 85 102 119 85 102 119 85 102 119 85 102 119 85 102 119 85 102 119 85 102 119 85 102 119 85 102 119 85 102 119 85 102 119 85 102 119 85 102 119 85 102 119 85 102 119 85 102 119 85 102 119 85 102 119 85 102 119 85 102 119 85 102 119 85 102 119 85 102 119 85 102 119 85 102 119 85 102 119 85 102 119 85 102 119 85 102 119 85 102 119 85 102 119 85 102 119 85 102 119 85 102 119 85 102 119 85 102 119 85 102 119 85 102 119 85 102 119 85 102 119 85 102 119 85 102 119 85 102 119 85 102 119 85 102 119 85 102 119 85 102 119 85 102 119 85 102 119 85 102 119 85 102 119 85 102 119 85 102 119 85 102 119 85 102 119 85 102 119 85 102 119 85 102 119 85 102 119 85 102 119 85 102 119 85 102 119 85 102 119 85 102 119 85 102 119 51 68 85 51 68 85 51 68 85 51 68 85 51 68 85 51 68 85 51 68 85 51 68 85 17 17 34 17 17 34 17 17 34 17 17 34 17 17 34 17 17 34 17 17 34 17 17 34 17 17 34 17 17 34 17 17 34 17 17 34 17 17 34 17 17 34 17 17 34 17 17 34 17 17 34 17 17 34 17 17 34 17 17 34 17 17 34 17 17 34 17 17 34 17 17 34 17 17 34 17 17 34 17 17 34 17 17 34 17 17 34 17 17 34 17 17 34 17 17 34 17 17 34 17 17 34 17 17 34 17 17 34 17 17 34 17 17 34 17 17 34 17 17 34 17 17 34 17 17 34 17 17 34 17 17 34 17 17 34 17 17 34 17 17 34 17 17 34 17 17 34 17 17 34 17 17 34 17 17 34 17 17 34 17 17 34 17 17 34 17 17 34 17 17 34 17 17 34 17 17 34 17 17 34 17 17 34 17 17 34 17 17 34 17 17 34 17 17 34 17 17 34 17 17 34 17 17 34 17 17 34 17 17 34 17 17 34 17 17 34 17 17 34 17 17 34 17 17 34 17 17 34 17 17 34 17 17 34 17 17 34 17 17 34 17 17 34 17 17 34 17 17 34 17 17 34 17 17 34 17 17 34 17 17 34 17 17 34 17 17 34 17 17 34 17 17 34 17 17 34 17 17 34 17 17 34 17 17 34 17 17 34 17 17 34 17 17 34 17 17 34 17 17 34 17 17 34 17 17 34 17 17 34 17 17 34 17 17 34 17 17 34 17 17 34 17 17 34 17 17 34 17 17 34 17 17 34 17 17 34 17 17 34 17 17 34 17 17 34 17 17 34 17 17 34 17 17 34 17 17 34 17 17 34 17 17 34 17 17 34 17 17 34 17 17 34 17 17 34 17 17 34 17 17 34 17 17 34 17 17 34 17 17 34 17 17 34 17 17 34 17 17 34 17 17 34 17 17 34 17 17 34 17 17 34 17 17 34 17 17 34 17 17 34 17 17 34 17 17 34 17 17 34 17 17 34 17 17 34 17 17 34 17 17 34 17 17 34 17 17 34 17 17 34 17 17 34 17 17 34 17 17 34 17 17 34 17 17 34 17 17 34 17 17 34 17 17 34 17 17 34 17 17 34 17 17 34 17 17 34 17 17 34 17 17 34 17 17 34 17 17 34 17 17 34 17 17 34 17 17 34 17 17 34 17 17 34 17 17 34 17 17 34 17 17 34 17 17 34 17 17 34 17 17 34 17 17 34 17 17 34 17 17 34 17 17 34 17 17 34 17 17 34 17 17 34 17 17 34 17 17 34 17 17 34 17 17 34 17 17 34 17 17 34 17 17 34 17 17 34 17 17 34 17 17 34 17 17 34 17 17 34 17 17 34 17 17 34 17 17 34 17 17 34 17 17 34 17 17 34 17 17 34 17 17 34 17 17 34 17 17 34 17 17 34 17 17 34 17 17 34 17 17 34 17 17 34 17 17 34 17 17 34 17 17 34 17 17 34 17 17 34 17 17 34 17 17 34 17 17 34 17 17 34 17 17 34 17 17 34 17 17 34 17 17 34 17 17 34 17 17 34 17 17 34 17 17 34 17 17 34 17 17 34 17 17 34 17 17 34 17 17 34 17 17 34 17 17 34 17 17 34 17 17 34 17 17 34
51 68 85 51 68 85 51 68 85 51 68 85 85 102 119 85 102 119 85 102 119 85 102 119 85 102 119 85 102 119 85 102 119 85 102 119 85 102 119 85 102 119 85 102 119 85 102 119 85 102 119 85 102 119 85 102 119 85 102 119 85 102 119 85 102 119 85 102 119 85 102 119 85 102 119 85 102 119 85 102 119 85 102 119 85 102 119 85 102 119 85 102 119 85 102 119 85 102 119 85 102 119 85 102 119 85 102 119 85 102 119 85 102 119 85 102 119 85 102 119 85 102 119 85 102 119 85 102 119 85 102 119 85 102 119 85 102 119 85 102 119 85 102 119 85 102 119 85 102 119 85 102 119 85 102 119 85 102 119 85 102 119 85 102 119 85 102 119 85 102 119 85 102 119 85 102 119 85 102 119 85 102 119 85 102 119 85 102 119 85 102 119 85 102 119 85 102 119 85 102 119 85 102 119 85 102 119 85 102 119 85 102 119 85 102 119 85 102 119 85 102 119 51 68 85 51 68 85 51 68 85 51 68 85 51 68 85 51 68 85 51 68 85 51 68 85 17 17 34 17 17 34 17 17 34 17 17 34 17 17 34 17 17 34 17 17 34 17 17 34 17 17 34 17 17 34 17 17 34 17 17 34 17 17 34 17 17 34 17 17 34 17 17 34 17 17 34 17 17 34 17 17 34 17 17 34 17 17 34 17 17 34 17 17 34 17 17 34 17 17 34 17 17 34 17 17 34 17 17 34 17 17 34 17 17 34 17 17 34 17 17 34 17 17 34 17 17 34 17 17 34 17 17 34 17 17 34 17 17 34 17 17 34 17 17 34 17 17 34 17 17 34 17 17 34 17 17 34 17 17 34 17 17 34 17 17 34 17 17 34 17 17 34 17 17 34 17 17 34 17 17 34 17 17 34 17 17 34 17 17 34 17 17 34 17 17 34 17 17 34 17 17 34 17 17 34 17 17 34 17 17 34 17 17 34 17 17 34 17 17 34 17 17 34 17 17 34 17 17 34 17 17 34 17 17 34 17 17 34 17 17 34 17 17 34 17 17 34 17 17 34 17 17 34 17 17 34 17 17 34 17 17 34 17 17 34 17 17 34 17 17 34 17 17 34 17 17 34 17 17 34 17 17 34 17 17 34 17 17 34 17 17 34 17 17 34 17 17 34 17 17 34 17 17 34 17 17 34 17 17 34 17 17 34 17 17 34 17 17 34 17 17 34 17 17 34 17 17 34 17 17 34 17 17 34 17 17 34 17 17 34 17 17 34 17 17 34 17 17 34 17 17 34 17 17 34 17 17 34 17 17 34 17 17 34 17 17 34 17 17 34 17 17 34 17 17 34 17 17 34 17 17 34 17 17 34 17 17 34 17 17 34 17 17 34 17 17 34 17 17 34 17 17 34 17 17 34 17 17 34 17 17 34 17 17 34 17 17 34 17 17 34 17 17 34 17 17 34 17 17 34 17 17 34 17 17 34 17 17 34 17 17 34 17 17 34 17 17 34 17 17 34 17 17 34 17 17 34 17 17 34 17 17 34 17 17 34 17 17 34 17 17 34 17 17 34 17 17 34 17 17 34 17 17 34 17 17 34 17 17 34 17 17 34 17 17 34 17 17 34 17 17 34 17 17 34 17 17 34 17 17 34 17 17 34 17 17 34 17 17 34 17 17 34 17 17 34 17 17 34 17 17 34 17 17 34 17 17 34 17 17 34 17 17 34 17 17 34 17 17 34 17 17 34 17 17 34 17 17 34 17 17 34 17 17 34 17 17 34 17 17 34 17 17 34 17 17 34 17 17 34 17 17 34 17 17 34 17 17 34 17 17 34 17 17 34 17 17 34 17 17 34 17 17 34 17 17 34 17 17 34 17 17 34 17 17 34 17 17 34 17 17 34 17 17 34 17 17 34 17 17 34 17 17 34 17 17 34 17 17 34 17 17 34 17 17 34 17 17 34 17 17 34 17 17 34 17 17 34 17 17 34 17 17 34 17 17 34 17 17 34 17 17 34 17 17 34 17 17 34 17 17 34 17 17 34 17 17 34 17 17 34 17 17 34 17 17 34 17 17 34 17 17 34 17 17 34 17 17 34 17 17 34 17 17 34 17 17 34 17 17 34 17 17 34 17 17 34 17 17 34 17 17 34 17 17 34 17 17 34
51 68 85 51 68 85 51 68 85 51 68 85 85 102 119 85 102 119 85 102 119 85 102 119 85 102 119 85 102 119 85 102 119 85 102 119 85 102 119 85 102 119 85 102 119 85 102 119 85 102 119 85 102 119 85 102 119 85 102 119 85 102 119 85 102 119 85 102 119 85 102 119 85 102 119 85 102 119 85 102 119 85 102 119 85 102 119 85 102 119 85 102 119 85 102 119 85 102 119 85 102 119 85 102 119 85 102 119 85 102 119 85 102 119 85 102 119 85 102 119 85 102 119 85 102 119 85 102 119 85 102 119 85 102 119 85 102 119 85 102 119 85 102 119 85 102 119 85 102 119 85 102 119 85 102 119 85 102 119 85 102 119 85 102 119 85 102 119 85 102 119 85 102 119 85 102 119 85 102 119 85 102 119 85 102 119 85 102 119 85 102 119 85 102 119 85 102 119 85 102 119 85 102 119 85 102 119 85 102 119 85 102 119 85 102 119 85 102 119 85 102 119 51 68 85 51 68 85 51 68 85 51 68 85 51 68 85 51 68 85 51 68 85 51 68 85 17 17 34 17 17 34 17 17 34 17 17 34 17 17 34 17 17 34 17 17 34 17 17 34 17 17 34 17 17 34 17 17 34 17 17 34 17 17 34 17 17 34 17 17 34 17 17 34 17 17 34 17 17 34 17 17 34 17 17 34 17 17 34 17 17 34 17 17 34 17 17 34 17 17 34 17 17 34 17 17 34 17 17 34 17 17 34 17 17 34 17 17 34 17 17 34 17 17 34 17 17 34 17 17 34 17 17 34 17 17 34 17 17 34 17 17 34 17 17 34 17 17 34 17 17 34 17 17 34 17 17 34 17 17 34 17 17 34 17 17 34 17 17 34 17 17 34 17 17 34 17 17 34 17 17 34 17 17 34 17 17 34 17 17 34 17 17 34 17 17 34 17 17 34 17 17 34 17 17 34 17 17 34 17 17 34 17 17 34 17 17 34 17 17 34 17 17 34 17 17 34 17 17 34 17 17 34 17 17 34 17 17 34 17 17 34 17 17 34 17 17 34 17 17 34 17 17 34 17 17 34 17 17 34 17 17 34 17 17 34 17 17 34 17 17 34 17 17 34 17 17 34 17 17 34 17 17 34 17 17 34 17 17 34 17 17 34 17 17 34 17 17 34 17 17 34 17 17 34 17 17 34 17 17 34 17 17 34 17 17 34 17 17 34 17 17 34 17 17 34 17 17 34 17 17 34 17 17 34 17 17 34 17 17 34 17 17 34 17 17 34 17 17 34 17 17 34 17 17 34 17 17 34 17 17 34 17 17 34 17 17 34 17 17 34 17 17 34 17 17 34 17 17 34 17 17 34 17 17 34 17 17 34 17 17 34 17 17 34 17 17 34 17 17 34 17 17 34 17 17 34 17 17 34 17 17 34 17 17 34 17 17 34 17 17 34 17 17 34 17 17 34 17 17 34 17 17 34 17 17 34 17 17 34 17 17 34 17 17 34 17 17 34 17 17 34 17 17 34 17 17 34 17 17 34 17 17 34 17 17 34 17 17 34 17 17 34 17 17 34 17 17 34 17 17 34 17 17 34 17 17 34 17 17 34 17 17 34 17 17 34 17 17 34 17 17 34 17 17 34 17 17 34 17 17 34 17 17 34 17 17 34 17 17 34 17 17 34 17 17 34 17 17 34 17 17 34 17 17 34 17 17 34 17 17 34 17 17 34 17 17 34 17 17 34 17 17 34 17 17 34 17 17 34 17 17 34 17 17 34 17 17 34 17 17 34 17 17 34 17 17 34 17 17 34 17 17 34 17 17 34 17 17 34 17 17 34 17 17 34 17 17 34 17 17 34 17 17 34 17 17 34 17 17 34 17 17 34 17 17 34 17 17 34 17 17 34 17 17 34 17 17 34 17 17 34 17 17 34 17 17 34 17 17 34 17 17 34 17 17 34 17 17 34 17 17 34 17 17 34 17 17 34 17 17 34 17 17 34 17 17 34 17 17 34 17 17 34 17 17 34 17 17 34 17 17 34 17 17 34 17 17 34 17 17 34 17 17 34 17 17 34 17 17 34 17 17 34 17 17 34 17 17 34 17 17 34 17 17 34 17 17 34 17 17 34 17 17 34 17 17 34 17 17 34 17 17 34 17 17 34 17 17 34
51 68 85 51 68 85 51 68 85 51 68 85 85 102 119 85 102 119 85 102 119 85 102 119 85 102 119 85 102 119 85 102 119 85 102 119 85 102 119 85 102 119 85 102 119 85 102 119 85 102 119 85 102 119 85 102 119 85 102 119 85 102 119 85 102 119 85 102 119 85 102 119 85 102 119 85 102 119 85 102 119 85 102 119 85 102 119 85 102 119 85 102 119 85 102 119 85 102 119 85 102 119 85 102 119 85 102 119 85 102 119 85 102 119 85 102 119 85 102 119 85 102 119 85 102 119 85 102 119 85 102 119 85 102 119 85 102 119 85 102 119 85 102 119 85 102 119 85 102 119 85 102 119 85 102 119 85 102 119 85 102 119 85 102 119 85 102 119 85 102 119 85 102 119 85 102 119 85 102 119 85 102 119 85 102 119 85 102 119 85 102 119 85 102 119 85 102 119 85 102 119 85 102 119 85 102 119 85 102 119 85 102 119 85 102 119 85 102 119 85 102 119 51 68 85 51 68 85 51 68 85 51 68 85 51 68 85 51 68 85 51 68 85 51 68 85 17 17 34 17 17 34 17 17 34 17 17 34 17 17 34 17 17 34 17 17 34 17 17 34 17 17 34 17 17 34 17 17 34 17 17 34 17 17 34 17 17 34 17 17 34 17 17 34 17 17 34 17 17 34 17 17 34 17 17 34 17 17 34 17 17 34 17 17 34 17 17 34 17 17 34 17 17 34 17 17 34 17 17 34 17 17 34 17 17 34 17 17 34 17 17 34 17 17 34 17 17 34 17 17 34 17 17 34 17 17 34 17 17 34 17 17 34 17 17 34 17 17 34 17 17 34 17 17 34 17 17 34 17 17 34 17 17 34 17 17 34 17 17 34 17 17 34 17 17 34 17 17 34 17 17 34 17 17 34 17 17 34 17 17 34 17 17 34 17 17 34 17 17 34 17 17 34 17 17 34 17 17 34 17 17 34 17 17 34 17 17 34 17 17 34 17 17 34 17 17 34 17 17 34 17 17 34 17 17 34 17 17 34 17 17 34 17 17 34 17 17 34 17 17 34 17 17 34 17 17 34 17 17 34 17 17 34 17 17 34 17 17 34 17 17 34 17 17 34 17 17 34 17 17 34 17 17 34 17 17 34 17 17 34 17 17 34 17 17 34 17 17 34 17 17 34 17 17 34 17 17 34 17 17 34 17 17 34 17 17 34 17 17 34 17 17 34 17 17 34 17 17 34 17 17 34 17 17 34 17 17 34 17 17 34 17 17 34 17 17 34 17 17 34 17 17 34 17 17 34 17 17 34 17 17 34 17 17 34 17 17 34 17 17 34 17 17 34 17 17 34 17 17 34 17 17 34 17 17 34 17 17 34 17 17 34 17 17 34 17 17 34 17 17 34 17 17 34 17 17 34 17 17 34 17 17 34 17 17 34 17 17 34 17 17 34 17 17 34 17 17 34 17 17 34 17 17 34 17 17 34 17 17 34 17 17 34 17 17 34 17 17 34 17 17 34 17 17 34 17 17 34 17 17 34 17 17 34 17 17 34 17 17 34 17 17 34 17 17 34 17 17 34 17 17 34 17 17 34 17 17 34 17 17 34 17 17 34 51 68 85 51 68 85 51 68 85 51 68 85 51 68 85 51 68 85 51 68 85 51 68 85 51 68 85 51 68 85 51 68 85 51 68 85 51 68 85 51 68 85 51 68 85 51 68 85 51 68 85 51 68 85 51 68 85 51 68 85 51 68 85 51 68 85 51 68 85 51 68 85 51 68 85 51 68 85 51 68 85 51 68 85 51 68 85 51 68 85 51 68 85 51 68 85 51 68 85 51 68 85 51 68 85 51 68 85 51 68 85 51 68 85 51 68 85 51 68 85 51 68 85 51 68 85 51 68 85 51 68 85 51 68 85 51 68 85 51 68 85 51 68 85 51 68 85 51 68 85 51 68 85 51 68 85 51 68 85 51 68 85 51 68 85 51 68 85 51 68 85 51 68 85 51 68 85 51 68 85 51 68 85 51 68 85 51 68 85 51 68 85 51 68 85 51 68 85 51 68 85 51 68 85 51 68 85 51 68 85 51 68 85 51 68 85 51 68 85 51 68 85 51 68 85 51 68 85 51 68 85 51 68 85 51 68 85 51 68 85 51 68 85 51 68 85
51 68 85 51 68 85 51 68 85 51 68 85 85 102 119 85 102 119 85 102 119 85 102 119 85 102 119 85 102 119 85 102 119 85 102 119 85 102 119 85 102 119 85 102 119 85 102 119 85 102 119 85 102 119 85 102 119 85 102 119 85 102 119 85 102 119 85 102 119 85 102 119 85 102 119 85 102 119 85 102 119 85 102 119 85 102 119 85 102 119 85 102 119 85 102 119 85 102 119 85 102 119 85 102 119 85 102 119 85 102 119 85 102 119 85 102 119 85 102 119 85 102 119 85 102 119 85 102 119 85 102 119 85 102 119 85 102 119 85 102 119 85 102 119 85 102 119 85 102 119 85 102 119 85 102 119 85 102 119 85 102 119 85 102 119 85 102 119 85 102 119 85 102 119 85 102 119 85 102 119 85 102 119 85 102 119 85 102 119 85 102 119 85 102 119 85 102 119 85 102 119 85 102 119 85 102 119 85 102 119 85 102 119 85 102 119 85 102 119 85 102 119 51 68 85 51 68 85 51 68 85 51 68 85 51 68 85 51 68 85 51 68 85 51 68 85 17 17 34 17 17 34 17 17 34 17 17 34 17 17 34 17 17 34 17 17 34 17 17 34 17 17 34 17 17 34 17 17 34 17 17 34 17 17 34 17 17 34 17 17 34 17 17 34 17 17 34 17 17 34 17 17 34 17 17 34 17 17 34 17 17 34 17 17 34 17 17 34 17 17 34 17 17 34 17 17 34 17 17 34 17 17 34 17 17 34 17 17 34 17 17 34 17 17 34 17 17 34 17 17 34 17 17 34 17 17 34 17 17 34 17 17 34 17 17 34 17 17 34 17 17 34 17 17 34 17 17 34 17 17 34 17 17 34 17 17 34 17 17 34 17 17 34 17 17 34 17 17 34 17 17 34 17 17 34 17 17 34 17 17 34 17 17 34 17 17 34 17 17 34 17 17 34 17 17 34 17 17 34 17 17 34 17 17 34 17 17 34 17 17 34 17 17 34 17 17 34 17 17 34 17 17 34 17 17 34 17 17 34 17 17 34 17 17 34 17 17 34 17 17 34 17 17 34 17 17 34 17 17 34 17 17 34 17 17 34 17 17 34 17 17 34 17 17 34 17 17 34 17 17 34 17 17 34 17 17 34 17 17 34 17 17 34 17 17 34 17 17 34 17 17 34 17 17 34 17 17 34 17 17 34 17 17 34 17 17 34 17 17 34 17 17 34 17 17 34 17 17 34 17 17 34 17 17 34 17 17 34 17 17 34 17 17 34 17 17 34 17 17 34 17 17 34 17 17 34 17 17 34 17 17 34 17 17 34 17 17 34 17 17 34 17 17 34 17 17 34 17 17 34 17 17 34 17 17 34 17 17 34 17 17 34 17 17 34 17 17 34 17 17 34 17 17 34 17 17 34 17 17 34 17 17 34 17 17 34 17 17 34 17 17 34 17 17 34 17 17 34 17 17 34 17 17 34 17 17 34 17 17 34 17 17 34 17 17 34 17 17 34 17 17 34 17 17 34 17 17 34 17 17 34 17 17 34 17 17 34 17 17 34 17 17 34 17 17 34 17 17 34 17 17 34 17 17 34 17 17 34 17 17 34 17 17 34 51 68 85 51 68 85 51 68 85 51 68 85 51 68 85 51 68 85 51 68 85 51 68 85 51 68 85 51 68 85 51 68 85 51 68 85 51 68 85 51 68 85 51 68 85 51 68 85 51 68 85 51 68 85 51 68 85 51 68 85 51 68 85 51 68 85 51 68 85 51 68 85 51 68 85 51 68 85 51 68 85 51 68 85 51 68 85 51 68 85 51 68 85 51 68 85 51 68 85 51 68 85 51 68 85 51 68 85 51 68 85 51 68 85 51 68 85 51 68 85 51 68 85 51 68 85 51 68 85 51 68 85 51 68 85 51 68 85 51 68 85 51 68 85 51 68 85 51 68 85 51 68 85 51 68 85 51 68 85 51 68 85 51 68 85 51 68 85 51 68 85 51 68 85 51 68 85 51 68 85 51 68 85 51 68 85 51 68 85 51 68 85 51 68 85 51 68 85 51 68 85 51 68 85 51 68 85 51 68 85 51 68 85 51 68 85 51 68 85 51 68 85 51 68 85 51 68 85 51 68 85 51 68 85 51 68 85 51 68 85 51 68 85 51 68 85
51 68 85 51 68 85 51 68 85 51 68 85 85 102 119 85 102 119 85 102 119 85 102 119 85 102 119 85 102 119 85 102 119 85 102 119 85 102 119 85 102 119 85 102 119 85 102 119 85 102 119 85 102 119 85 102 119 85 102 119 85 102 119 85 102 119 85 102 119 85 102 119 85 102 119 85 102 119 85 102 119 85 102 119 85 102 119 85 102 119 85 102 119 85 102 119 85 102 119 85 102 119 85 102 119 85 102 119 85 102 119 85 102 119 85 102 119 85 102 119 85 102 119 85 102 119 85 102 119 85 102 119 85 102 119 85 102 119 85 102 119 85 102 119 85 102 119 85 102 119 85 102 119 85 102 119 85 102 119 85 102 119 85 102 119 85 102 119 85 102 119 85 102 119 85 102 119 85 102 119 85 102 119 85 102 119 85 102 119 85 102 119 85 102 119 85 102 119 85 102 119 85 102 119 85 102 119 85 102 119 85 102 119 85 102 119 85 102 119 85 102 119 51 68 85 51 68 85 51 68 85 51 68 85 0 51 102 0 51 102 0 51 102 0 51 102 0 51 102 0 51 102 0 51 102 0 51 102 0 51 102 0 51 102 17 17 34 17 17 34 17 17 34 17 17 34 17 17 34 17 17 34 17 17 34 17 17 34 17 17 34 17 17 34 17 17 34 17 17 34 17 17 34 17 17 34 17 17 34 17 17 34 17 17 34 17 17 34 17 17 34 17 17 34 17 17 34 17 17 34 17 17 34 17 17 34 17 17 34 17 17 34 17 17 34 17 17 34 17 17 34 17 17 34 17 17 34 17 17 34 17 17 34 17 17 34 17 17 34 17 17 34 17 17 34 17 17 34 17 17 34 17 17 34 17 17 34 17 17 34 17 17 34 17 17 34 17 17 34 17 17 34 17 17 34 17 17 34 17 17 34 17 17 34 17 17 34 17 17 34 17 17 34 17 17 34 17 17 34 17 17 34 17 17 34 17 17 34 17 17 34 17 17 34 17 17 34 17 17 34 17 17 34 17 17 34 17 17 34 17 17 34 17 17 34 17 17 34 17 17 34 17 17 34 17 17 34 17 17 34 17 17 34 17 17 34 17 17 34 17 17 34 17 17 34 17 17 34 17 17 34 17 17 34 17 17 34 17 17 34 17 17 34 17 17 34 17 17 34 17 17 34 17 17 34 17 17 34 17 17 34 17 17 34 17 17 34 17 17 34 17 17 34 17 17 34 17 17 34 17 17 34 17 17 34 17 17 34 17 17 34 17 17 34 17 17 34 17 17 34 17 17 34 17 17 34 17 17 34 17 17 34 17 17 34 17 17 34 17 17 34 17 17 34 17 17 34 17 17 34 17 17 34 17 17 34 17 17 34 17 17 34 17 17 34 17 17 34 17 17 34 17 17 34 17 17 34 17 17 34 17 17 34 17 17 34 17 17 34 17 17 34 17 17 34 17 17 34 17 17 34 17 17 34 17 17 34 17 17 34 17 17 34 17 17 34 17 17 34 17 17 34 17 17 34 17 17 34 17 17 34 17 17 34 17 17 34 17 17 34 17 17 34 17 17 34 17 17 34 17 17 34 17 17 34 17 17 34 17 17 34 17 17 34 51 68 85 51 68 85 51 68 85 51 68 85 51 68 85 51 68 85 51 68 85 51 68 85 51 68 85 51 68 85 51 68 85 51 68 85 51 68 85 51 68 85 51 68 85 51 68 85 51 68 85 51 68 85 51 68 85 51 68 85 51 68 85 51 68 85 51 68 85 51 68 85 51 68 85 51 68 85 51 68 85 51 68 85 51 68 85 51 68 85 51 68 85 51 68 85 51 68 85 51 68 85 51 68 85 51 68 85 51 68 85 51 68 85 51 68 85 51 68 85 51 68 85 51 68 85 51 68 85 51 68 85 51 68 85 51 68 85 51 68 85 51 68 85 51 68 85 51 68 85 51 68 85 51 68 85 51 68 85 51 68 85 51 68 85 51 68 85 51 68 85 51 68 85 51 68 85 51 68 85 51 68 85 51 68 85 51 68 85 51 68 85 51 68 85 51 68 85 51 68 85 51 68 85 51 68 85 51 68 85 51 68 85 51 68 85 51 68 85 51 68 85 51 68 85 51 68 85 51 68 85 51 68 85 51 68 85 51 68 85 51 68 85 51 68 85
51 68 85 51 68 85 51 68 85 51 68 85 85 102 119 85 102 119 85 102 119 85 102 119 85 102 119 85 102 119 85 102 119 85 102 119 85 102 119 85 102 119 85 102 119 85 102 119 85 102 119 85 102 119 85 102 119 85 102 119 85 102 119 85 102 119 85 102 119 85 102 119 85 102 119 85 102 119 85 102 119 85 102 119 85 102 119 85 102 119 85 102 119 85 102 119 85 102 119 85 102 119 85 102 119 85 102 119 85 102 119 85 102 119 85 102 119 85 102 119 85 102 119 85 102 119 85 102 119 85 102 119 85 102 119 85 102 119 85 102 119 85 102 119 85 102 119 85 102 119 85 102 119 85 102 119 85 102 119 85 102 119 85 102 119 85 102 119 85 102 119 85 102 119 85 102 119 85 102 119 85 102 119 85 102 119 85 102 119 85 102 119 85 102 119 85 102 119 85 102 119 85 102 119 85 102 119 85 102 119 85 102 119 85 102 119 85 102 119 85 102 119 51 68 85 51 68 85 51 68 85 51 68 85 0 51 102 0 51 102 0 170 221 0 170 221 0 170 221 0 170 221 0 170 221 0 170 221 0 51 102 0 51 102 17 17 34 17 17 34 17 17 34 17 17 34 17 17 34 17 17 34 17 17 34 17 17 34 17 17 34 17 17 34 17 17 34 17 17 34 17 17 34 17 17 34 17 17 34 17 17 34 17 17 34 17 17 34 17 17 34 17 17 34 17 17 34 17 17 34 17 17 34 17 17 34 17 17 34 17 17 34 17 17 34 17 17 34 17 17 34 17 17 34 17 17 34 17 17 34 17 17 34 17 17 34 17 17 34 17 17 34 17 17 34 17 17 34 17 17 34 17 17 34 17 17 34 17 17 34 17 17 34 17 17 34 17 17 34 17 17 34 17 17 34 17 17 34 17 17 34 17 17 34 17 17 34 17 17 34 17 17 34 17 17 34 17 17 34 17 17 34 17 17 34 17 17 34 17 17 34 17 17 34 17 17 34 17 17 34 17 17 34 17 17 34 17 17 34 17 17 34 17 17 34 17 17 34 17 17 34 17 17 34 17 17 34 17 17 34 17 17 34 17 17 34 17 17 34 17 17 34 17 17 34 17 17 34 17 17 34 17 17 34 17 17 34 17 17 34 17 17 34 17 17 34 17 17 34 17 17 34 17 17 34 17 17 34 17 17 34 17 17 34 17 17 34 17 17 34 17 17 34 17 17 34 17 17 34 17 17 34 17 17 34 17 17 34 17 17 34 17 17 34 17 17 34 17 17 34 17 17 34 17 17 34 17 17 34 17 17 34 17 17 34 17 17 34 17 17 34 17 17 34 17 17 34 17 17 34 17 17 34 17 17 34 17 17 34 17 17 34 17 17 34 17 17 34 17 17 34 17 17 34 17 17 34 17 17 34 17 17 34 17 17 34 17 17 34 17 17 34 17 17 34 17 17 34 17 17 34 17 17 34 17 17 34 17 17 34 17 17 34 17 17 34 17 17 34 17 17 34 17 17 34 17 17 34 17 17 34 17 17 34 17 17 34 17 17 34 17 17 34 17 17 34 17 17 34 17 17 34 17 17 34 17 17 34 17 17 34 17 17 34 51 68 85 51 68 85 51 68 85 51 68 85 51 68 85 51 68 85 51 68 85 51 68 85 51 68 85 51 68 85 51 68 85 51 68 85 51 68 85 51 68 85 51 68 85 51 68 85 51 68 85 51 68 85 51 68 85 51 68 85 51 68 85 51 68 85 51 68 85 51 68 85 51 68 85 51 68 85 51 68 85 51 68 85 51 68 85 51 68 85 51 68 85 51 68 85 51 68 85 51 68 85 51 68 85 51 68 85 51 68 85 51 68 85 51 68 85 51 68 85 51 68 85 51 68 85 51 68 85 51 68 85 51 68 85 51 68 85 51 68 85 51 68 85 51 68 85 51 68 85 51 68 85 51 68 85 51 68 85 51 68 85 51 68 85 51 68 85 51 68 85 51 68 85 51 68 85 51 68 85 51 68 85 51 68 85 51 68 85 51 68 85 51 68 85 51 68 85 51 68 85 51 68 85 51 68 85 51 68 85 51 68 85 51 68 85 51 68 85 51 68 85 51 68 85 51 68 85 51 68 85 51 68 85 51 68 85 51 68 85 51 68 85 51 68 85
51 68 85 51 68 85 51 68 85 51 68 85 85 102 119 85 102 119 85 102 119 85 102 119 85 102 119 85 102 119 85 102 119 85 102 119 85 102 119 85 102 119 85 102 119 85 102 119 85 102 119 85 102 119 85 102 119 85 102 119 85 102 119 85 102 119 85 102 119 85 102 119 85 102 119 85 102 119 85 102 119 85 102 119 85 102 119 85 102 119 85 102 119 85 102 119 85 102 119 85 102 119 85 102 119 85 102 119 85 102 119 85 102 119 85 102 119 85 102 119 85 102 119 85 102 119 85 102 119 85 102 119 85 102 119 85 102 119 85 102 119 85 102 119 85 102 119 85 102 119 85 102 119 85 102 119 85 102 119 85 102 119 85 102 119 85 102 119 85 102 119 85 102 119 85 102 119 85 102 119 85 102 119 85 102 119 85 102 119 85 102 119 85 102 119 85 102 119 85 102 119 85 102 119 85 102 119 85 102 119 85 102 119 85 102 119 85 102 119 85 102 119 51 68 85 51 68 85 51 68 85 51 68 85 0 51 102 0 51 102 0 170 221 0 170 221 0 170 221 0 170 221 0 170 221 0 170 221 0 51 102 0 51 102 17 17 34 17 17 34 17 17 34 17 17 34 17 17 34 17 17 34 17 17 34 17 17 34 17 17 34 17 17 34 17 17 34 17 17 34 17 17 34 17 17 34 17 17 34 17 17 34 17 17 34 17 17 34 17 17 34 17 17 34 17 17 34 17 17 34 17 17 34 17 17 34 17 17 34 17 17 34 17 17 34 17 17 34 17 17 34 17 17 34 17 17 34 17 17 34 17 17 34 17 17 34 17 17 34 17 17 34 17 17 34 17 17 34 17 17 34 17 17 34 17 17 34 17 17 34 17 17 34 17 17 34 17 17 34 17 17 34 17 17 34 17 17 34 17 17 34 17 17 34 17 17 34 17 17 34 17 17 34 17 17 34 17 17 34 17 17 34 17 17 34 17 17 34 17 17 34 17 17 34 17 17 34 17 17 34 17 17 34 17 17 34 17 17 34 17 17 34 17 17 34 17 17 34 17 17 34 17 17 34 17 17 34 17 17 34 17 17 34 17 17 34 17 17 34 17 17 34 17 17 34 17 17 34 17 17 34 17 17 34 17 17 34 17 17 34 17 17 34 17 17 34 17 17 34 17 17 34 17 17 34 17 17 34 17 17 34 17 17 34 17 17 34 17 17 34 17 17 34 17 17 34 17 17 34 17 17 34 17 17 34 17 17 34 17 17 34 17 17 34 17 17 34 17 17 34 17 17 34 17 17 34 17 17 34 17 17 34 17 17 34 17 17 34 17 17 34 17 17 34 17 17 34 17 17 34 17 17 34 17 17 34 17 17 34 17 17 34 17 17 34 17 17 34 17 17 34 17 17 34 17 17 34 17 17 34 17 17 34 17 17 34 17 17 34 17 17 34 17 17 34 17 17 34 17 17 34 17 17 34 17 17 34 17 17 34 17 17 34 17 17 34 17 17 34 17 17 34 17 17 34 17 17 34 17 17 34 17 17 34 17 17 34 17 17 34 17 17 34 17 17 34 17 17 34 17 17 34 17 17 34 17 17 34 17 17 34 17 17 34 51 68 85 51 68 85 51 68 85 51 68 85 51 68 85 51 68 85 51 68 85 51 68 85 85 102 119 85 102 119 85 102 119 85 102 119 85 102 119 85 102 119 85 102 119 85 102 119 85 102 119 85 102 119 85 102 119 85 102 119 85 102 119 85 102 119 85 102 119 85 102 119 85 102 119 85 102 119 85 102 119 85 102 119 85 102 119 85 102 119 85 102 119 85 102 119 85 102 119 85 102 119 85 102 119 85 102 119 85 102 119 85 102 119 85 102 119 85 102 119 85 102 119 85 102 119 85 102 119 85 102 119 85 102 119 85 102 119 85 102 119 85 102 119 85 102 119 85 102 119 85 102 119 85 102 119 85 102 119 85 102 119 85 102 119 85 102 119 85 102 119 85 102 119 85 102 119 85 102 119 85 102 119 85 102 119 85 102 119 85 102 119 85 102 119 85 102 119 85 102 119 85 102 119 85 102 119 85 102 119 85 102 119 85 102 119 85 102 119 85 102 119 85 102 119 85 102 119 85 102 119 85 102 119 51 68 85 51 68 85 51 68 85 51 68 85
51 68 85 51 68 85 51 68 85 51 68 85 85 102 119 85 102 119 85 102 119 85 102 119 85 102 119 85 102 119 85 102 119 85 102 119 85 102 119 85 102 119 85 102 119 85 102 119 85 102 119 85 102 119 85 102 119 85 102 119 85 102 119 85 102 119 85 102 119 85 102 119 85 102 119 85 102 119 85 102 119 85 102 119 85 102 119 85 102 119 85 102 119 85 102 119 85 102 119 85 102 119 85 102 119 85 102 119 85 102 119 85 102 119 85 102 119 85 102 119 85 102 119 85 102 119 85 102 119 85 102 119 85 102 119 85 102 119 85 102 119 85 102 119 85 102 119 85 102 119 85 102 119 85 102 119 85 102 119 85 102 119 85 102 119 85 102 119 85 102 119 85 102 119 85 102 119 85 102 119 85 102 119 85 102 119 85 102 119 85 102 119 85 102 119 85 102 119 85 102 119 85 102 119 85 102 119 85 102 119 85 102 119 85 102 119 85 102 119 85 102 119 51 68 85 51 68 85 51 68 85 51 68 85 0 51 102 0 51 102 0 51 102 0 51 102 0 51 102 0 51 102 0 51 102 0 51 102 0 51 102 0 51 102 17 17 34 17 17 34 17 17 34 17 17 34 17 17 34 17 17 34 17 17 34 17 17 34 17 17 34 17 17 34 17 17 34 17 17 34 17 17 34 17 17 34 17 17 34 17 17 34 17 17 34 17 17 34 17 17 34 17 17 34 17 17 34 17 17 34 17 17 34 17 17 34 17 17 34 17 17 34 17 17 34 17 17 34 17 17 34 17 17 34 17 17 34 17 17 34 17 17 34 17 17 34 17 17 34 17 17 34 17 17 34 17 17 34 17 17 34 17 17 34 17 17 34 17 17 34 17 17 34 17 17 34 17 17 34 17 17 34 17 17 34 17 17 34 17 17 34 17 17 34 17 17 34 17 17 34 17 17 34 17 17 34 17 17 34 17 17 34 17 17 34 17 17 34 17 17 34 17 17 34 17 17 34 17 17 34 17 17 34 17 17 34 17 17 34 17 17 34 17 17 34 17 17 34 17 17 34 17 17 34 17 17 34 17 17 34 17 17 34 17 17 34 17 17 34 17 17 34 17 17 34 17 17 34 17 17 34 17 17 34 17 17 34 17 17 34 17 17 34 17 17 34 17 17 34 17 17 34 17 17 34 17 17 34 17 17 34 17 17 34 17 17 34 17 17 34 17 17 34 17 17 34 17 17 34 17 17 34 17 17 34 17 17 34 17 17 34 17 17 34 17 17 34 17 17 34 17 17 34 17 17 34 17 17 34 17 17 34 17 17 34 17 17 34 17 17 34 17 17 34 17 17 34 17 17 34 17 17 34 17 17 34 17 17 34 17 17 34 17 17 34 17 17 34 17 17 34 17 17 34 17 17 34 17 17 34 17 17 34 17 17 34 17 17 34 17 17 34 17 17 34 17 17 34 17 17 34 17 17 34 17 17 34 17 17 34 17 17 34 17 17 34 17 17 34 17 17 34 17 17 34 17 17 34 17 17 34 17 17 34 17 17 34 17 17 34 17 17 34 17 17 34 17 17 34 17 17 34 17 17 34 17 17 34 17 17 34 17 17 34 51 68 85 51 68 85 51 68 85 51 68 85 51 68 85 51 68 85 51 68 85 51 68 85 85 102 119 85 102 119 85 102 119 85 102 119 85 102 119 85 102 119 85 102 119 85 102 119 85 102 119 85 102 119 85 102 119 85 102 119 85 102 119 85 102 119 85 102 119 85 102 119 85 102 119 85 102 119 85 102 119 85 102 119 85 102 119 85 102 119 85 102 119 85 102 119 85 102 119 85 102 119 85 102 119 85 102 119 85 102 119 85 102 119 85 102 119 85 102 119 85 102 119 85 102 119 85 102 119 85 102 119 85 102 119 85 102 119 85 102 119 85 102 119 85 102 119 85 102 119 85 102 119 85 102 119 85 102 119 85 102 119 85 102 119 85 102 119 85 102 119 85 102 119 85 102 119 85 102 119 85 102 119 85 102 119 85 102 119 85 102 119 85 102 119 85 102 119 85 102 119 85 102 119 85 102 119 85 102 119 85 102 119 85 102 119 85 102 119 85 102 119 85 102 119 85 102 119 85 102 119 85 102 119 51 68 85 51 68 85 51 68 85 51 68 85
51 68 85 51 68 85 51 68 85 51 68 85 85 102 119 85 102 119 85 102 119 85 102 119 85 102 119 85 102 119 85 102 119 85 102 119 85 102 119 85 102 119 85 102 119 85 102 119 85 102 119 85 102 119 85 102 119 85 102 119 85 102 119 85 102 119 85 102 119 85 102 119 85 102 119 85 102 119 85 102 119 85 102 119 85 102 119 85 102 119 85 102 119 85 102 119 85 102 119 85 102 119 85 102 119 85 102 119 85 102 119 85 102 119 85 102 119 85 102 119 85 102 119 85 102 119 85 102 119 85 102 119 85 102 119 85 102 119 85 102 119 85 102 119 85 102 119 85 102 119 85 102 119 85 102 119 85 102 119 85 102 119 85 102 119 85 102 119 85 102 119 85 102 119 85 102 119 85 102 119 85 102 119 85 102 119 85 102 119 85 102 119 85 102 119 85 102 119 85 102 119 85 102 119 85 102 119 85 102 119 85 102 119 85 102 119 85 102 119 85 102 119 51 68 85 51 68 85 51 68 85 51 68 85 51 68 85 51 68 85 51 68 85 51 68 85 17 17 34 17 17 34 17 17 34 17 17 34 17 17 34 17 17 34 17 17 34 17 17 34 17 17 34 17 17 34 17 17 34 17 17 34 17 17 34 17 17 34 17 17 34 17 17 34 17 17 34 17 17 34 17 17 34 17 17 34 17 17 34 17 17 34 17 17 34 17 17 34 17 17 34 17 17 34 17 17 34 17 17 34 17 17 34 17 17 34 17 17 34 17 17 34 17 17 34 17 17 34 17 17 34 17 17 34 17 17 34 17 17 34 17 17 34 17 17 34 17 17 34 17 17 34 17 17 34 17 17 34 17 17 34 17 17 34 17 17 34 17 17 34 17 17 34 17 17 34 17 17 34 17 17 34 17 17 34 17 17 34 17 17 34 17 17 34 17 17 34 17 17 34 17 17 34 17 17 34 17 17 34 17 17 34 17 17 34 17 17 34 17 17 34 17 17 34 17 17 34 17 17 34 17 17 34 17 17 34 17 17 34 17 17 34 17 17 34 17 17 34 17 17 34 17 17 34 17 17 34 17 17 34 17 17 34 17 17 34 17 17 34 17 17 34 17 17 34 17 17 34 17 17 34 17 17 34 17 17 34 17 17 34 17 17 34 17 17 34 17 17 34 17 17 34 17 17 34 17 17 34 17 17 34 17 17 34 17 17 34 17 17 34 17 17 34 17 17 34 17 17 34 17 17 34 17 17 34 17 17 34 17 17 34 17 17 34 17 17 34 17 17 34 17 17 34 17 17 34 17 17 34 17 17 34 17 17 34 17 17 34 17 17 34 17 17 34 17 17 34 17 17 34 17 17 34 17 17 34 17 17 34 17 17 34 17 17 34 17 17 34 17 17 34 17 17 34 17 17 34 17 17 34 17 17 34 17 17 34 17 17 34 17 17 34 17 17 34 17 17 34 17 17 34 17 17 34 17 17 34 17 17 34 17 17 34 17 17 34 17 17 34 17 17 34 17 17 34 17 17 34 17 17 34 17 17 34 17 17 34 17 17 34 17 17 34 17 17 34 17 17 34 17 17 34 17 17 34 17 17 34 17 17 34 17 17 34 51 68 85 51 68 85 51 68 85 51 68 85 51 68 85 51 68 85 51 68 85 51 68 85 85 102 119 85 102 119 85 102 119 85 102 119 85 102 119 85 102 119 85 102 119 85 102 119 85 102 119 85 102 119 85 102 119 85 102 119 85 102 119 85 102 119 85 102 119 85 102 119 85 102 119 85 102 119 85 102 119 85 102 119 85 102 119 85 102 119 85 102 119 85 102 119 85 102 119 85 102 119 85 102 119 85 102 119 85 102 119 85 102 119 85 102 119 85 102 119 85 102 119 85 102 119 85 102 119 85 102 119 85 102 119 85 102 119 85 102 119 85 102 119 85 102 119 85 102 119 85 102 119 85 102 119 85 102 119 85 102 119 85 102 119 85 102 119 85 102 119 85 102 119 85 102 119 85 102 119 85 102 119 85 102 119 85 102 119 85 102 119 85 102 119 85 102 119 85 102 119 85 102 119 85 102 119 85 102 119 85 102 119 85 102 119 85 102 119 85 102 119 85 102 119 85 102 119 85 102 119 85 102 119 51 68 85 51 68 85 51 68 85 51 68 85
51 68 85 51 68 85 51 68 85 51 68 85 85 102 119 85 102 119 85 102 119 85 102 119 85 102 119 85 102 119 85 102 119 85 102 119 85 102 119 85 102 119 85 102 119 85 102 119 85 102 119 85 102 119 85 102 119 85 102 119 85 102 119 85 102 119 85 102 119 85 102 119 85 102 119 85 102 119 85 102 119 85 102 119 85 102 119 85 102 119 85 102 119 85 102 119 85 102 119 85 102 119 85 102 119 85 102 119 85 102 119 85 102 119 85 102 119 85 102 119 85 102 119 85 102 119 85 102 119 85 102 119 85 102 119 85 102 119 85 102 119 85 102 119 85 102 119 85 102 119 85 102 119 85 102 119 85 102 119 85 102 119 85 102 119 85 102 119 85 102 119 85 102 119 85 102 119 85 102 119 85 102 119 85 102 119 85 102 119 85 102 119 85 102 119 85 102 119 85 102 119 85 102 119 85 102 119 85 102 119 85 102 119 85 102 119 85 102 119 85 102 119 51 68 85 51 68 85 51 68 85 51 68 85 51 68 85 51 68 85 51 68 85 51 68 85 17 17 34 17 17 34 17 17 34 17 17 34 17 17 34 17 17 34 17 17 34 17 17 34 17 17 34 17 17 34 17 17 34 17 17 34 17 17 34 17 17 34 17 17 34 17 17 34 17 17 34 17 17 34 17 17 34 17 17 34 17 17 34 17 17 34 17 17 34 17 17 34 17 17 34 17 17 34 17 17 34 17 17 34 17 17 34 17 17 34 17 17 34 17 17 34 17 17 34 17 17 34 17 17 34 17 17 34 17 17 34 17 17 34 17 17 34 17 17 34 17 17 34 17 17 34 17 17 34 17 17 34 17 17 34 17 17 34 17 17 34 17 17 34 17 17 34 17 17 34 17 17 34 17 17 34 17 17 34 17 17 34 17 17 34 17 17 34 17 17 34 17 17 34 17 17 34 17 17 34 17 17 34 17 17 34 17 17 34 17 17 34 17 17 34 17 17 34 17 17 34 17 17 34 17 17 34 17 17 34 17 17 34 17 17 34 17 17 34 17 17 34 17 17 34 17 17 34 17 17 34 17 17 34 17 17 34 17 17 34 17 17 34 17 17 34 17 17 34 17 17 34 17 17 34 17 17 34 17 17 34 17 17 34 17 17 34 17 17 34 17 17 34 17 17 34 17 17 34 17 17 34 17 17 34 17 17 34 17 17 34 17 17 34 17 17 34 17 17 34 17 17 34 17 17 34 17 17 34 17 17 34 17 17 34 17 17 34 17 17 34 17 17 34 17 17 34 17 17 34 17 17 34 17 17 34 17 17 34 17 17 34 17 17 34 17 17 34 17 17 34 17 17 34 17 17 34 17 17 34 17 17 34 17 17 34 17 17 34 17 17 34 17 17 34 17 17 34 17 17 34 17 17 34 17 17 34 17 17 34 17 17 34 17 17 34 17 17 34 17 17 34 17 17 34 17 17 34 17 17 34 17 17 34 17 17 34 17 17 34 17 17 34 17 17 34 17 17 34 17 17 34 17 17 34 17 17 34 17 17 34 17 17 34 17 17 34 17 17 34 17 17 34 17 17 34 17 17 34 17 17 34 17 17 34 17 17 34 51 68 85 51 68 85 51 68 85 51 68 85 51 68 85 51 68 85 51 68 85 51 68 85 85 102 119 85 102 119 85 102 119 85 102 119 85 102 119 85 102 119 85 102 119 85 102 119 85 102 119 85 102 119 85 102 119 85 102 119 85 102 119 85 102 119 85 102 119 85 102 119 85 102 119 85 102 119 85 102 119 85 102 119 85 102 119 85 102 119 85 102 119 85 102 119 85 102 119 85 102 119 85 102 119 85 102 119 85 102 119 85 102 119 85 102 119 85 102 119 85 102 119 85 102 119 85 102 119 85 102 119 85 102 119 85 102 119 85 102 119 85 102 119 85 102 119 85 102 119 85 102 119 85 102 119 85 102 119 85 102 119 85 102 119 85 102 119 85 102 119 85 102 119 85 102 119 85 102 119 85 102 119 85 102 119 85 102 119 85 102 119 85 102 119 85 102 119 85 102 119 85 102 119 85 102 119 85 102 119 85 102 119 85 102 119 85 102 119 85 102 119 85 102 119 85 102 119 85 102 119 85 102 119 51 68 85 51 68 85 51 68 85 51 68 85
51 68 85 51 68 85 51 68 85 51 68 85 85 102 119 85 102 119 85 102 119 85 102 119 85 102 119 85 102 119 85 102 119 85 102 119 85 102 119 85 102 119 85 102 119 85 102 119 85 102 119 85 102 119 85 102 119 85 102 119 85 102 119 85 102 119 85 102 119 85 102 119 85 102 119 85 102 119 85 102 119 85 102 119 85 102 119 85 102 119 85 102 119 85 102 119 85 102 119 85 102 119 85 102 119 85 102 119 85 102 119 85 102 119 85 102 119 85 102 119 85 102 119 85 102 119 85 102 119 85 102 119 85 102 119 85 102 119 85 102 119 85 102 119 85 102 119 85 102 119 85 102 119 85 102 119 85 102 119 85 102 119 85 102 119 85 102 119 85 102 119 85 102 119 85 102 119 85 102 119 85 102 119 85 102 119 85 102 119 85 102 119 85 102 119 85 102 119 85 102 119 85 102 119 85 102 119 85 102 119 85 102 119 85 102 119 85 102 119 85 102 119 51 68 85 51 68 85 51 68 85 51 68 85 51 68 85 51 68 85 51 68 85 51 68 85 17 17 34 17 17 34 17 17 34 17 17 34 17 17 34 17 17 34 17 17 34 17 17 34 17 17 34 17 17 34 17 17 34 17 17 34 17 17 34 17 17 34 17 17 34 17 17 34 17 17 34 17 17 34 17 17 34 17 17 34 17 17 34 17 17 34 17 17 34 17 17 34 17 17 34 17 17 34 17 17 34 17 17 34 17 17 34 17 17 34 17 17 34 17 17 34 17 17 34 17 17 34 17 17 34 17 17 34 17 17 34 17 17 34 17 17 34 17 17 34 17 17 34 17 17 34 17 17 34 17 17 34 17 17 34 17 17 34 17 17 34 17 17 34 17 17 34 17 17 34 17 17 34 17 17 34 17 17 34 17 17 34 17 17 34 17 17 34 17 17 34 17 17 34 17 17 34 17 17 34 17 17 34 17 17 34 17 17 34 17 17 34 17 17 34 17 17 34 17 17 34 17 17 34 17 17 34 17 17 34 17 17 34 17 17 34 17 17 34 17 17 34 17 17 34 17 17 34 17 17 34 17 17 34 17 17 34 17 17 34 17 17 34 17 17 34 17 17 34 17 17 34 17 17 34 17 17 34 17 17 34 17 17 34 17 17 34 17 17 34 17 17 34 17 17 34 17 17 34 17 17 34 17 17 34 17 17 34 17 17 34 17 17 34 17 17 34 17 17 34 17 17 34 17 17 34 17 17 34 17 17 34 17 17 34 17 17 34 17 17 34 17 17 34 17 17 34 17 17 34 17 17 34 17 17 34 17 17 34 17 17 34 17 17 34 17 17 34 17 17 34 17 17 34 17 17 34 17 17 34 17 17 34 17 17 34 17 17 34 17 17 34 17 17 34 17 17 34 17 17 34 17 17 34 17 17 34 17 17 34 17 17 34 17 17 34 17 17 34 17 17 34 17 17 34 17 17 34 17 17 34 17 17 34 17 17 34 17 17 34 17 17 34 17 17 34 17 17 34 17 17 34 17 17 34 17 17 34 17 17 34 17 17 34 17 17 34 17 17 34 17 17 34 17 17 34 17 17 34 17 17 34 17 17 34 17 17 34 51 68 85 51 68 85 51 68 85 51 68 85 51 68 85 51 68 85 51 68 85 51 68 85 85 102 119 85 102 119 85 102 119 85 102 119 85 102 119 85 102 119 85 102 119 85 102 119 85 102 119 85 102 119 85 102 119 85 102 119 85 102 119 85 102 119 85 102 119 85 102 119 85 102 119 85 102 119 85 102 119 85 102 119 85 102 119 85 102 119 85 102 119 85 102 119 85 102 119 85 102 119 85 102 119 85 102 119 85 102 119 85 102 119 85 102 119 85 102 119 85 102 119 85 102 119 85 102 119 85 102 119 85 102 119 85 102 119 85 102 119 85 102 119 85 102 119 85 102 119 85 102 119 85 102 119 85 102 119 85 102 119 85 102 119 85 102 119 85 102 119 85 102 119 85 102 119 85 102 119 85 102 119 85 102 119 85 102 119 85 102 119 85 102 119 85 102 119 85 102 119 85 102 119 85 102 119 85 102 119 85 102 119 85 102 119 85 102 119 85 102 119 85 102 119 85 102 119 85 102 119 85 102 119 51 68 85 51 68 85 51 68 85 51 68 85
51 68 85 51 68 85 51 68 85 51 68 85 85 102 119 85 102 119 85 102 119 85 102 119 85 102 119 85 102 119 85 102 119 85 102 119 85 102 119 85 102 119 85 102 119 85 102 119 85 102 119 85 102 119 85 102 119 85 102 119 85 102 119 85 102 119 85 102 119 85 102 119 85 102 119 85 102 119 85 102 119 85 102 119 85 102 119 85 102 119 85 102 119 85 102 119 85 102 119 85 102 119 85 102 119 85 102 119 85 102 119 85 102 119 85 102 119 85 102 119 85 102 119 85 102 119 85 102 119 85 102 119 85 102 119 85 102 119 85 102 119 85 102 119 85 102 119 85 102 119 85 102 119 85 102 119 85 102 119 85 102 119 85 102 119 85 102 119 85 102 119 85 102 119 85 102 119 85 102 119 85 102 119 85 102 119 85 102 119 85 102 119 85 102 119 85 102 119 85 102 119 85 102 119 85 102 119 85 102 119 85 102 119 85 102 119 85 102 119 85 102 119 51 68 85 51 68 85 51 68 85 51 68 85 51 68 85 51 68 85 51 68 85 51 68 85 17 17 34 17 17 34 17 17 34 17 17 34 17 17 34 17 17 34 17 17 34 17 17 34 17 17 34 17 17 34 17 17 34 17 17 34 17 17 34 17 17 34 17 17 34 17 17 34 17 17 34 17 17 34 17 17 34 17 17 34 17 17 34 17 17 34 17 17 34 17 17 34 17 17 34 17 17 34 17 17 34 17 17 34 17 17 34 17 17 34 17 17 34 17 17 34 17 17 34 17 17 34 17 17 34 17 17 34 17 17 34 17 17 34 17 17 34 17 17 34 17 17 34 17 17 34 17 17 34 17 17 34 17 17 34 17 17 34 17 17 34 17 17 34 17 17 34 17 17 34 17 17 34 17 17 34 17 17 34 17 17 34 17 17 34 17 17 34 17 17 34 17 17 34 17 17 34 17 17 34 17 17 34 17 17 34 17 17 34 17 17 34 17 17 34 17 17 34 17 17 34 17 17 34 17 17 34 17 17 34 17 17 34 17 17 34 17 17 34 17 17 34 17 17 34 17 17 34 17 17 34 17 17 34 17 17 34 17 17 34 17 17 34 17 17 34 17 17 34 17 17 34 17 17 34 17 17 34 17 17 34 17 17 34 17 17 34 17 17 34 17 17 34 17 17 34 17 17 34 17 17 34 17 17 34 17 17 34 17 17 34 17 17 34 17 17 34 17 17 34 17 17 34 17 17 34 17 17 34 17 17 34 17 17 34 17 17 34 17 17 34 17 17 34 17 17 34 17 17 34 17 17 34 17 17 34 17 17 34 17 17 34 17 17 34 17 17 34 17 17 34 17 17 34 17 17 34 17 17 34 17 17 34 17 17 34 17 17 34 17 17 34 17 17 34 17 17 34 17 17 34 17 17 34 17 17 34 17 17 34 17 17 34 17 17 34 17 17 34 17 17 34 17 17 34 17 17 34 17 17 34 17 17 34 17 17 34 17 17 34 17 17 34 17 17 34 17 17 34 17 17 34 17 17 34 17 17 34 17 17 34 17 17 34 17 17 34 17 17 34 17 17 34 17 17 34 17 17 34 17 17 34 17 17 34 17 17 34 51 68 85 51 68 85 51 68 85 51 68 85 51 68 85 51 68 85 51 68 85 51 68 85 85 102 119 85 102 119 85 102 119 85 102 119 85 102 119 85 102 119 85 102 119 85 102 119 85 102 119 85 102 119 85 102 119 85 102 119 85 102 119 85 102 119 85 102 119 85 102 119 85 102 119 85 102 119 85 102 119 85 102 119 85 102 119 85 102 119 85 102 119 85 102 119 85 102 119 85 102 119 85 102 119 85 102 119 85 102 119 85 102 119 85 102 119 85 102 119 85 102 119 85 102 119 85 102 119 85 102 119 85 102 119 85 102 119 85 102 119 85 102 119 85 102 119 85 102 119 85 102 119 85 102 119 85 102 119 85 102 119 85 102 119 85 102 119 85 102 119 85 102 119 85 102 119 85 102 119 85 102 119 85 102 119 85 102 119 85 102 119 85 102 119 85 102 119 85 102 119 85 102 119 85 102 119 85 102 119 85 102 119 85 102 119 85 102 119 85 102 119 85 102 119 85 102 119 85 102 119 85 102 119 51 68 85 51 68 85 51 68 85 51 68 85
51 68 85 51 68 85 51 68 85 51 68 85 85 102 119 85 102 119 85 102 119 85 102 119 85 102 119 85 102 119 85 102 119 85 102 119 85 102 119 85 102 119 85 102 119 85 102 119 85 102 119 85 102 119 85 102 119 85 102 119 85 102 119 85 102 119 85 102 119 85 102 119 85 102 119 85 102 119 85 102 119 85 102 119 85 102 119 85 102 119 85 102 119 85 102 119 85 102 119 85 102 119 85 102 119 85 102 119 85 102 119 85 102 119 85 102 119 85 102 119 85 102 119 85 102 119 85 102 119 85 102 119 85 102 119 85 102 119 85 102 119 85 102 119 85 102 119 85 102 119 85 102 119 85 102 119 85 102 119 85 102 119 85 102 119 85 102 119 85 102 119 85 102 119 85 102 119 85 102 119 85 102 119 85 102 119 85 102 119 85 102 119 85 102 119 85 102 119 85 102 119 85 102 119 85 102 119 85 102 119 85 102 119 85 102 119 85 102 119 85 102 119 51 68 85 51 68 85 51 68 85 51 68 85 51 68 85 51 68 85 51 68 85 51 68 85 17 17 34 17 17 34 17 17 34 17 17 34 17 17 34 17 17 34 17 17 34 17 17 34 17 17 34 17 17 34 17 17 34 17 17 34 17 17 34 17 17 34 17 17 34 17 17 34 17 17 34 17 17 34 17 17 34 17 17 34 17 17 34 17 17 34 17 17 34 17 17 34 17 17 34 17 17 34 17 17 34 17 17 34 17 17 34 17 17 34 17 17 34 17 17 34 17 17 34 17 17 34 17 17 34 17 17 34 17 17 34 17 17 34 17 17 34 17 17 34 17 17 34 17 17 34 17 17 34 17 17 34 17 17 34 17 17 34 17 17 34 17 17 34 17 17 34 17 17 34 17 17 34 17 17 34 17 17 34 17 17 34 17 17 34 17 17 34 17 17 34 17 17 34 17 17 34 17 17 34 17 17 34 17 17 34 17 17 34 17 17 34 17 17 34 17 17 34 17 17 34 17 17 34 17 17 34 17 17 34 17 17 34 17 17 34 17 17 34 17 17 34 17 17 34 17 17 34 17 17 34 17 17 34 17 17 34 17 17 34 17 17 34 17 17 34 17 17 34 17 17 34 17 17 34 17 17 34 17 17 34 17 17 34 17 17 34 17 17 34 17 17 34 17 17 34 17 17 34 17 17 34 17 17 34 17 17 34 17 17 34 17 17 34 17 17 34 17 17 34 17 17 34 17 17 34 17 17 34 17 17 34 17 17 34 17 17 34 17 17 34 17 17 34 17 17 34 17 17 34 17 17 34 17 17 34 17 17 34 17 17 34 17 17 34 17 17 34 17 17 34 17 17 34 17 17 34 17 17 34 17 17 34 17 17 34 17 17 34 17 17 34 17 17 34 17 17 34 17 17 34 17 17 34 17 17 34 17 17 34 17 17 34 17 17 34 17 17 34 17 17 34 17 17 34 17 17 34 17 17 34 17 17 34 17 17 34 17 17 34 17 17 34 17 17 34 17 17 34 17 17 34 17 17 34 17 17 34 17 17 34 17 17 34 17 17 34 17 17 34 0 51 102 0 51 102 0 51 102 0 51 102 0 51 102 0 51 102 0 51 102 0 51 102 0 51 102 0 51 102 51 68 85 51 68 85 51 68 85 51 68 85 85 102 119 85 102 119 85 102 119 85 102 119 85 102 119 85 102 119 85 102 119 85 102 119 85 102 119 85 102 119 85 102 119 85 102 119 85 102 119 85 102 119 85 102 119 85 102 119 85 102 119 85 102 119 85 102 119 85 102 119 85 102 119 85 102 119 85 102 119 85 102 119 85 102 119 85 102 119 85 102 119 85 102 119 85 102 119 85 102 119 85 102 119 85 102 119 85 102 119 85 102 119 85 102 119 85 102 119 85 102 119 85 102 119 85 102 119 85 102 119 85 102 119 85 102 119 85 102 119 85 102 119 85 102 119 85 102 119 85 102 119 85 102 119 85 102 119 85 102 119 85 102 119 85 102 119 85 102 119 85 102 119 85 102 119 85 102 119 85 102 119 85 102 119 85 102 119 85 102 119 85 102 119 85 102 119 85 102 119 85 102 119 85 102 119 85 102 119 85 102 119 85 102 119 85 102 119 85 102 119 51 68 85 51 68 85 51 68 85 51 68 85
51 68 85 51 68 85 51 68 85 51 68 85 85 102 119 85 102 119 85 102 119 85 102 119 85 102 119 85 102 119 85 102 119 85 102 119 85 102 119 85 102 119 85 102 119 85 102 119 85 102 119 85 102 119 85 102 119 85 102 119 85 102 119 85 102 119 85 102 119 85 102 119 85 102 119 85 102 119 85 102 119 85 102 119 85 102 119 85 102 119 85 102 119 85 102 119 85 102 119 85 102 119 85 102 119 85 102 119 85 102 119 85 102 119 85 102 119 85 102 119 85 102 119 85 102 119 85 102 119 85 102 119 85 102 119 85 102 119 85 102 119 85 102 119 85 102 119 85 102 119 85 102 119 85 102 119 85 102 119 85 102 119 85 102 119 85 102 119 85 102 119 85 102 119 85 102 119 85 102 119 85 102 119 85 102 119 85 102 119 85 102 119 85 102 119 85 102 119 85 102 119 85 102 119 85 102 119 85 102 119 85 102 119 85 102 119 85 102 119 85 102 119 51 68 85 51 68 85 51 68 85 51 68 85 51 68 85 51 68 85 51 68 85 51 68 85 17 17 34 17 17 34 17 17 34 17 17 34 17 17 34 17 17 34 17 17 34 17 17 34 17 17 34 17 17 34 17 17 34 17 17 34 17 17 34 17 17 34 17 17 34 17 17 34 17 17 34 17 17 34 17 17 34 17 17 34 17 17 34 17 17 34 17 17 34 17 17 34 17 17 34 17 17 34 17 17 34 17 17 34 17 17 34 17 17 34 17 17 34 17 17 34 17 17 34 17 17 34 17 17 34 17 17 34 17 17 34 17 17 34 17 17 34 17 17 34 17 17 34 17 17 34 17 17 34 17 17 34 17 17 34 17 17 34 17 17 34 17 17 34 17 17 34 17 17 34 17 17 34 17 17 34 17 17 34 17 17 34 17 17 34 17 17 34 17 17 34 17 17 34 17 17 34 17 17 34 17 17 34 17 17 34 17 17 34 17 17 34 17 17 34 17 17 34 17 17 34 17 17 34 17 17 34 17 17 34 17 17 34 17 17 34 17 17 34 17 17 34 17 17 34 17 17 34 17 17 34 17 17 34 17 17 34 17 17 34 17 17 34 17 17 34 17 17 34 17 17 34 17 17 34 17 17 34 17 17 34 17 17 34 17 17 34 17 17 34 17 17 34 17 17 34 17 17 34 17 17 34 17 17 34 17 17 34 17 17 34 17 17 34 17 17 34 17 17 34 17 17 34 17 17 34 17 17 34 17 17 34 17 17 34 17 17 34 17 17 34 17 17 34 17 17 34 17 17 34 17 17 34 17 17 34 17 17 34 17 17 34 17 17 34 17 17 34 17 17 34 17 17 34 17 17 34 17 17 34 17 17 34 17 17 34 17 17 34 17 17 34 17 17 34 17 17 34 17 17 34 17 17 34 17 17 34 17 17 34 17 17 34 17 17 34 17 17 34 17 17 34 17 17 34 17 17 34 17 17 34 17 17 34 17 17 34 17 17 34 17 17 34 17 17 34 17 17 34 17 17 34 17 17 34 17 17 34 17 17 34 17 17 34 17 17 34 17 17 34 0 51 102 0 51 102 0 170 221 0 170 221 0 170 221 0 170 221 0 170 221 0 170 221 0 51 102 0 51 102 51 68 85 51 68 85 51 68 85 51 68 85 85 102 119 85 102 119 85 102 119 85 102 119 85 102 119 85 102 119 85 102 119 85 102 119 85 102 119 85 102 119 85 102 119 85 102 119 85 102 119 85 102 119 85 102 119 85 102 119 85 102 119 85 102 119 85 102 119 85 102 119 85 102 119 85 102 119 85 102 119 85 102 119 85 102 119 85 102 119 85 102 119 85 102 119 85 102 119 85 102 119 85 102 119 85 102 119 85 102 119 85 102 119 85 102 119 85 102 119 85 102 119 85 102 119 85 102 119 85 102 119 85 102 119 85 102 119 85 102 119 85 102 119 85 102 119 85 102 119 85 102 119 85 102 119 85 102 119 85 102 119 85 102 119 85 102 119 85 102 119 85 102 119 85 102 119 85 102 119 85 102 119 85 102 119 85 102 119 85 102 119 85 102 119 85 102 119 85 102 119 85 102 119 85 102 119 85 102 119 85 102 119 85 102 119 85 102 119 85 102 119 51 68 85 51 68 85 51 68 85 51 68 85
51 68 85 51 68 85 51 68 85 51 68 85 85 102 119 85 102 119 85 102 119 85 102 119 85 102 119 85 102 119 85 102 119 85 102 119 85 102 119 85 102 119 85 102 119 85 102 119 85 102 119 85 102 119 85 102 119 85 102 119 85 102 119 85 102 119 85 102 119 85 102 119 85 102 119 85 102 119 85 102 119 85 102 119 85 102 119 85 102 119 85 102 119 85 102 119 85 102 119 85 102 119 85 102 119 85 102 119 85 102 119 85 102 119 85 102 119 85 102 119 85 102 119 85 102 119 85 102 119 85 102 119 85 102 119 85 102 119 85 102 119 85 102 119 85 102 119 85 102 119 85 102 119 85 102 119 85 102 119 85 102 119 85 102 119 85 102 119 85 102 119 85 102 119 85 102 119 85 102 119 85 102 119 85 102 119 85 102 119 85 102 119 85 102 119 85 102 119 85 102 119 85 102 119 85 102 119 85 102 119 85 102 119 85 102 119 85 102 119 85 102 119 51 68 85 51 68 85 51 68 85 51 68 85 51 68 85 51 68 85 51 68 85 51 68 85 17 17 34 17 17 34 17 17 34 17 17 34 17 17 34 17 17 34 17 17 34 17 17 34 17 17 34 17 17 34 17 17 34 17 17 34 17 17 34 17 17 34 17 17 34 17 17 34 17 17 34 17 17 34 17 17 34 17 17 34 17 17 34 17 17 34 17 17 34 17 17 34 17 17 34 17 17 34 17 17 34 17 17 34 17 17 34 17 17 34 17 17 34 17 17 34 17 17 34 17 17 34 17 17 34 17 17 34 17 17 34 17 17 34 17 17 34 17 17 34 17 17 34 17 17 34 17 17 34 17 17 34 17 17 34 17 17 34 17 17 34 17 17 34 17 17 34 17 17 34 17 17 34 17 17 34 17 17 34 17 17 34 17 17 34 17 17 34 17 17 34 17 17 34 17 17 34 17 17 34 17 17 34 17 17 34 17 17 34 17 17 34 17 17 34 17 17 34 17 17 34 17 17 34 17 17 34 17 17 34 17 17 34 17 17 34 17 17 34 17 17 34 17 17 34 17 17 34 17 17 34 17 17 34 17 17 34 17 17 34 17 17 34 17 17 34 17 17 34 17 17 34 17 17 34 17 17 34 17 17 34 17 17 34 17 17 34 17 17 34 17 17 34 17 17 34 17 17 34 17 17 34 17 17 34 17 17 34 17 17 34 17 17 34 17 17 34 17 17 34 17 17 34 17 17 34 17 17 34 17 17 34 17 17 34 17 17 34 17 17 34 17 17 34 17 17 34 17 17 34 17 17 34 17 17 34 17 17 34 17 17 34 17 17 34 17 17 34 17 17 34 17 17 34 17 17 34 17 17 34 17 17 34 17 17 34 17 17 34 17 17 34 17 17 34 17 17 34 17 17 34 17 17 34 17 17 34 17 17 34 17 17 34 17 17 34 17 17 34 17 17 34 17 17 34 17 17 34 17 17 34 17 17 34 17 17 34 17 17 34 17 17 34 17 17 34 17 17 34 17 17 34 17 17 34 17 17 34 17 17 34 17 17 34 17 17 34 17 17 34 0 51 102 0 51 102 0 170 221 0 170 221 0 170 221 0 170 221 0 170 221 0 170 221 0 51 102 0 51 102 51 68 85 51 68 85 51 68 85 51 68 85 85 102 119 85 102 119 85 102 119 85 102 119 85 102 119 85 102 119 85 102 119 85 102 119 85 102 119 85 102 119 85 102 119 85 102 119 85 102 119 85 102 119 85 102 119 85 102 119 85 102 119 85 102 119 85 102 119 85 102 119 85 102 119 85 102 119 85 102 119 85 102 119 85 102 119 85 102 119 85 102 119 85 102 119 85 102 119 85 102 119 85 102 119 85 102 119 85 102 119 85 102 119 85 102 119 85 102 119 85 102 119 85 102 119 85 102 119 85 102 119 85 102 119 85 102 119 85 102 119 85 102 119 85 102 119 85 102 119 85 102 119 85 102 119 85 102 119 85 102 119 85 102 119 85 102 119 85 102 119 85 102 119 85 102 119 85 102 119 85 102 119 85 102 119 85 102 119 85 102 119 85 102 119 85 102 119 85 102 119 85 102 119 85 102 119 85 102 119 85 102 119 85 102 119 85 102 119 85 102 119 51 68 85 51 68 85 51 68 85 51 68 85
51 68 85 51 68 85 51 68 85 51 68 85 85 102 119 85 102 119 85 102 119 85 102 119 85 102 119 85 102 119 85 102 119 85 102 119 85 102 119 85 102 119 85 102 119 85 102 119 85 102 119 85 102 119 85 102 119 85 102 119 85 102 119 85 102 119 85 102 119 85 102 119 85 102 119 85 102 119 85 102 119 85 102 119 85 102 119 85 102 119 85 102 119 85 102 119 85 102 119 85 102 119 85 102 119 85 102 119 85 102 119 85 102 119 85 102 119 85 102 119 85 102 119 85 102 119 85 102 119 85 102 119 85 102 119 85 102 119 85 102 119 85 102 119 85 102 119 85 102 119 85 102 119 85 102 119 85 102 119 85 102 119 85 102 119 85 102 119 85 102 119 85 102 119 85 102 119 85 102 119 85 102 119 85 102 119 85 102 119 85 102 119 85 102 119 85 102 119 85 102 119 85 102 119 85 102 119 85 102 119 85 102 119 85 102 119 85 102 119 85 102 119 51 68 85 51 68 85 51 68 85 51 68 85 51 68 85 51 68 85 51 68 85 51 68 85 17 17 34 17 17 34 17 17 34 17 17 34 17 17 34 17 17 34 17 17 34 17 17 34 17 17 34 17 17 34 17 17 34 17 17 34 17 17 34 17 17 34 17 17 34 17 17 34 17 17 34 17 17 34 17 17 34 17 17 34 17 17 34 17 17 34 17 17 34 17 17 34 17 17 34 17 17 34 17 17 34 17 17 34 17 17 34 17 17 34 17 17 34 17 17 34 17 17 34 17 17 34 17 17 34 17 17 34 17 17 34 17 17 34 17 17 34 17 17 34 17 17 34 17 17 34 17 17 34 17 17 34 17 17 34 17 17 34 17 17 34 17 17 34 17 17 34 17 17 34 17 17 34 17 17 34 17 17 34 17 17 34 17 17 34 17 17 34 17 17 34 17 17 34 17 17 34 17 17 34 17 17 34 17 17 34 17 17 34 17 17 34 17 17 34 17 17 34 17 17 34 17 17 34 17 17 34 17 17 34 17 17 34 17 17 34 17 17 34 17 17 34 17 17 34 17 17 34 17 17 34 17 17 34 17 17 34 17 17 34 17 17 34 17 17 34 17 17 34 17 17 34 17 17 34 17 17 34 17 17 34 17 17 34 17 17 34 17 17 34 17 17 34 17 17 34 17 17 34 17 17 34 17 17 34 17 17 34 17 17 34 17 17 34 17 17 34 17 17 34 17 17 34 17 17 34 17 17 34 17 17 34 17 17 34 17 17 34 17 17 34 17 17 34 17 17 34 17 17 34 17 17 34 17 17 34 17 17 34 17 17 34 17 17 34 17 17 34 17 17 34 17 17 34 17 17 34 17 17 34 17 17 34 17 17 34 17 17 34 17 17 34 17 17 34 17 17 34 17 17 34 17 17 34 17 17 34 17 17 34 17 17 34 17 17 34 17 17 34 17 17 34 17 17 34 17 17 34 17 17 34 17 17 34 17 17 34 17 17 34 17 17 34 17 17 34 17 17 34 17 17 34 17 17 34 17 17 34 17 17 34 17 17 34 17 17 34 17 17 34 0 51 102 0 51 102 0 51 102 0 51 102 0 51 102 0 51 102 0 51 102 0 51 102 0 51 102 0 51 102 51 68 85 51 68 85 51 68 85 51 68 85 85 102 119 85 102 119 85 102 119 85 102 119 85 102 119 85 102 119 85 102 119 85 102 119 85 102 119 85 102 119 85 102 119 85 102 119 85 102 119 85 102 119 85 102 119 85 102 119 85 102 119 85 102 119 85 102 119 85 102 119 85 102 119 85 102 119 85 102 119 85 102 119 85 102 119 85 102 119 85 102 119 85 102 119 85 102 119 85 102 119 85 102 119 85 102 119 85 102 119 85 102 119 85 102 119 85 102 119 85 102 119 85 102 119 85 102 119 85 102 119 85 102 119 85 102 119 85 102 119 85 102 119 85 102 119 85 102 119 85 102 119 85 102 119 85 102 119 85 102 119 85 102 119 85 102 119 85 102 119 85 102 119 85 102 119 85 102 119 85 102 119 85 102 119 85 102 119 85 102 119 85 102 119 85 102 119 85 102 119 85 102 119 85 102 119 85 102 119 85 102 119 85 102 119 85 102 119 85 102 119 51 68 85 51 68 85 51 68 85 51 68 85
51 68 85 51 68 85 51 68 85 51 68 85 85 102 119 85 102 119 85 102 119 85 102 119 85 102 119 85 102 119 85 102 119 85 102 119 85 102 119 85 102 119 85 102 119 85 102 119 85 102 119 85 102 119 85 102 119 85 102 119 85 102 119 85 102 119 85 102 119 85 102 119 85 102 119 85 102 119 85 102 119 85 102 119 85 102 119 85 102 119 85 102 119 85 102 119 85 102 119 85 102 119 85 102 119 85 102 119 85 102 119 85 102 119 85 102 119 85 102 119 85 102 119 85 102 119 85 102 119 85 102 119 85 102 119 85 102 119 85 102 119 85 102 119 85 102 119 85 102 119 85 102 119 85 102 119 85 102 119 85 102 119 85 102 119 85 102 119 85 102 119 85 102 119 85 102 119 85 102 119 85 102 119 85 102 119 85 102 119 85 102 119 85 102 119 85 102 119 85 102 119 85 102 119 85 102 119 85 102 119 85 102 119 85 102 119 85 102 119 85 102 119 51 68 85 51 68 85 51 68 85 51 68 85 51 68 85 51 68 85 51 68 85 51 68 85 17 17 34 17 17 34 17 17 34 17 17 34 17 17 34 17 17 34 17 17 34 17 17 34 17 17 34 17 17 34 17 17 34 17 17 34 17 17 34 17 17 34 17 17 34 17 17 34 17 17 34 17 17 34 17 17 34 17 17 34 17 17 34 17 17 34 17 17 34 17 17 34 17 17 34 17 17 34 17 17 34 17 17 34 17 17 34 17 17 34 17 17 34 17 17 34 17 17 34 17 17 34 17 17 34 17 17 34 17 17 34 17 17 34 17 17 34 17 17 34 17 17 34 17 17 34 17 17 34 17 17 34 17 17 34 17 17 34 17 17 34 17 17 34 17 17 34 17 17 34 17 17 34 17 17 34 17 17 34 17 17 34 17 17 34 17 17 34 17 17 34 17 17 34 17 17 34 17 17 34 17 17 34 17 17 34 17 17 34 17 17 34 17 17 34 17 17 34 17 17 34 17 17 34 17 17 34 17 17 34 17 17 34 17 17 34 17 17 34 17 17 34 17 17 34 17 17 34 17 17 34 17 17 34 17 17 34 17 17 34 17 17 34 17 17 34 17 17 34 17 17 34 17 17 34 17 17 34 17 17 34 17 17 34 17 17 34 17 17 34 17 17 34 17 17 34 17 17 34 17 17 34 17 17 34 17 17 34 17 17 34 17 17 34 17 17 34 17 17 34 17 17 34 17 17 34 17 17 34 17 17 34 17 17 34 17 17 34 17 17 34 17 17 34 17 17 34 17 17 34 17 17 34 17 17 34 17 17 34 17 17 34 17 17 34 17 17 34 17 17 34 17 17 34 17 17 34 17 17 34 17 17 34 17 17 34 17 17 34 17 17 34 17 17 34 17 17 34 17 17 34 17 17 34 17 17 34 17 17 34 17 17 34 17 17 34 17 17 34 17 17 34 17 17 34 17 17 34 17 17 34 17 17 34 17 17 34 17 17 34 17 17 34 17 17 34 17 17 34 17 17 34 17 17 34 17 17 34 17 17 34 17 17 34 17 17 34 17 17 34 17 17 34 17 17 34 17 17 34 17 17 34 17 17 34 17 17 34 51 68 85 51 68 85 51 68 85 51 68 85 51 68 85 51 68 85 51 68 85 51 68 85 85 102 119 85 102 119 85 102 119 85 102 119 85 102 119 85 102 119 85 102 119 85 102 119 85 102 119 85 102 119 85 102 119 85 102 119 85 102 119 85 102 119 85 102 119 85 102 119 85 102 119 85 102 119 85 102 119 85 102 119 85 102 119 85 102 119 85 102 119 85 102 119 85 102 119 85 102 119 85 102 119 85 102 119 85 102 119 85 102 119 85 102 119 85 102 119 85 102 119 85 102 119 85 102 119 85 102 119 85 102 119 85 102 119 85 102 119 85 102 119 85 102 119 85 102 119 85 102 119 85 102 119 85 102 119 85 102 119 85 102 119 85 102 119 85 102 119 85 102 119 85 102 119 85 102 119 85 102 119 85 102 119 85 102 119 85 102 119 85 102 119 85 102 119 85 102 119 85 102 119 85 102 119 85 102 119 85 102 119 85 102 119 85 102 119 85 102 119 85 102 119 85 102 119 85 102 119 85 102 119 51 68 85 51 68 85 51 68 85 51 68 85
51 68 85 51 68 85 51 68 85 51 68 85 85 102 119 85 102 119 85 102 119 85 102 119 85 102 119 85 102 119 85 102 119 85 102 119 85 102 119 85 102 119 85 102 119 85 102 119 85 102 119 85 102 119 85 102 119 85 102 119 85 102 119 85 102 119 85 102 119 85 102 119 85 102 119 85 102 119 85 102 119 85 102 119 85 102 119 85 102 119 85 102 119 85 102 119 85 102 119 85 102 119 85 102 119 85 102 119 85 102 119 85 102 119 85 102 119 85 102 119 85 102 119 85 102 119 85 102 119 85 102 119 85 102 119 85 102 119 85 102 119 85 102 119 85 102 119 85 102 119 85 102 119 85 102 119 85 102 119 85 102 119 85 102 119 85 102 119 85 102 119 85 102 119 85 102 119 85 102 119 85 102 119 85 102 119 85 102 119 85 102 119 85 102 119 85 102 119 85 102 119 85 102 119 85 102 119 85 102 119 85 102 119 85 102 119 85 102 119 85 102 119 51 68 85 51 68 85 51 68 85 51 68 85 51 68 85 51 68 85 51 68 85 51 68 85 17 17 34 17 17 34 17 17 34 17 17 34 17 17 34 17 17 34 17 17 34 17 17 34 17 17 34 17 17 34 17 17 34 17 17 34 17 17 34 17 17 34 17 17 34 17 17 34 17 17 34 17 17 34 17 17 34 17 17 34 17 17 34 17 17 34 17 17 34 17 17 34 17 17 34 17 17 34 17 17 34 17 17 34 17 17 34 17 17 34 17 17 34 17 17 34 17 17 34 17 17 34 17 17 34 17 17 34 17 17 34 17 17 34 17 17 34 17 17 34 17 17 34 17 17 34 17 17 34 17 17 34 17 17 34 17 17 34 17 17 34 17 17 34 17 17 34 17 17 34 17 17 34 17 17 34 17 17 34 17 17 34 17 17 34 17 17 34 17 17 34 17 17 34 17 17 34 17 17 34 17 17 34 17 17 34 17 17 34 17 17 34 17 17 34 17 17 34 17 17 34 17 17 34 17 17 34 17 17 34 17 17 34 17 17 34 17 17 34 17 17 34 17 17 34 17 17 34 17 17 34 17 17 34 17 17 34 17 17 34 17 17 34 17 17 34 17 17 34 17 17 34 17 17 34 17 17 34 17 17 34 17 17 34 17 17 34 17 17 34 17 17 34 17 17 34 17 17 34 17 17 34 17 17 34 17 17 34 17 17 34 17 17 34 17 17 34 17 17 34 17 17 34 17 17 34 17 17 34 17 17 34 17 17 34 17 17 34 17 17 34 17 17 34 17 17 34 17 17 34 17 17 34 17 17 34 17 17 34 17 17 34 17 17 34 17 17 34 17 17 34 17 17 34 17 17 34 17 17 34 17 17 34 17 17 34 17 17 34 17 17 34 17 17 34 17 17 34 17 17 34 17 17 34 17 17 34 17 17 34 17 17 34 17 17 34 17 17 34 17 17 34 17 17 34 17 17 34 17 17 34 17 17 34 17 17 34 17 17 34 17 17 34 17 17 34 17 17 34 17 17 34 17 17 34 17 17 34 17 17 34 17 17 34 17 17 34 17 17 34 17 17 34 17 17 34 17 17 34 17 17 34 17 17 34 17 17 34 51 68 85 51 68 85 51 68 85 51 68 85 51 68 85 51 68 85 51 68 85 51 68 85 85 102 119 85 102 119 85 102 119 85 102 119 85 102 119 85 102 119 85 102 119 85 102 119 85 102 119 85 102 119 85 102 119 85 102 119 85 102 119 85 102 119 85 102 119 85 102 119 85 102 119 85 102 119 85 102 119 85 102 119 85 102 119 85 102 119 85 102 119 85 102 119 85 102 119 85 102 119 85 102 119 85 102 119 85 102 119 85 102 119 85 102 119 85 102 119 85 102 119 85 102 119 85 102 119 85 102 119 85 102 119 85 102 119 85 102 119 85 102 119 85 102 119 85 102 119 85 102 119 85 102 119 85 102 119 85 102 119 85 102 119 85 102 119 85 102 119 85 102 119 85 102 119 85 102 119 85 102 119 85 102 119 85 102 119 85 102 119 85 102 119 85 102 119 85 102 119 85 102 119 85 102 119 85 102 119 85 102 119 85 102 119 85 102 119 85 102 119 85 102 119 85 102 119 85 102 119 85 102 119 51 68 85 51 68 85 51 68 85 51 68 85
51 68 85 51 68 85 51 68 85 51 68 85 51 68 85 51 68 85 51 68 85 51 68 85 51 68 85 51 68 85 51 68 85 51 68 85 51 68 85 51 68 85 51 68 85 51 68 85 51 68 85 51 68 85 51 68 85 51 68 85 51 68 85 51 68 85 51 68 85 51 68 85 51 68 85 51 68 85 51 68 85 51 68 85 51 68 85 51 68 85 51 68 85 51 68 85 51 68 85 51 68 85 51 68 85 51 68 85 51 68 85 51 68 85 51 68 85 51 68 85 51 68 85 51 68 85 51 68 85 51 68 85 51 68 85 51 68 85 51 68 85 51 68 85 51 68 85 51 68 85 51 68 85 51 68 85 51 68 85 51 68 85 51 68 85 51 68 85 51 68 85 51 68 85 51 68 85 51 68 85 51 68 85 51 68 85 51 68 85 51 68 85 51 68 85 51 68 85 51 68 85 51 68 85 51 68 85 51 68 85 51 68 85 51 68 85 51 68 85 51 68 85 51 68 85 51 68 85 51 68 85 51 68 85 51 68 85 51 68 85 51 68 85 51 68 85 17 17 34 17 17 34 17 17 34 17 17 34 17 17 34 17 17 34 17 17 34 17 17 34 17 17 34 17 17 34 17 17 34 17 17 34 17 17 34 17 17 34 17 17 34 17 17 34 17 17 34 17 17 34 17 17 34 17 17 34 17 17 34 17 17 34 17 17 34 17 17 34 17 17 34 17 17 34 17 17 34 17 17 34 17 17 34 17 17 34 17 17 34 17 17 34 17 17 34 17 17 34 17 17 34 17 17 34 17 17 34 17 17 34 17 17 34 17 17 34 17 17 34 17 17 34 17 17 34 17 17 34 17 17 34 17 17 34 17 17 34 17 17 34 17 17 34 17 17 34 17 17 34 17 17 34 17 17 34 17 17 34 17 17 34 17 17 34 17 17 34 17 17 34 17 17 34 17 17 34 17 17 34 17 17 34 17 17 34 17 17 34 17 17 34 17 17 34 17 17 34 17 17 34 17 17 34 17 17 34 17 17 34 17 17 34 17 17 34 17 17 34 17 17 34 17 17 34 17 17 34 17 17 34 17 17 34 17 17 34 17 17 34 17 17 34 17 17 34 17 17 34 17 17 34 17 17 34 17 17 34 17 17 34 17 17 34 17 17 34 17 17 34 17 17 34 17 17 34 17 17 34 17 17 34 17 17 34 17 17 34 17 17 34 17 17 34 17 17 34 17 17 34 17 17 34 17 17 34 17 17 34 17 17 34 17 17 34 17 17 34 17 17 34 17 17 34 17 17 34 17 17 34 17 17 34 17 17 34 17 17 34 17 17 34 17 17 34 17 17 34 17 17 34 17 17 34 17 17 34 17 17 34 17 17 34 17 17 34 17 17 34 17 17 34 17 17 34 17 17 34 17 17 34 17 17 34 17 17 34 17 17 34 17 17 34 17 17 34 17 17 34 17 17 34 17 17 34 17 17 34 17 17 34 17 17 34 17 17 34 17 17 34 17 17 34 17 17 34 17 17 34 17 17 34 17 17 34 17 17 34 17 17 34 17 17 34 17 17 34 17 17 34 17 17 34 17 17 34 17 17 34 17 17 34 17 17 34 51 68 85 51 68 85 51 68 85 51 68 85 51 68 85 51 68 85 51 68 85 51 68 85 85 102 119 85 102 119 85 102 119 85 102 119 85 102 119 85 102 119 85 102 119 85 102 119 85 102 119 85 102 119 85 102 119 85 102 119 85 102 119 85 102 119 85 102 119 85 102 119 85 102 119 85 102 119 85 102 119 85 102 119 85 102 119 85 102 119 85 102 119 85 102 119 85 102 119 85 102 119 85 102 119 85 102 119 85 102 119 85 102 119 85 102 119 85 102 119 85 102 119 85 102 119 85 102 119 85 102 119 85 102 119 85 102 119 85 102 119 85 102 119 85 102 119 85 102 119 85 102 119 85 102 119 85 102 119 85 102 119 85 102 119 85 102 119 85 102 119 85 102 119 85 102 119 85 102 119 85 102 119 85 102 119 85 102 119 85 102 119 85 102 119 85 102 119 85 102 119 85 102 119 85 102 119 85 102 119 85 102 119 85 102 119 85 102 119 85 102 119 85 102 119 85 102 119 85 102 119 85 102 119 51 68 85 51 68 85 51 68 85 51 68 85
51 68 85 51 68 85 51 68 85 51 68 85 51 68 85 51 68 85 51 68 85 51 68 85 51 68 85 51 68 85 51 68 85 51 68 85 51 68 85 51 68 85 51 68 85 51 68 85 51 68 85 51 68 85 51 68 85 51 68 85 51 68 85 51 68 85 51 68 85 51 68 85 51 68 85 51 68 85 51 68 85 51 68 85 51 68 85 51 68 85 51 68 85 51 68 85 51 68 85 51 68 85 51 68 85 51 68 85 51 68 85 51 68 85 51 68 85 51 68 85 51 68 85 51 68 85 51 68 85 51 68 85 51 68 85 51 68 85 51 68 85 51 68 85 51 68 85 51 68 85 51 68 85 51 68 85 51 68 85 51 68 85 51 68 85 51 68 85 51 68 85 51 68 85 51 68 85 51 68 85 51 68 85 51 68 85 51 68 85 51 68 85 51 68 85 51 68 85 51 68 85 51 68 85 51 68 85 51 68 85 51 68 85 51 68 85 51 68 85 51 68 85 51 68 85 51 68 85 51 68 85 51 68 85 51 68 85 51 68 85 51 68 85 51 68 85 17 17 34 17 17 34 17 17 34 17 17 34 17 17 34 17 17 34 17 17 34 17 17 34 17 17 34 17 17 34 17 17 34 17 17 34 17 17 34 17 17 34 17 17 34 17 17 34 17 17 34 17 17 34 17 17 34 17 17 34 17 17 34 17 17 34 17 17 34 17 17 34 17 17 34 17 17 34 17 17 34 17 17 34 17 17 34 17 17 34 17 17 34 17 17 34 17 17 34 17 17 34 17 17 34 17 17 34 17 17 34 17 17 34 17 17 34 17 17 34 17 17 34 17 17 34 17 17 34 17 17 34 17 17 34 17 17 34 17 17 34 17 17 34 17 17 34 17 17 34 17 17 34 17 17 34 17 17 34 17 17 34 17 17 34 17 17 34 17 17 34 17 17 34 17 17 34 17 17 34 17 17 34 17 17 34 17 17 34 17 17 34 17 17 34 17 17 34 17 17 34 17 17 34 17 17 34 17 17 34 17 17 34 17 17 34 17 17 34 17 17 34 17 17 34 17 17 34 17 17 34 17 17 34 17 17 34 17 17 34 17 17 34 17 17 34 17 17 34 17 17 34 17 17 34 17 17 34 17 17 34 17 17 34 17 17 34 17 17 34 17 17 34 17 17 34 17 17 34 17 17 34 17 17 34 17 17 34 17 17 34 17 17 34 17 17 34 17 17 34 17 17 34 17 17 34 17 17 34 17 17 34 17 17 34 17 17 34 17 17 34 17 17 34 17 17 34 17 17 34 17 17 34 17 17 34 17 17 34 17 17 34 17 17 34 17 17 34 17 17 34 17 17 34 17 17 34 17 17 34 17 17 34 17 17 34 17 17 34 17 17 34 17 17 34 17 17 34 17 17 34 17 17 34 17 17 34 17 17 34 17 17 34 17 17 34 17 17 34 17 17 34 17 17 34 17 17 34 17 17 34 17 17 34 17 17 34 17 17 34 17 17 34 17 17 34 17 17 34 17 17 34 17 17 34 17 17 34 17 17 34 17 17 34 17 17 34 17 17 34 17 17 34 17 17 34 17 17 34 17 17 34 17 17 34 17 17 34 51 68 85 51 68 85 51 68 85 51 68 85 51 68 85 51 68 85 51 68 85 51 68 85 85 102 119 85 102 119 85 102 119 85 102 119 85 102 119 85 102 119 85 102 119 85 102 119 85 102 119 85 102 119 85 102 119 85 102 119 85 102 119 85 102 119 85 102 119 85 102 119 85 102 119 85 102 119 85 102 119 85 102 119 85 102 119 85 102 119 85 102 119 85 102 119 85 102 119 85 102 119 85 102 119 85 102 119 85 102 119 85 102 119 85 102 119 85 102 119 85 102 119 85 102 119 85 102 119 85 102 119 85 102 119 85 102 119 85 102 119 85 102 119 85 102 119 85 102 119 85 102 119 85 102 119 85 102 119 85 102 119 85 102 119 85 102 119 85 102 119 85 102 119 85 102 119 85 102 119 85 102 119 85 102 119 85 102 119 85 102 119 85 102 119 85 102 119 85 102 119 85 102 119 85 102 119 85 102 119 85 102 119 85 102 119 85 102 119 85 102 119 85 102 119 85 102 119 85 102 119 85 102 119 51 68 85 51 68 85 51 68 85 51 68 85
51 68 85 51 68 85 51 68 85 51 68 85 51 68 85 51 68 85 51 68 85 51 68 85 51 68 85 51 68 85 51 68 85 51 68 85 51 68 85 51 68 85 51 68 85 51 68 85 51 68 85 51 68 85 51 68 85 51 68 85 51 68 85 51 68 85 51 68 85 51 68 85 51 68 85 51 68 85 51 68 85 51 68 85 51 68 85 51 68 85 51 68 85 51 68 85 51 68 85 51 68 85 51 68 85 51 68 85 51 68 85 51 68 85 51 68 85 51 68 85 51 68 85 51 68 85 51 68 85 51 68 85 51 68 85 51 68 85 51 68 85 51 68 85 51 68 85 51 68 85 51 68 85 51 68 85 51 68 85 51 68 85 51 68 85 51 68 85 51 68 85 51 68 85 51 68 85 51 68 85 51 68 85 51 68 85 51 68 85 51 68 85 51 68 85 51 68 85 51 68 85 51 68 85 51 68 85 51 68 85 51 68 85 51 68 85 51 68 85 51 68 85 51 68 85 51 68 85 51 68 85 51 68 85 51 68 85 51 68 85 51 68 85 51 68 85 17 17 34 17 17 34 17 17 34 17 17 34 17 17 34 17 17 34 17 17 34 17 17 34 17 17 34 17 17 34 17 17 34 17 17 34 17 17 34 17 17 34 17 17 34 17 17 34 17 17 34 17 17 34 17 17 34 17 17 34 17 17 34 17 17 34 17 17 34 17 17 34 17 17 34 17 17 34 17 17 34 17 17 34 17 17 34 17 17 34 17 17 34 17 17 34 17 17 34 17 17 34 17 17 34 17 17 34 17 17 34 17 17 34 17 17 34 17 17 34 17 17 34 17 17 34 17 17 34 17 17 34 17 17 34 17 17 34 17 17 34 17 17 34 17 17 34 17 17 34 17 17 34 17 17 34 17 17 34 17 17 34 17 17 34 17 17 34 17 17 34 17 17 34 17 17 34 17 17 34 17 17 34 17 17 34 17 17 34 17 17 34 17 17 34 17 17 34 17 17 34 17 17 34 17 17 34 17 17 34 17 17 34 17 17 34 17 17 34 17 17 34 17 17 34 17 17 34 17 17 34 17 17 34 17 17 34 17 17 34 17 17 34 17 17 34 17 17 34 17 17 34 17 17 34 17 17 34 17 17 34 17 17 34 17 17 34 17 17 34 17 17 34 17 17 34 17 17 34 17 17 34 17 17 34 17 17 34 17 17 34 17 17 34 17 17 34 17 17 34 17 17 34 17 17 34 17 17 34 17 17 34 17 17 34 17 17 34 17 17 34 17 17 34 17 17 34 17 17 34 17 17 34 17 17 34 17 17 34 17 17 34 17 17 34 17 17 34 17 17 34 17 17 34 17 17 34 17 17 34 17 17 34 17 17 34 17 17 34 17 17 34 17 17 34 17 17 34 17 17 34 17 17 34 17 17 34 17 17 34 17 17 34 17 17 34 17 17 34 17 17 34 17 17 34 17 17 34 17 17 34 17 17 34 17 17 34 17 17 34 17 17 34 17 17 34 17 17 34 17 17 34 17 17 34 17 17 34 17 17 34 17 17 34 17 17 34 17 17 34 17 17 34 17 17 34 17 17 34 17 17 34 17 17 34 17 17 34 51 68 85 51 68 85 51 68 85 51 68 85 51 68 85 51 68 85 51 68 85 51 68 85 85 102 119 85 102 119 85 102 119 85 102 119 85 102 119 85 102 119 85 102 119 85 102 119 85 102 119 85 102 119 85 102 119 85 102 119 85 102 119 85 102 119 85 102 119 85 102 119 85 102 119 85 102 119 85 102 119 85 102 119 85 102 119 85 102 119 85 102 119 85 102 119 85 102 119 85 102 119 85 102 119 85 102 119 85 102 119 85 102 119 85 102 119 85 102 119 85 102 119 85 102 119 85 102 119 85 102 119 85 102 119 85 102 119 85 102 119 85 102 119 85 102 119 85 102 119 85 102 119 85 102 119 85 102 119 85 102 119 85 102 119 85 102 119 85 102 119 85 102 119 85 102 119 85 102 119 85 102 119 85 102 119 85 102 119 85 102 119 85 102 119 85 102 119 85 102 119 85 102 119 85 102 119 85 102 119 85 102 119 85 102 119 85 102 119 85 102 119 85 102 119 85 102 119 85 102 119 85 102 119 51 68 85 51 68 85 51 68 85 51 68 85
51 68 85 51 68 85 51 68 85 51 68 85 51 68 85 51 68 85 51 68 85 51 68 85 51 68 85 51 68 85 51 68 85 51 68 85 51 68 85 51 68 85 51 68 85 51 68 85 51 68 85 51 68 85 51 68 85 51 68 85 51 68 85 51 68 85 51 68 85 51 68 85 51 68 85 51 68 85 51 68 85 51 68 85 51 68 85 51 68 85 51 68 85 51 68 85 51 68 85 51 68 85 51 68 85 51 68 85 51 68 85 51 68 85 51 68 85 51 68 85 51 68 85 51 68 85 51 68 85 51 68 85 51 68 85 51 68 85 51 68 85 51 68 85 51 68 85 51 68 85 51 68 85 51 68 85 51 68 85 51 68 85 51 68 85 51 68 85 51 68 85 51 68 85 51 68 85 51 68 85 51 68 85 51 68 85 51 68 85 51 68 85 51 68 85 51 68 85 51 68 85 51 68 85 51 68 85 51 68 85 51 68 85 51 68 85 51 68 85 51 68 85 51 68 85 51 68 85 51 68 85 51 68 85 51 68 85 51 68 85 51 68 85 51 68 85 17 17 34 17 17 34 17 17 34 17 17 34 17 17 34 17 17 34 17 17 34 17 17 34 17 17 34 17 17 34 17 17 34 17 17 34 17 17 34 17 17 34 17 17 34 17 17 34 17 17 34 17 17 34 17 17 34 17 17 34 17 17 34 17 17 34 17 17 34 17 17 34 17 17 34 17 17 34 17 17 34 17 17 34 17 17 34 17 17 34 17 17 34 17 17 34 17 17 34 17 17 34 17 17 34 17 17 34 17 17 34 17 17 34 17 17 34 17 17 34 17 17 34 17 17 34 17 17 34 17 17 34 17 17 34 17 17 34 17 17 34 17 17 34 17 17 34 17 17 34 17 17 34 17 17 34 17 17 34 17 17 34 17 17 34 17 17 34 17 17 34 17 17 34 17 17 34 17 17 34 17 17 34 17 17 34 17 17 34 17 17 34 17 17 34 17 17 34 17 17 34 17 17 34 17 17 34 17 17 34 17 17 34 17 17 34 17 17 34 17 17 34 17 17 34 17 17 34 17 17 34 17 17 34 17 17 34 17 17 34 17 17 34 17 17 34 17 17 34 17 17 34 17 17 34 17 17 34 17 17 34 17 17 34 17 17 34 17 17 34 17 17 34 17 17 34 17 17 34 17 17 34 17 17 34 17 17 34 17 17 34 17 17 34 17 17 34 17 17 34 17 17 34 17 17 34 17 17 34 17 17 34 17 17 34 17 17 34 17 17 34 17 17 34 17 17 34 17 17 34 17 17 34 17 17 34 17 17 34 17 17 34 17 17 34 17 17 34 17 17 34 17 17 34 17 17 34 17 17 34 17 17 34 17 17 34 17 17 34 17 17 34 17 17 34 17 17 34 17 17 34 17 17 34 17 17 34 17 17 34 17 17 34 17 17 34 17 17 34 17 17 34 17 17 34 17 17 34 17 17 34 17 17 34 17 17 34 17 17 34 17 17 34 17 17 34 17 17 34 17 17 34 17 17 34 17 17 34 17 17 34 17 17 34 17 17 34 17 17 34 17 17 34 17 17 34 17 17 34 17 17 34 17 17 34 17 17 34 51 68 85 51 68 85 51 68 85 51 68 85 51 68 85 51 68 85 51 68 85 51 68 85 85 102 119 85 102 119 85 102 119 85 102 119 85 102 119 85 102 119 85 102 119 85 102 119 85 102 119 85 102 119 85 102 119 85 102 119 85 102 119 85 102 119 85 102 119 85 102 119 85 102 119 85 102 119 85 102 119 85 102 119 85 102 119 85 102 119 85 102 119 85 102 119 85 102 119 85 102 119 85 102 119 85 102 119 85 102 119 85 102 119 85 102 119 85 102 119 85 102 119 85 102 119 85 102 119 85 102 119 85 102 119 85 102 119 85 102 119 85 102 119 85 102 119 85 102 119 85 102 119 85 102 119 85 102 119 85 102 119 85 102 119 85 102 119 85 102 119 85 102 119 85 102 119 85 102 119 85 102 119 85 102 119 85 102 119 85 102 119 85 102 119 85 102 119 85 102 119 85 102 119 85 102 119 85 102 119 85 102 119 85 102 119 85 102 119 85 102 119 85 102 119 85 102 119 85 102 119 85 102 119 51 68 85 51 68 85 51 68 85 51 68 85
17 17 34 17 17 34 17 17 34 17 17 34 17 17 34 17 17 34 17 17 34 17 17 34 17 17 34 17 17 34 17 17 34 17 17 34 17 17 34 17 17 34 17 17 34 17 17 34 17 17 34 17 17 34 17 17 34 17 17 34 17 17 34 17 17 34 17 17 34 17 17 34 17 17 34 17 17 34 17 17 34 17 17 34 17 17 34 17 17 34 17 17 34 17 17 34 17 17 34 17 17 34 17 17 34 17 17 34 17 17 34 17 17 34 17 17 34 17 17 34 17 17 34 17 17 34 17 17 34 17 17 34 17 17 34 17 17 34 17 17 34 17 17 34 17 17 34 17 17 34 17 17 34 17 17 34 17 17 34 17 17 34 17 17 34 17 17 34 17 17 34 17 17 34 17 17 34 17 17 34 17 17 34 17 17 34 17 17 34 17 17 34 17 17 34 17 17 34 17 17 34 17 17 34 17 17 34 17 17 34 17 17 34 17 17 34 17 17 34 17 17 34 17 17 34 17 17 34 17 17 34 17 17 34 17 17 34 17 17 34 17 17 34 17 17 34 17 17 34 17 17 34 17 17 34 17 17 34 17 17 34 17 17 34 17 17 34 17 17 34 17 17 34 17 17 34 17 17 34 17 17 34 17 17 34 17 17 34 17 17 34 17 17 34 17 17 34 17 17 34 17 17 34 17 17 34 17 17 34 17 17 34 17 17 34 17 17 34 17 17 34 17 17 34 17 17 34 17 17 34 17 17 34 17 17 34 17 17 34 17 17 34 17 17 34 17 17 34 17 17 34 17 17 34 17 17 34 17 17 34 17 17 34 17 17 34 17 17 34 17 17 34 17 17 34 17 17 34 17 17 34 17 17 34 17 17 34 17 17 34 17 17 34 17 17 34 17 17 34 17 17 34 17 17 34 17 17 34 17 17 34 17 17 34 17 17 34 17 17 34 17 17 34 17 17 34 17 17 34 17 17 34 17 17 34 17 17 34 17 17 34 17 17 34 17 17 34 17 17 34 17 17 34 17 17 34 17 17 34 17 17 34 17 17 34 17 17 34 17 17 34 17 17 34 17 17 34 17 17 34 17 17 34 17 17 34 17 17 34 17 17 34 17 17 34 17 17 34 17 17 34 17 17 34 17 17 34 17 17 34 17 17 34 17 17 34 17 17 34 17 17 34 17 17 34 17 17 34 17 17 34 17 17 34 17 17 34 17 17 34 17 17 34 17 17 34 17 17 34 17 17 34 17 17 34 17 17 34 17 17 34 17 17 34 17 17 34 17 17 34 17 17 34 17 17 34 17 17 34 17 17 34 17 17 34 17 17 34 17 17 34 17 17 34 17 17 34 17 17 34 17 17 34 17 17 34 17 17 34 17 17 34 17 17 34 17 17 34 17 17 34 17 17 34 17 17 34 17 17 34 17 17 34 17 17 34 17 17 34 17 17 34 17 17 34 17 17 34 17 17 34 17 17 34 17 17 34 17 17 34 17 17 34 17 17 34 17 17 34 17 17 34 17 17 34 17 17 34 17 17 34 17 17 34 17 17 34 17 17 34 17 17 34 17 17 34 17 17 34 17 17 34 17 17 34 17 17 34 17 17 34 17 17 34 51 68 85 51 68 85 51 68 85 51 68 85 51 68 85 51 68 85 51 68 85 51 68 85 51 68 85 51 68 85 51 68 85 51 68 85 51 68 85 51 68 85 51 68 85 51 68 85 51 68 85 51 68 85 51 68 85 51 68 85 51 68 85 51 68 85 51 68 85 51 68 85 51 68 85 51 68 85 51 68 85 51 68 85 51 68 85 51 68 85 51 68 85 51 68 85 51 68 85 51 68 85 51 68 85 51 68 85 51 68 85 51 68 85 51 68 85 51 68 85 51 68 85 51 68 85 51 68 85 51 68 85 51 68 85 51 68 85 51 68 85 51 68 85 51 68 85 51 68 85 51 68 85 51 68 85 51 68 85 51 68 85 51 68 85 51 68 85 51 68 85 51 68 85 51 68 85 51 68 85 51 68 85 51 68 85 51 68 85 51 68 85 51 68 85 51 68 85 51 68 85 51 68 85 51 68 85 51 68 85 51 68 85 51 68 85 51 68 85 51 68 85 51 68 85 51 68 85 51 68 85 51 68 85 51 68 85 51 68 85 51 68 85 51 68 85
17 17 34 17 17 34 17 17 34 17 17 34 17 17 34 17 17 34 17 17 34 17 17 34 17 17 34 17 17 34 17 17 34 17 17 34 17 17 34 17 17 34 17 17 34 17 17 34 17 17 34 17 17 34 17 17 34 17 17 34 17 17 34 17 17 34 17 17 34 17 17 34 17 17 34 17 17 34 17 17 34 17 17 34 17 17 34 17 17 34 17 17 34 17 17 34 17 17 34 17 17 34 17 17 34 17 17 34 17 17 34 17 17 34 17 17 34 17 17 34 17 17 34 17 17 34 17 17 34 17 17 34 17 17 34 17 17 34 17 17 34 17 17 34 17 17 34 17 17 34 17 17 34 17 17 34 17 17 34 17 17 34 17 17 34 17 17 34 17 17 34 17 17 34 17 17 34 17 17 34 17 17 34 17 17 34 17 17 34 17 17 34 17 17 34 17 17 34 17 17 34 17 17 34 17 17 34 17 17 34 17 17 34 17 17 34 17 17 34 17 17 34 17 17 34 17 17 34 17 17 34 17 17 34 17 17 34 17 17 34 17 17 34 17 17 34 17 17 34 17 17 34 17 17 34 17 17 34 17 17 34 17 17 34 17 17 34 17 17 34 17 17 34 17 17 34 17 17 34 17 17 34 17 17 34 17 17 34 17 17 34 17 17 34 17 17 34 17 17 34 17 17 34 17 17 34 17 17 34 17 17 34 17 17 34 17 17 34 17 17 34 17 17 34 17 17 34 17 17 34 17 17 34 17 17 34 17 17 34 17 17 34 17 17 34 17 17 34 17 17 34 17 17 34 17 17 34 17 17 34 17 17 34 17 17 34 17 17 34 17 17 34 17 17 34 17 17 34 17 17 34 17 17 34 17 17 34 17 17 34 17 17 34 17 17 34 17 17 34 17 17 34 17 17 34 17 17 34 17 17 34 17 17 34 17 17 34 17 17 34 17 17 34 17 17 34 17 17 34 17 17 34 17 17 34 17 17 34 17 17 34 17 17 34 17 17 34 17 17 34 17 17 34 17 17 34 17 17 34 17 17 34 17 17 34 17 17 34 17 17 34 17 17 34 17 17 34 17 17 34 17 17 34 17 17 34 17 17 34 17 17 34 17 17 34 17 17 34 17 17 34 17 17 34 17 17 34 17 17 34 17 17 34 17 17 34 17 17 34 17 17 34 17 17 34 17 17 34 17 17 34 17 17 34 17 17 34 17 17 34 17 17 34 17 17 34 17 17 34 17 17 34 17 17 34 17 17 34 17 17 34 17 17 34 17 17 34 17 17 34 17 17 34 17 17 34 17 17 34 17 17 34 17 17 34 17 17 34 17 17 34 17 17 34 17 17 34 17 17 34 17 17 34 17 17 34 17 17 34 17 17 34 17 17 34 17 17 34 17 17 34 17 17 34 17 17 34 17 17 34 17 17 34 17 17 34 17 17 34 17 17 34 17 17 34 17 17 34 17 17 34 17 17 34 17 17 34 17 17 34 17 17 34 17 17 34 17 17 34 17 17 34 17 17 34 17 17 34 17 17 34 17 17 34 17 17 34 17 17 34 17 17 34 17 17 34 17 17 34 17 17 34 17 17 34 17 17 34 17 17 34 17 17 34 51 68 85 51 68 85 51 68 85 51 68 85 51 68 85 51 68 85 51 68 85 51 68 85 51 68 85 51 68 85 51 68 85 51 68 85 51 68 85 51 68 85 51 68 85 51 68 85 51 68 85 51 68 85 51 68 85 51 68 85 51 68 85 51 68 85 51 68 85 51 68 85 51 68 85 51 68 85 51 68 85 51 68 85 51 68 85 51 68 85 51 68 85 51 68 85 51 68 85 51 68 85 51 68 85 51 68 85 51 68 85 51 68 85 51 68 85 51 68 85 51 68 85 51 68 85 51 68 85 51 68 85 51 68 85 51 68 85 51 68 85 51 68 85 51 68 85 51 68 85 51 68 85 51 68 85 51 68 85 51 68 85 51 68 85 51 68 85 51 68 85 51 68 85 51 68 85 51 68 85 51 68 85 51 68 85 51 68 85 51 68 85 51 68 85 51 68 85 51 68 85 51 68 85 51 68 85 51 68 85 51 68 85 51 68 85 51 68 85 51 68 85 51 68 85 51 68 85 51 68 85 51 68 85 51 68 85 51 68 85 51 68 85 51 68 85
17 17 34 17 17 34 17 17 34 17 17 34 17 17 34 17 17 34 17 17 34 17 17 34 17 17 34 17 17 34 17 17 34 17 17 34 17 17 34 17 17 34 17 17 34 17 17 34 17 17 34 17 17 34 17 17 34 17 17 34 17 17 34 17 17 34 17 17 34 17 17 34 17 17 34 17 17 34 17 17 34 17 17 34 17 17 34 17 17 34 17 17 34 17 17 34 17 17 34 17 17 34 17 17 34 17 17 34 17 17 34 17 17 34 17 17 34 17 17 34 17 17 34 17 17 34 17 17 34 17 17 34 17 17 34 17 17 34 17 17 34 17 17 34 17 17 34 17 17 34 17 17 34 17 17 34 17 17 34 17 17 34 17 17 34 17 17 34 17 17 34 17 17 34 17 17 34 17 17 34 17 17 34 17 17 34 17 17 34 17 17 34 17 17 34 17 17 34 17 17 34 17 17 34 17 17 34 17 17 34 17 17 34 17 17 34 17 17 34 17 17 34 17 17 34 17 17 34 17 17 34 17 17 34 17 17 34 17 17 34 17 17 34 17 17 34 17 17 34 17 17 34 17 17 34 17 17 34 17 17 34 17 17 34 17 17 34 17 17 34 17 17 34 17 17 34 17 17 34 17 17 34 17 17 34 17 17 34 17 17 34 17 17 34 17 17 34 17 17 34 17 17 34 17 17 34 17 17 34 17 17 34 17 17 34 17 17 34 17 17 34 17 17 34 17 17 34 17 17 34 17 17 34 17 17 34 17 17 34 17 17 34 17 17 34 17 17 34 17 17 34 17 17 34 17 17 34 17 17 34 17 17 34 17 17 34 17 17 34 17 17 34 17 17 34 17 17 34 17 17 34 17 17 34 17 17 34 17 17 34 17 17 34 17 17 34 17 17 34 17 17 34 17 17 34 17 17 34 17 17 34 17 17 34 17 17 34 17 17 34 17 17 34 17 17 34 17 17 34 17 17 34 17 17 34 17 17 34 17 17 34 17 17 34 17 17 34 17 17 34 17 17 34 17 17 34 17 17 34 17 17 34 17 17 34 17 17 34 17 17 34 17 17 34 17 17 34 17 17 34 17 17 34 17 17 34 17 17 34 17 17 34 17 17 34 17 17 34 17 17 34 17 17 34 17 17 34 17 17 34 17 17 34 17 17 34 17 17 34 17 17 34 17 17 34 17 17 34 17 17 34 17 17 34 17 17 34 17 17 34 17 17 34 17 17 34 17 17 34 17 17 34 17 17 34 17 17 34 17 17 34 17 17 34 17 17 34 17 17 34 17 17 34 17 17 34 17 17 34 17 17 34 17 17 34 17 17 34 17 17 34 17 17 34 17 17 34 17 17 34 17 17 34 17 17 34 17 17 34 17 17 34 17 17 34 17 17 34 17 17 34 17 17 34 17 17 34 17 17 34 17 17 34 17 17 34 17 17 34 17 17 34 17 17 34 17 17 34 17 17 34 17 17 34 17 17 34 17 17 34 17 17 34 17 17 34 17 17 34 17 17 34 17 17 34 17 17 34 17 17 34 17 17 34 17 17 34 17 17 34 17 17 34 17 17 34 17 17 34 17 17 34 17 17 34 17 17 34 17 17 34 17 17 34 51 68 85 51 68 85 51 68 85 51 68 85 51 68 85 51 68 85 51 68 85 51 68 85 51 68 85 51 68 85 51 68 85 51 68 85 51 68 85 51 68 85 51 68 85 51 68 85 51 68 85 51 68 85 51 68 85 51 68 85 51 68 85 51 68 85 51 68 85 51 68 85 51 68 85 51 68 85 51 68 85 51 68 85 51 68 85 51 68 85 51 68 85 51 68 85 51 68 85 51 68 85 51 68 85 51 68 85 51 68 85 51 68 85 51 68 85 51 68 85 51 68 85 51 68 85 51 68 85 51 68 85 51 68 85 51 68 85 51 68 85 51 68 85 51 68 85 51 68 85 51 68 85 51 68 85 51 68 85 51 68 85 51 68 85 51 68 85 51 68 85 51 68 85 51 68 85 51 68 85 51 68 85 51 68 85 51 68 85 51 68 85 51 68 85 51 68 85 51 68 85 51 68 85 51 68 85 51 68 85 51 68 85 51 68 85 51 68 85 51 68 85 51 68 85 51 68 85 51 68 85 51 68 85 51 68 85 51 68 85 51 68 85 51 68 85
17 17 34 17 17 34 17 17 34 17 17 34 17 17 34 17 17 34 17 17 34 17 17 34 17 17 34 17 17 34 17 17 34 17 17 34 17 17 34 17 17 34 17 17 34 17 17 34 17 17 34 17 17 34 17 17 34 17 17 34 17 17 34 17 17 34 17 17 34 17 17 34 17 17 34 17 17 34 17 17 34 17 17 34 17 17 34 17 17 34 17 17 34 17 17 34 17 17 34 17 17 34 17 17 34 17 17 34 17 17 34 17 17 34 17 17 34 17 17 34 17 17 34 17 17 34 17 17 34 17 17 34 17 17 34 17 17 34 17 17 34 17 17 34 17 17 34 17 17 34 17 17 34 17 17 34 17 17 34 17 17 34 17 17 34 17 17 34 17 17 34 17 17 34 17 17 34 17 17 34 17 17 34 17 17 34 17 17 34 17 17 34 17 17 34 17 17 34 17 17 34 17 17 34 17 17 34 17 17 34 17 17 34 17 17 34 17 17 34 17 17 34 17 17 34 17 17 34 17 17 34 17 17 34 17 17 34 17 17 34 17 17 34 17 17 34 17 17 34 17 17 34 17 17 34 17 17 34 17 17 34 17 17 34 17 17 34 17 17 34 17 17 34 17 17 34 17 17 34 17 17 34 17 17 34 17 17 34 17 17 34 17 17 34 17 17 34 17 17 34 17 17 34 17 17 34 17 17 34 17 17 34 17 17 34 17 17 34 17 17 34 17 17 34 17 17 34 17 17 34 17 17 34 17 17 34 17 17 34 17 17 34 17 17 34 17 17 34 17 17 34 17 17 34 17 17 34 17 17 34 17 17 34 17 17 34 17 17 34 17 17 34 17 17 34 17 17 34 17 17 34 17 17 34 17 17 34 17 17 34 17 17 34 17 17 34 17 17 34 17 17 34 17 17 34 17 17 34 17 17 34 17 17 34 17 17 34 17 17 34 17 17 34 17 17 34 17 17 34 17 17 34 17 17 34 17 17 34 17 17 34 17 17 34 17 17 34 17 17 34 17 17 34 17 17 34 17 17 34 17 17 34 17 17 34 17 17 34 17 17 34 17 17 34 17 17 34 17 17 34 17 17 34 17 17 34 17 17 34 17 17 34 17 17 34 17 17 34 17 17 34 17 17 34 17 17 34 17 17 34 17 17 34 17 17 34 17 17 34 17 17 34 17 17 34 17 17 34 17 17 34 17 17 34 17 17 34 17 17 34 17 17 34 17 17 34 17 17 34 17 17 34 17 17 34 17 17 34 17 17 34 17 17 34 17 17 34 17 17 34 17 17 34 17 17 34 17 17 34 17 17 34 17 17 34 17 17 34 17 17 34 17 17 34 17 17 34 17 17 34 17 17 34 17 17 34 17 17 34 17 17 34 17 17 34 17 17 34 17 17 34 17 17 34 17 17 34 17 17 34 17 17 34 17 17 34 17 17 34 17 17 34 17 17 34 17 17 34 17 17 34 17 17 34 17 17 34 17 17 34 17 17 34 17 17 34 17 17 34 17 17 34 17 17 34 17 17 34 17 17 34 17 17 34 17 17 34 17 17 34 17 17 34 17 17 34 17 17 34 17 17 34 17 17 34 17 17 34 17 17 34 17 17 34 51 68 85 51 68 85 51 68 85 51 68 85 51 68 85 51 68 85 51 68 85 51 68 85 51 68 85 51 68 85 51 68 85 51 68 85 51 68 85 51 68 85 51 68 85 51 68 85 51 68 85 51 68 85 51 68 85 51 68 85 51 68 85 51 68 85 51 68 85 51 68 85 51 68 85 51 68 85 51 68 85 51 68 85 51 68 85 51 68 85 51 68 85 51 68 85 51 68 85 51 68 85 51 68 85 51 68 85 51 68 85 51 68 85 51 68 85 51 68 85 51 68 85 51 68 85 51 68 85 51 68 85 51 68 85 51 68 85 51 68 85 51 68 85 51 68 85 51 68 85 51 68 85 51 68 85 51 68 85 51 68 85 51 68 85 51 68 85 51 68 85 51 68 85 51 68 85 51 68 85 51 68 85 51 68 85 51 68 85 51 68 85 51 68 85 51 68 85 51 68 85 51 68 85 51 68 85 51 68 85 51 68 85 51 68 85 51 68 85 51 68 85 51 68 85 51 68 85 51 68 85 51 68 85 51 68 85 51 68 85 51 68 85 51 68 85
17 17 34 17 17 34 17 17 34 17 17 34 17 17 34 17 17 34 17 17 34 17 17 34 17 17 34 17 17 34 17 17 34 17 17 34 17 17 34 17 17 34 17 17 34 17 17 34 17 17 34 17 17 34 17 17 34 17 17 34 17 17 34 17 17 34 17 17 34 17 17 34 17 17 34 17 17 34 17 17 34 17 17 34 17 17 34 17 17 34 17 17 34 17 17 34 17 17 34 17 17 34 17 17 34 17 17 34 17 17 34 17 17 34 17 17 34 17 17 34 17 17 34 17 17 34 17 17 34 17 17 34 17 17 34 17 17 34 17 17 34 17 17 34 17 17 34 17 17 34 17 17 34 17 17 34 17 17 34 17 17 34 17 17 34 17 17 34 17 17 34 17 17 34 17 17 34 17 17 34 17 17 34 17 17 34 17 17 34 17 17 34 17 17 34 17 17 34 17 17 34 17 17 34 17 17 34 17 17 34 17 17 34 17 17 34 17 17 34 17 17 34 17 17 34 17 17 34 17 17 34 17 17 34 17 17 34 17 17 34 17 17 34 17 17 34 17 17 34 17 17 34 17 17 34 17 17 34 17 17 34 17 17 34 17 17 34 17 17 34 17 17 34 17 17 34 17 17 34 17 17 34 17 17 34 17 17 34 17 17 34 17 17 34 17 17 34 17 17 34 17 17 34 17 17 34 17 17 34 17 17 34 17 17 34 17 17 34 17 17 34 17 17 34 17 17 34 17 17 34 17 17 34 17 17 34 17 17 34 17 17 34 17 17 34 17 17 34 17 17 34 17 17 34 17 17 34 17 17 34 17 17 34 17 17 34 17 17 34 17 17 34 17 17 34 17 17 34 17 17 34 17 17 34 17 17 34 17 17 34 17 17 34 17 17 34 17 17 34 17 17 34 17 17 34 17 17 34 17 17 34 17 17 34 17 17 34 17 17 34 17 17 34 17 17 34 17 17 34 17 17 34 17 17 34 17 17 34 17 17 34 17 17 34 17 17 34 17 17 34 17 17 34 17 17 34 17 17 34 17 17 34 17 17 34 17 17 34 17 17 34 17 17 34 17 17 34 17 17 34 17 17 34 17 17 34 17 17 34 17 17 34 17 17 34 17 17 34 17 17 34 17 17 34 17 17 34 17 17 34 17 17 34 17 17 34 17 17 34 17 17 34 17 17 34 17 17 34 17 17 34 17 17 34 17 17 34 17 17 34 17 17 34 17 17 34 17 17 34 17 17 34 17 17 34 17 17 34 17 17 34 17 17 34 17 17 34 17 17 34 17 17 34 17 17 34 17 17 34 17 17 34 17 17 34 17 17 34 17 17 34 17 17 34 17 17 34 17 17 34 17 17 34 17 17 34 17 17 34 17 17 34 17 17 34 17 17 34 17 17 34 17 17 34 17 17 34 17 17 34 17 17 34 17 17 34 17 17 34 17 17 34 17 17 34 17 17 34 17 17 34 17 17 34 17 17 34 17 17 34 17 17 34 17 17 34 17 17 34 17 17 34 17 17 34 17 17 34 17 17 34 17 17 34 17 17 34 17 17 34 17 17 34 17 17 34 17 17 34 17 17 34 17 17 34 17 17 34 17 17 34 17 17 34 17 17 34 17 17 34 17 17 34 17 17 34 17 17 34 17 17 34 17 17 34 17 17 34 17 17 34 17 17 34 17 17 34 17 17 34 17 17 34 17 17 34 17 17 34 17 17 34 17 17 34 17 17 34 17 17 34 17 17 34 17 17 34 17 17 34 17 17 34 17 17 34 17 17 34 17 17 34 17 17 34 17 17 34 17 17 34 17 17 34 17 17 34 17 17 34 17 17 34 17 17 34 17 17 34 17 17 34 17 17 34 17 17 34 17 17 34 17 17 34 17 17 34 17 17 34 17 17 34 17 17 34 17 17 34 17 17 34 17 17 34 17 17 34 17 17 34 17 17 34 17 17 34 17 17 34 17 17 34 17 17 34 17 17 34 17 17 34 17 17 34 17 17 34 17 17 34 17 17 34 17 17 34 17 17 34 17 17 34 17 17 34 17 17 34 17 17 34 17 17 34 17 17 34 17 17 34 17 17 34 17 17 34 17 17 34 17 17 34 17 17 34 17 17 34 17 17 34 17 17 34 17 17 34 17 17 34 17 17 34 17 17 34 17 17 34
17 17 34 17 17 34 17 17 34 17 17 34 17 17 34 17 17 34 17 17 34 17 17 34 17 17 34 17 17 34 17 17 34 17 17 34 17 17 34 17 17 34 17 17 34 17 17 34 17 17 34 17 17 34 17 17 34 17 17 34 17 17 34 17 17 34 17 17 34 17 17 34 17 17 34 17 17 34 17 17 34 17 17 34 17 17 34 17 17 34 17 17 34 17 17 34 17 17 34 17 17 34 17 17 34 17 17 34 17 17 34 17 17 34 17 17 34 17 17 34 17 17 34 17 17 34 17 17 34 17 17 34 17 17 34 17 17 34 17 17 34 17 17 34 17 17 34 17 17 34 17 17 34 17 17 34 17 17 34 17 17 34 17 17 34 17 17 34 17 17 34 17 17 34 17 17 34 17 17 34 17 17 34 17 17 34 17 17 34 17 17 34 17 17 34 17 17 34 17 17 34 17 17 34 17 17 34 17 17 34 17 17 34 17 17 34 17 17 34 17 17 34 17 17 34 17 17 34 17 17 34 17 17 34 17 17 34 17 17 34 17 17 34 17 17 34 17 17 34 17 17 34 17 17 34 17 17 34 17 17 34 17 17 34 17 17 34 17 17 34 17 17 34 17 17 34 17 17 34 17 17 34 17 17 34 17 17 34 17 17 34 17 17 34 17 17 34 17 17 34 17 17 34 17 17 34 17 17 34 17 17 34 17 17 34 17 17 34 17 17 34 17 17 34 17 17 34 17 17 34 17 17 34 17 17 34 17 17 34 17 17 34 17 17 34 17 17 34 17 17 34 17 17 34 17 17 34 17 17 34 17 17 34 17 17 34 17 17 34 17 17 34 17 17 34 17 17 34 17 17 34 17 17 34 17 17 34 17 17 34 17 17 34 17 17 34 17 17 34 17 17 34 17 17 34 17 17 34 17 17 34 17 17 34 17 17 34 17 17 34 17 17 34 17 17 34 17 17 34 17 17 34 17 17 34 17 17 34 17 17 34 17 17 34 17 17 34 17 17 34 17 17 34 17 17 34 17 17 34 17 17 34 17 17 34 17 17 34 17 17 34 17 17 34 17 17 34 17 17 34 17 17 34 17 17 34 17 17 34 17 17 34 17 17 34 17 17 34 17 17 34 17 17 34 17 17 34 17 17 34 17 17 34 17 17 34 17 17 34 17 17 34 17 17 34 17 17 34 17 17 34 17 17 34 17 17 34 17 17 34 17 17 34 17 17 34 17 17 34 17 17 34 17 17 34 17 17 34 17 17 34 17 17 34 17 17 34 17 17 34 17 17 34 17 17 34 17 17 34 17 17 34 17 17 34 17 17 34 17 17 34 17 17 34 17 17 34 17 17 34 17 17 34 17 17 34 17 17 34 17 17 34 17 17 34 17 17 34 17 17 34 17 17 34 17 17 34 17 17 34 17 17 34 17 17 34 17 17 34 17 17 34 17 17 34 17 17 34 17 17 34 17 17 34 17 17 34 17 17 34 17 17 34 17 17 34 17 17 34 17 17 34 17 17 34 17 17 34 17 17 34 17 17 34 17 17 34 17 17 34 17 17 34 17 17 34 17 17 34 17 17 34 17 17 34 17 17 34 17 17 34 17 17 34 17 17 34 17 17 34 17 17 34 17 17 34 17 17 34 17 17 34 17 17 34 17 17 34 17 17 34 17 17 34 17 17 34 17 17 34 17 17 34 17 17 34 17 17 34 17 17 34 17 17 34 17 17 34 17 17 34 17 17 34 17 17 34 17 17 34 17 17 34 17 17 34 17 17 34 17 17 34 17 17 34 17 17 34 17 17 34 17 17 34 17 17 34 17 17 34 17 17 34 17 17 34 17 17 34 17 17 34 17 17 34 17 17 34 17 17 34 17 17 34 17 17 34 17 17 34 17 17 34 17 17 34 17 17 34 17 17 34 17 17 34 17 17 34 17 17 34 17 17 34 17 17 34 17 17 34 17 17 34 17 17 34 17 17 34 17 17 34 17 17 34 17 17 34 17 17 34 17 17 34 17 17 34 17 17 34 17 17 34 17 17 34 17 17 34 17 17 34 17 17 34 17 17 34 17 17 34 17 17 34 17 17 34 17 17 34 17 17 34 17 17 34 17 17 34 17 17 34 17 17 34 17 17 34 17 17 34 17 17 34 17 17 34 17 17 34
17 17 34 17 17 34 17 17 34 17 17 34 17 17 34 17 17 34 17 17 34 17 17 34 17 17 34 17 17 34 17 17 34 17 17 34 17 17 34 17 17 34 17 17 34 17 17 34 17 17 34 17 17 34 17 17 34 17 17 34 17 17 34 17 17 34 17 17 34 17 17 34 17 17 34 17 17 34 17 17 34 17 17 34 17 17 34 17 17 34 17 17 34 17 17 34 17 17 34 17 17 34 17 17 34 17 17 34 17 17 34 17 17 34 17 17 34 17 17 34 17 17 34 17 17 34 17 17 34 17 17 34 17 17 34 17 17 34 17 17 34 17 17 34 17 17 34 17 17 34 17 17 34 17 17 34 17 17 34 17 17 34 17 17 34 17 17 34 17 17 34 17 17 34 17 17 34 17 17 34 17 17 34 17 17 34 17 17 34 17 17 34 17 17 34 17 17 34 17 17 34 17 17 34 17 17 34 17 17 34 17 17 34 17 17 34 17 17 34 17 17 34 17 17 34 17 17 34 17 17 34 17 17 34 17 17 34 17 17 34 17 17 34 17 17 34 17 17 34 17 17 34 17 17 34 17 17 34 17 17 34 17 17 34 17 17 34 17 17 34 17 17 34 17 17 34 17 17 34 17 17 34 17 17 34 17 17 34 17 17 34 17 17 34 17 17 34 17 17 34 17 17 34 17 17 34 17 17 34 17 17 34 17 17 34 17 17 34 17 17 34 17 17 34 17 17 34 17 17 34 17 17 34 17 17 34 17 17 34 17 17 34 17 17 34 17 17 34 17 17 34 17 17 34 17 17 34 17 17 34 17 17 34 17 17 34 17 17 34 17 17 34 17 17 34 17 17 34 17 17 34 17 17 34 17 17 34 17 17 34 17 17 34 17 17 34 17 17 34 17 17 34 17 17 34 17 17 34 17 17 34 17 17 34 17 17 34 17 17 34 17 17 34 17 17 34 17 17 34 17 17 34 17 17 34 17 17 34 17 17 34 17 17 34 17 17 34 17 17 34 17 17 34 17 17 34 17 17 34 17 17 34 17 17 34 17 17 34 17 17 34 17 17 34 17 17 34 17 17 34 17 17 34 17 17 34 17 17 34 17 17 34 17 17 34 17 17 34 17 17 34 17 17 34 17 17 34 17 17 34 17 17 34 17 17 34 17 17 34 17 17 34 17 17 34 17 17 34 17 17 34 17 17 34 17 17 34 17 17 34 17 17 34 17 17 34 17 17 34 17 17 34 17 17 34 17 17 34 17 17 34 17 17 34 17 17 34 17 17 34 17 17 34 17 17 34 17 17 34 17 17 34 17 17 34 17 17 34 17 17 34 17 17 34 17 17 34 17 17 34 17 17 34 17 17 34 17 17 34 17 17 34 17 17 34 17 17 34 17 17 34 17 17 34 17 17 34 17 17 34 17 17 34 17 17 34 17 17 34 17 17 34 17 17 34 17 17 34 17 17 34 17 17 34 17 17 34 17 17 34 17 17 34 17 17 34 17 17 34 17 17 34 17 17 34 17 17 34 17 17 34 17 17 34 17 17 34 17 17 34 17 17 34 17 17 34 17 17 34 17 17 34 17 17 34 17 17 34 17 17 34 17 17 34 17 17 34 17 17 34 17 17 34 17 17 34 17 17 34 17 17 34 17 17 34 17 17 34 17 17 34 17 17 34 17 17 34 17 17 34 17 17 34 17 17 34 17 17 34 17 17 34 17 17 34 17 17 34 17 17 34 17 17 34 17 17 34 17 17 34 17 17 34 17 17 34 17 17 34 17 17 34 17 17 34 17 17 34 17 17 34 17 17 34 17 17 34 17 17 34 17 17 34 17 17 34 17 17 34 17 17 34 17 17 34 17 17 34 17 17 34 17 17 34 17 17 34 17 17 34 17 17 34 17 17 34 17 17 34 17 17 34 17 17 34 17 17 34 17 17 34 17 17 34 17 17 34 17 17 34 17 17 34 17 17 34 17 17 34 17 17 34 17 17 34 17 17 34 17 17 34 17 17 34 17 17 34 17 17 34 17 17 34 17 17 34 17 17 34 17 17 34 17 17 34 17 17 34 17 17 34 17 17 34 17 17 34 17 17 34 17 17 34 17 17 34 17 17 34 17 17 34 17 17 34 17 17 34 17 17 34 17 17 34 17 17 34 17 17 34
17 17 34 17 17 34 17 17 34 17 17 34 17 17 34 17 17 34 17 17 34 17 17 34 17 17 34 17 17 34 17 17 34 17 17 34 17 17 34 17 17 34 17 17 34 17 17 34 17 17 34 17 17 34 17 17 34 17 17 34 17 17 34 17 17 34 17 17 34 17 17 34 17 17 34 17 17 34 17 17 34 17 17 34 17 17 34 17 17 34 17 17 34 17 17 34 17 17 34 17 17 34 17 17 34 17 17 34 17 17 34 17 17 34 17 17 34 17 17 34 17 17 34 17 17 34 17 17 34 17 17 34 17 17 34 17 17 34 17 17 34 17 17 34 17 17 34 17 17 34 17 17 34 17 17 34 17 17 34 17 17 34 17 17 34 17 17 34 17 17 34 17 17 34 17 17 34 17 17 34 17 17 34 17 17 34 17 17 34 17 17 34 17 17 34 17 17 34 17 17 34 17 17 34 17 17 34 17 17 34 17 17 34 17 17 34 17 17 34 17 17 34 17 17 34 17 17 34 17 17 34 17 17 34 17 17 34 17 17 34 17 17 34 17 17 34 17 17 34 17 17 34 17 17 34 17 17 34 17 17 34 17 17 34 17 17 34 17 17 34 17 17 34 17 17 34 17 17 34 17 17 34 17 17 34 17 17 34 17 17 34 17 17 34 17 17 34 17 17 34 17 17 34 17 17 34 17 17 34 17 17 34 17 17 34 17 17 34 17 17 34 17 17 34 17 17 34 17 17 34 17 17 34 17 17 34 17 17 34 17 17 34 17 17 34 17 17 34 17 17 34 17 17 34 17 17 34 17 17 34 17 17 34 17 17 34 17 17 34 17 17 34 17 17 34 17 17 34 17 17 34 17 17 34 17 17 34 17 17 34 17 17 34 17 17 34 17 17 34 17 17 34 17 17 34 17 17 34 17 17 34 17 17 34 17 17 34 17 17 34 17 17 34 17 17 34 17 17 34 17 17 34 17 17 34 17 17 34 17 17 34 17 17 34 17 17 34 17 17 34 17 17 34 17 17 34 17 17 34 17 17 34 17 17 34 17 17 34 17 17 34 17 17 34 17 17 34 17 17 34 17 17 34 17 17 34 17 17 34 17 17 34 17 17 34 17 17 34 17 17 34 17 17 34 17 17 34 17 17 34 17 17 34 17 17 34 17 17 34 17 17 34 17 17 34 17 17 34 17 17 34 17 17 34 17 17 34 17 17 34 17 17 34 17 17 34 17 17 34 17 17 34 17 17 34 17 17 34 17 17 34 17 17 34 17 17 34 17 17 34 17 17 34 17 17 34 17 17 34 17 17 34 17 17 34 17 17 34 17 17 34 17 17 34 17 17 34 17 17 34 17 17 34 17 17 34 17 17 34 17 17 34 17 17 34 17 17 34 17 17 34 17 17 34 17 17 34 17 17 34 17 17 34 17 17 34 17 17 34 17 17 34 17 17 34 17 17 34 17 17 34 17 17 34 17 17 34 17 17 34 17 17 34 17 17 34 17 17 34 17 17 34 17 17 34 17 17 34 17 17 34 17 17 34 17 17 34 17 17 34 17 17 34 17 17 34 17 17 34 17 17 34 17 17 34 17 17 34 17 17 34 17 17 34 17 17 34 17 17 34 17 17 34 17 17 34 17 17 34 17 17 34 17 17 34 17 17 34 17 17 34 17 17 34 17 17 34 17 17 34 17 17 34 17 17 34 17 17 34 17 17 34 17 17 34 17 17 34 17 17 34 17 17 34 17 17 34 17 17 34 17 17 34 17 17 34 17 17 34 17 17 34 17 17 34 17 17 34 17 17 34 17 17 34 17 17 34 17 17 34 17 17 34 17 17 34 17 17 34 17 17 34 17 17 34 17 17 34 17 17 34 17 17 34 17 17 34 17 17 34 17 17 34 17 17 34 17 17 34 17 17 34 17 17 34 17 17 34 17 17 34 17 17 34 17 17 34 17 17 34 17 17 34 17 17 34 17 17 34 17 17 34 17 17 34 17 17 34 17 17 34 17 17 34 17 17 34 17 17 34 17 17 34 17 17 34 17 17 34 17 17 34 17 17 34 17 17 34 17 17 34 17 17 34 17 17 34 17 17 34 17 17 34 17 17 34 17 17 34 17 17 34 17 17 34 17 17 34 17 17 34 17 17 34 17 17 34 17 17 34
34 34 51 34 34 51 34 34 51 34 34 51 34 34 51 34 34 51 34 34 51 34 34 51 34 34 51 34 34 51 34 34 51 34 34 51 34 34 51 34 34 51 34 34 51 34 34 51 34 34 51 34 34 51 34 34 51 34 34 51 34 34 51 34 34 51 34 34 51 34 34 51 34 34 51 34 34 51 34 34 51 34 34 51 34 34 51 34 34 51 34 34 51 34 34 51 34 34 51 34 34 51 34 34 51 34 34 51 34 34 51 34 34 51 34 34 51 34 34 51 34 34 51 34 34 51 34 34 51 34 34 51 34 34 51 34 34 51 34 34 51 34 34 51 34 34 51 34 34 51 34 34 51 34 34 51 34 34 51 34 34 51 34 34 51 34 34 51 34 34 51 34 34 51 34 34 51 34 34 51 34 34 51 34 34 51 34 34 51 34 34 51 34 34 51 34 34 51 34 34 51 34 34 51 34 34 51 34 34 51 34 34 51 34 34 51 34 34 51 34 34 51 34 34 51 34 34 51 34 34 51 34 34 51 34 34 51 34 34 51 34 34 51 34 34 51 34 34 51 34 34 51 34 34 51 34 34 51 34 34 51 34 34 51 34 34 51 34 34 51 34 34 51 34 34 51 34 34 51 34 34 51 34 34 51 34 34 51 34 34 51 34 34 51 34 34 51 34 34 51 34 34 51 34 34 51 34 34 51 34 34 51 34 34 51 34 34 51 34 34 51 34 34 51 34 34 51 34 34 51 34 34 51 34 34 51 34 34 51 34 34 51 34 34 51 34 34 51 34 34 51 34 34 51 34 34 51 34 34 51 34 34 51 34 34 51 34 34 51 34 34 51 34 34 51 34 34 51 34 34 51 34 34 51 34 34 51 34 34 51 34 34 51 34 34 51 34 34 51 34 34 51 34 34 51 34 34 51 34 34 51 34 34 51 34 34 51 34 34 51 34 34 51 34 34 51 34 34 51 34 34 51 34 34 51 34 34 51 34 34 51 34 34 51 34 34 51 34 34 51 34 34 51 34 34 51 34 34 51 34 34 51 34 34 51 34 34 51 34 34 51 34 34 51 34 34 51 34 34 51 34 34 51 34 34 51 34 34 51 34 34 51 34 34 51 34 34 51 34 34 51 34 34 51 34 34 51 34 34 51 34 34 51 34 34 51 34 34 51 34 34 51 34 34 51 34 34 51 34 34 51 34 34 51 34 34 51 34 34 51 34 34 51 34 34 51 34 34 51 34 34 51 34 34 51 34 34 51 34 34 51 34 34 51 34 34 51 34 34 51 34 34 51 34 34 51 34 34 51 34 34 51 34 34 51 34 34 51 34 34 51 34 34 51 34 34 51 34 34 51 34 34 51 34 34 51 34 34 51 34 34 51 34 34 51 34 34 51 34 34 51 34 34 51 34 34 51 34 34 51 34 34 51 34 34 51 34 34 51 34 34 51 34 34 51 34 34 51 34 34 51 34 34 51 34 34 51 34 34 51 34 34 51 34 34 51 34 34 51 34 34 51 34 34 51 34 34 51 34 34 51 34 34 51 34 34 51 34 34 51 34 34 51 34 34 51 34 34 51 34 34 51 34 34 51 34 34 51 34 34 51 34 34 51 34 34 51 34 34 51 34 34 51 34 34 51 34 34 51 34 34 51 34 34 51 34 34 51 34 34 51 34 34 51 34 34 51 34 34 51 34 34 51 34 34 51 34 34 51 34 34 51 34 34 51 34 34 51 34 34 51 34 34 51 34 34 51 34 34 51 34 34 51 34 34 51 34 34 51 34 34 51 34 34 51 34 34 51 34 34 51 34 34 51 34 34 51 34 34 51 34 34 51 34 34 51 34 34 51 34 34 51 34 34 51 34 34 51 34 34 51 34 34 51 34 34 51 34 34 51 34 34 51 34 34 51 34 34 51 34 34 51 34 34 51 34 34 51 34 34 51 34 34 51 34 34 51 34 34 51 34 34 51 34 34 51 34 34 51 34 34 51 34 34 51 34 34 51 34 34 51 34 34 51 34 34 51 34 34 51 34 34 51 34 34 51 34 34 51 34 34 51 34 34 51 34 34 51 34 34 51 34 34 51 34 34 51 34 34 51 34 34 51 34 34 51 34 34 51 34 34 51 34 34 51 34 34 51 34 34 51 34 34 51 34 34 51 34 34 51
34 34 51 34 34 51 34 34 51 34 34 51 34 34 51 34 34 51 34 34 51 34 34 51 34 34 51 34 34 51 34 34 51 34 34 51 34 34 51 34 34 51 34 34 51 34 34 51 34 34 51 34 34 51 34 34 51 34 34 51 34 34 51 34 34 51 34 34 51 34 34 51 34 34 51 34 34 51 34 34 51 34 34 51 34 34 51 34 34 51 34 34 51 34 34 51 34 34 51 34 34 51 34 34 51 34 34 51 34 34 51 34 34 51 34 34 51 34 34 51 34 34 51 34 34 51 34 34 51 34 34 51 34 34 51 34 34 51 34 34 51 34 34 51 34 34 51 34 34 51 34 34 51 34 34 51 34 34 51 34 34 51 34 34 51 34 34 51 34 34 51 34 34 51 34 34 51 34 34 51 34 34 51 34 34 51 34 34 51 34 34 51 34 34 51 34 34 51 34 34 51 34 34 51 34 34 51 34 34 51 34 34 51 34 34 51 34 34 51 34 34 51 34 34 51 34 34 51 34 34 51 34 34 51 34 34 51 34 34 51 34 34 51 34 34 51 34 34 51 34 34 51 34 34 51 34 34 51 34 34 51 34 34 51 34 34 51 34 34 51 34 34 51 34 34 51 34 34 51 34 34 51 34 34 51 34 34 51 34 34 51 34 34 51 34 34 51 34 34 51 34 34 51 34 34 51 34 34 51 34 34 51 34 34 51 34 34 51 34 34 51 34 34 51 34 34 51 34 34 51 34 34 51 34 34 51 34 34 51 34 34 51 34 34 51 34 34 51 34 34 51 34 34 51 34 34 51 34 34 51 34 34 51 34 34 51 34 34 51 34 34 51 34 34 51 34 34 51 34 34 51 34 34 51 34 34 51 34 34 51 34 34 51 34 34 51 34 34 51 34 34 51 34 34 51 34 34 51 34 34 51 34 34 51 34 34 51 34 34 51 34 34 51 34 34 51 34 34 51 34 34 51 34 34 51 34 34 51 34 34 51 34 34 51 34 34 51 34 34 51 34 34 51 34 34 51 34 34 51 34 34 51 34 34 51 34 34 51 34 34 51 34 34 51 34 34 51 34 34 51 34 34 51 34 34 51 34 34 51 34 34 51 34 34 51 34 34 51 34 34 51 34 34 51 34 34 51 34 34 51 34 34 51 34 34 51 34 34 51 34 34 51 34 34 51 34 34 51 34 34 51 34 34 51 34 34 51 34 34 51 34 34 51 34 34 51 34 34 51 34 34 51 34 34 51 34 34 51 34 34 51 34 34 51 34 34 51 34 34 51 34 34 51 34 34 51 34 34 51 34 34 51 34 34 51 34 34 51 34 34 51 34 34 51 34 34 51 34 34 51 34 34 51 34 34 51 34 34 51 34 34 51 34 34 51 34 34 51 34 34 51 34 34 51 34 34 51 34 34 51 34 34 51 34 34 51 34 34 51 34 34 51 34 34 51 34 34 51 34 34 51 34 34 51 34 34 51 34 34 51 34 34 51 34 34 51 34 34 51 34 34 51 34 34 51 34 34 51 34 34 51 34 34 51 34 34 51 34 34 51 34 34 51 34 34 51 34 34 51 34 34 51 34 34 51 34 34 51 34 34 51 34 34 51 34 34 51 34 34 51 34 34 51 34 34 51 34 34 51 34 34 51 34 34 51 34 34 51 34 34 51 34 34 51 34 34 51 34 34 51 34 34 51 34 34 51 34 34 51 34 34 51 34 34 51 34 34 51 34 34 51 34 34 51 34 34 51 34 34 51 34 34 51 34 34 51 34 34 51 34 34 51 34 34 51 34 34 51 34 34 51 34 34 51 34 34 51 34 34 51 34 34 51 34 34 51 34 34 51 34 34 51 34 34 51 34 34 51 34 34 51 34 34 51 34 34 51 34 34 51 34 34 51 34 34 51 34 34 51 34 34 51 34 34 51 34 34 51 34 34 51 34 34 51 34 34 51 34 34 51 34 34 51 34 34 51 34 34 51 34 34 51 34 34 51 34 34 51 34 34 51 34 34 51 34 34 51 34 34 51 34 34 51 34 34 51 34 34 51 34 34 51 34 34 51 34 34 51 34 34 51 34 34 51 34 34 51 34 34 51 34 34 51 34 34 51 34 34 51 34 34 51 34 34 51 34 34 51 34 34 51 34 34 51 34 34 51 34 34 51
34 34 51 34 34 51 34 34 51 34 34 51 34 34 51 34 34 51 34 34 51 34 34 51 34 34 51 34 34 51 34 34 51 34 34 51 34 34 51 34 34 51 34 34 51 34 34 51 34 34 51 34 34 51 34 34 51 34 34 51 34 34 51 34 34 51 34 34 51 34 34 51 34 34 51 34 34 51 34 34 51 34 34 51 34 34 51 34 34 51 34 34 51 34 34 51 34 34 51 34 34 51 34 34 51 34 34 51 34 34 51 34 34 51 34 34 51 34 34 51 34 34 51 34 34 51 34 34 51 34 34 51 34 34 51 34 34 51 34 34 51 34 34 51 34 34 51 34 34 51 34 34 51 34 34 51 34 34 51 34 34 51 34 34 51 34 34 51 34 34 51 34 34 51 34 34 51 34 34 51 34 34 51 34 34 51 34 34 51 34 34 51 34 34 51 34 34 51 34 34 51 34 34 51 34 34 51 34 34 51 34 34 51 34 34 51 34 34 51 34 34 51 34 34 51 34 34 51 34 34 51 34 34 51 34 34 51 34 34 51 34 34 51 34 34 51 34 34 51 34 34 51 34 34 51 34 34 51 34 34 51 34 34 51 34 34 51 34 34 51 34 34 51 34 34 51 34 34 51 34 34 51 34 34 51 34 34 51 34 34 51 34 34 51 34 34 51 34 34 51 34 34 51 34 34 51 34 34 51 34 34 51 34 34 51 34 34 51 34 34 51 34 34 51 34 34 51 34 34 51 34 34 51 34 34 51 34 34 51 34 34 51 34 34 51 34 34 51 34 34 51 34 34 51 34 34 51 34 34 51 34 34 51 34 34 51 34 34 51 34 34 51 34 34 51 34 34 51 34 34 51 34 34 51 34 34 51 34 34 51 34 34 51 34 34 51 34 34 51 34 34 51 34 34 51 34 34 51 34 34 51 34 34 51 34 34 51 34 34 51 34 34 51 34 34 51 34 34 51 34 34 51 34 34 51 34 34 51 34 34 51 34 34 51 34 34 51 34 34 51 34 34 51 34 34 51 34 34 51 34 34 51 34 34 51 34 34 51 34 34 51 34 34 51 34 34 51 34 34 51 34 34 51 34 34 51 34 34 51 34 34 51 34 34 51 34 34 51 34 34 51 34 34 51 34 34 51 34 34 51 34 34 51 34 34 51 34 34 51 34 34 51 34 34 51 34 34 51 34 34 51 34 34 51 34 34 51 34 34 51 34 34 51 34 34 51 34 34 51 34 34 51 34 34 51 34 34 51 34 34 51 34 34 51 34 34 51 34 34 51 34 34 51 34 34 51 34 34 51 34 34 51 34 34 51 34 34 51 34 34 51 34 34 51 34 34 51 34 34 51 34 34 51 34 34 51 34 34 51 34 34 51 34 34 51 34 34 51 34 34 51 34 34 51 34 34 51 34 34 51 34 34 51 34 34 51 34 34 51 34 34 51 34 34 51 34 34 51 34 34 51 34 34 51 34 34 51 34 34 51 34 34 51 34 34 51 34 34 51 34 34 51 34 34 51 34 34 51 34 34 51 34 34 51 34 34 51 34 34 51 34 34 51 34 34 51 34 34 51 34 34 51 34 34 51 34 34 51 34 34 51 34 34 51 34 34 51 34 34 51 34 34 51 34 34 51 34 34 51 34 34 51 34 34 51 34 34 51 34 34 51 34 34 51 34 34 51 34 34 51 34 34 51 34 34 51 34 34 51 34 34 51 34 34 51 34 34 51 34 34 51 34 34 51 34 34 51 34 34 51 34 34 51 34 34 51 34 34 51 34 34 51 34 34 51 34 34 51 34 34 51 34 34 51 34 34 51 34 34 51 34 34 51 34 34 51 34 34 51 34 34 51 34 34 51 34 34 51 34 34 51 34 34 51 34 34 51 34 34 51 34 34 51 34 34 51 34 34 51 34 34 51 34 34 51 34 34 51 34 34 51 34 34 51 34 34 51 34 34 51 34 34 51 34 34 51 34 34 51 34 34 51 34 34 51 34 34 51 34 34 51 34 34 51 34 34 51 34 34 51 34 34 51 34 34 51 34 34 51 34 34 51 34 34 51 34 34 51 34 34 51 34 34 51 34 34 51 34 34 51 34 34 51 34 34 51 34 34 51 34 34 51 34 34 51 34 34 51 34 34 51 34 34 51 34 34 51 34 34 51
34 34 51 34 34 51 34 34 51 34 34 51 34 34 51 34 34 51 34 34 51 34 34 51 34 34 51 34 34 51 34 34 51 34 34 51 34 34 51 34 34 51 34 34 51 34 34 51 34 34 51 34 34 51 34 34 51 34 34 51 34 34 51 34 34 51 34 34 51 34 34 51 34 34 51 34 34 51 34 34 51 34 34 51 34 34 51 34 34 51 34 34 51 34 34 51 34 34 51 34 34 51 34 34 51 34 34 51 34 34 51 34 34 51 34 34 51 34 34 51 34 34 51 34 34 51 34 34 51 34 34 51 34 34 51 34 34 51 34 34 51 34 34 51 34 34 51 34 34 51 34 34 51 34 34 51 34 34 51 34 34 51 34 34 51 34 34 51 34 34 51 34 34 51 34 34 51 34 34 51 34 34 51 34 34 51 34 34 51 34 34 51 34 34 51 34 34 51 34 34 51 34 34 51 34 34 51 34 34 51 34 34 51 34 34 51 34 34 51 34 34 51 34 34 51 34 34 51 34 34 51 34 34 51 34 34 51 34 34 51 34 34 51 34 34 51 34 34 51 34 34 51 34 34 51 34 34 51 34 34 51 34 34 51 34 34 51 34 34 51 34 34 51 34 34 51 34 34 51 34 34 51 34 34 51 34 34 51 34 34 51 34 34 51 34 34 51 34 34 51 34 34 51 34 34 51 34 34 51 34 34 51 34 34 51 34 34 51 34 34 51 34 34 51 34 34 51 34 34 51 34 34 51 34 34 51 34 34 51 34 34 51 34 34 51 34 34 51 34 34 51 34 34 51 34 34 51 34 34 51 34 34 51 34 34 51 34 34 51 34 34 51 34 34 51 34 34 51 34 34 51 34 34 51 34 34 51 34 34 51 34 34 51 34 34 51 34 34 51 34 34 51 34 34 51 34 34 51 34 34 51 34 34 51 34 34 51 34 34 51 34 34 51 34 34 51 34 34 51 34 34 51 34 34 51 34 34 51 34 34 51 34 34 51 34 34 51 34 34 51 34 34 51 34 34 51 34 34 51 34 34 51 34 34 51 34 34 51 34 34 51 34 34 51 34 34 51 34 34 51 34 34 51 34 34 51 34 34 51 34 34 51 34 34 51 34 34 51 34 34 51 34 34 51 34 34 51 34 34 51 34 34 51 34 34 51 34 34 51 34 34 51 34 34 51 34 34 51 34 34 51 34 34 51 34 34 51 34 34 51 34 34 51 34 34 51 34 34 51 34 34 51 34 34 51 34 34 51 34 34 51 34 34 51 34 34 51 34 34 51 34 34 51 34 34 51 34 34 51 34 34 51 34 34 51 34 34 51 34 34 51 34 34 51 34 34 51 34 34 51 34 34 51 34 34 51 34 34 51 34 34 51 34 34 51 34 34 51 34 34 51 34 34 51 34 34 51 34 34 51 34 34 51 34 34 51 34 34 51 34 34 51 34 34 51 34 34 51 34 34 51 34 34 51 34 34 51 34 34 51 34 34 51 34 34 51 34 34 51 34 34 51 34 34 51 34 34 51 34 34 51 34 34 51 34 34 51 34 34 51 34 34 51 34 34 51 34 34 51 34 34 51 34 34 51 34 34 51 34 34 51 34 34 51 34 34 51 34 34 51 34 34 51 34 34 51 34 34 51 34 34 51 34 34 51 34 34 51 34 34 51 34 34 51 34 34 51 34 34 51 34 34 51 34 34 51 34 34 51 34 34 51 34 34 51 34 34 51 34 34 51 34 34 51 34 34 51 34 34 51 34 34 51 34 34 51 34 34 51 34 34 51 34 34 51 34 34 51 34 34 51 34 34 51 34 34 51 34 34 51 34 34 51 34 34 51 34 34 51 34 34 51 34 34 51 34 34 51 34 34 51 34 34 51 34 34 51 34 34 51 34 34 51 34 34 51 34 34 51 34 34 51 34 34 51 34 34 51 34 34 51 34 34 51 34 34 51 34 34 51 34 34 51 34 34 51 34 34 51 34 34 51 34 34 51 34 34 51 34 34 51 34 34 51 34 34 51 34 34 51 34 34 51 34 34 51 34 34 51 34 34 51 34 34 51 34 34 51 34 34 51 34 34 51 34 34 51 34 34 51 34 34 51 34 34 51 34 34 51 34 34 51 34 34 51 34 34 51 34 34 51 34 34 51 34 34 51 34 34 51
34 34 51 34 34 51 34 34 51 34 34 51 34 34 51 34 34 51 34 34 51 34 34 51 34 34 51 34 34 51 34 34 51 34 34 51 34 34 51 34 34 51 34 34 51 34 34 51 34 34 51 34 34 51 34 34 51 34 34 51 34 34 51 34 34 51 34 34 51 34 34 51 34 34 51 34 34 51 34 34 51 34 34 51 34 34 51 34 34 51 34 34 51 34 34 51 34 34 51 34 34 51 34 34 51 34 34 51 34 34 51 34 34 51 34 34 51 34 34 51 34 34 51 34 34 51 34 34 51 34 34 51 34 34 51 34 34 51 34 34 51 34 34 51 34 34 51 34 34 51 34 34 51 34 34 51 34 34 51 34 34 51 34 34 51 34 34 51 34 34 51 34 34 51 34 34 51 34 34 51 34 34 51 34 34 51 34 34 51 34 34 51 34 34 51 34 34 51 34 34 51 34 34 51 34 34 51 34 34 51 34 34 51 34 34 51 34 34 51 34 34 51 34 34 51 34 34 51 34 34 51 34 34 51 34 34 51 34 34 51 34 34 51 34 34 51 34 34 51 34 34 51 34 34 51 34 34 51 34 34 51 34 34 51 34 34 51 34 34 51 34 34 51 34 34 51 34 34 51 34 34 51 34 34 51 34 34 51 34 34 51 34 34 51 34 34 51 34 34 51 34 34 51 34 34 51 34 34 51 34 34 51 34 34 51 34 34 51 34 34 51 34 34 51 34 34 51 34 34 51 34 34 51 34 34 51 34 34 51 34 34 51 34 34 51 34 34 51 34 34 51 34 34 51 34 34 51 34 34 51 34 34 51 34 34 51 34 34 51 34 34 51 34 34 51 34 34 51 34 34 51 34 34 51 34 34 51 34 34 51 34 34 51 34 34 51 34 34 51 34 34 51 34 34 51 34 34 51 34 34 51 34 34 51 34 34 51 34 34 51 34 34 51 34 34 51 34 34 51 34 34 51 34 34 51 34 34 51 34 34 51 34 34 51 34 34 51 34 34 51 34 34 51 34 34 51 34 34 51 34 34 51 34 34 51 34 34 51 34 34 51 34 34 51 34 34 51 34 34 51 34 34 51 34 34 51 34 34 51 34 34 51 34 34 51 34 34 51 34 34 51 34 34 51 34 34 51 34 34 51 34 34 51 34 34 51 34 34 51 34 34 51 34 34 51 34 34 51 34 34 51 34 34 51 34 34 51 34 34 51 34 34 51 34 34 51 34 34 51 34 34 51 34 34 51 34 34 51 34 34 51 34 34 51 34 34 51 34 34 51 34 34 51 34 34 51 34 34 51 34 34 51 34 34 51 34 34 51 34 34 51 34 34 51 34 34 51 34 34 51 34 34 51 34 34 51 34 34 51 34 34 51 34 34 51 34 34 51 34 34 51 34 34 51 34 34 51 34 34 51 34 34 51 34 34 51 34 34 51 34 34 51 34 34 51 34 34 51 34 34 51 34 34 51 34 34 51 34 34 51 34 34 51 34 34 51 34 34 51 34 34 51 34 34 51 34 34 51 34 34 51 34 34 51 34 34 51 34 34 51 34 34 51 34 34 51 34 34 51 34 34 51 34 34 51 34 34 51 34 34 51 34 34 51 34 34 51 34 34 51 34 34 51 34 34 51 34 34 51 34 34 51 34 34 51 34 34 51 34 34 51 34 34 51 34 34 51 34 34 51 34 34 51 34 34 51 34 34 51 34 34 51 34 34 51 34 34 51 34 34 51 34 34 51 34 34 51 34 34 51 34 34 51 34 34 51 34 34 51 34 34 51 34 34 51 34 34 51 34 34 51 34 34 51 34 34 51 34 34 51 34 34 51 34 34 51 34 34 51 34 34 51 34 34 51 34 34 51 34 34 51 34 34 51 34 34 51 34 34 51 34 34 51 34 34 51 34 34 51 34 34 51 34 34 51 34 34 51 34 34 51 34 34 51 34 34 51 34 34 51 34 34 51 34 34 51 34 34 51 34 34 51 34 34 51 34 34 51 34 34 51 34 34 51 34 34 51 34 34 51 34 34 51 34 34 51 34 34 51 34 34 51 34 34 51 34 34 51 34 34 51 34 34 51 34 34 51 34 34 51 34 34 51 34 34 51 34 34 51 34 34 51 34 34 51 34 34 51 34 34 51 34 34 51 34 34 51 34 34 51
34 34 51 34 34 51 34 34 51 34 34 51 34 34 51 34 34 51 34 34 51 34 34 51 34 34 51 34 34 51 34 34 51 34 34 51 34 34 51 34 34 51 34 34 51 34 34 51 34 34 51 34 34 51 34 34 51 34 34 51 34 34 51 34 34 51 34 34 51 34 34 51 34 34 51 34 34 51 34 34 51 34 34 51 34 34 51 34 34 51 34 34 51 34 34 51 34 34 51 34 34 51 34 34 51 34 34 51 34 34 51 34 34 51 34 34 51 34 34 51 34 34 51 34 34 51 34 34 51 34 34 51 34 34 51 34 34 51 34 34 51 34 34 51 34 34 51 34 34 51 34 34 51 34 34 51 34 34 51 34 34 51 34 34 51 34 34 51 34 34 51 34 34 51 34 34 51 34 34 51 34 34 51 34 34 51 34 34 51 34 34 51 34 34 51 34 34 51 34 34 51 34 34 51 34 34 51 34 34 51 34 34 51 34 34 51 34 34 51 34 34 51 34 34 51 34 34 51 34 34 51 34 34 51 34 34 51 34 34 51 34 34 51 34 34 51 34 34 51 34 34 51 34 34 51 34 34 51 34 34 51 34 34 51 34 34 51 34 34 51 34 34 51 34 34 51 34 34 51 34 34 51 34 34 51 34 34 51 34 34 51 34 34 51 34 34 51 34 34 51 34 34 51 34 34 51 34 34 51 34 34 51 34 34 51 34 34 51 34 34 51 34 34 51 34 34 51 34 34 51 34 34 51 34 34 51 34 34 51 34 34 51 34 34 51 34 34 51 34 34 51 34 34 51 34 34 51 34 34 51 34 34 51 34 34 51 34 34 51 34 34 51 34 34 51 34 34 51 34 34 51 34 34 51 34 34 51 34 34 51 34 34 51 34 34 51 34 34 51 34 34 51 34 34 51 34 34 51 34 34 51 34 34 51 34 34 51 34 34 51 34 34 51 34 34 51 34 34 51 34 34 51 34 34 51 34 34 51 34 34 51 34 34 51 34 34 51 34 34 51 34 34 51 34 34 51 34 34 51 34 34 51 34 34 51 34 34 51 34 34 51 34 34 51 34 34 51 34 34 51 34 34 51 34 34 51 34 34 51 34 34 51 34 34 51 34 34 51 34 34 51 34 34 51 34 34 51 34 34 51 34 34 51 34 34 51 34 34 51 34 34 51 34 34 51 34 34 51 34 34 51 34 34 51 34 34 51 34 34 51 34 34 51 34 34 51 34 34 51 34 34 51 34 34 51 34 34 51 34 34 51 34 34 51 34 34 51 34 34 51 34 34 51 34 34 51 34 34 51 34 34 51 34 34 51 34 34 51 34 34 51 34 34 51 34 34 51 34 34 51 34 34 51 34 34 51 34 34 51 34 34 51 34 34 51 34 34 51 34 34 51 34 34 51 34 34 51 34 34 51 34 34 51 34 34 51 34 34 51 34 34 51 34 34 51 34 34 51 34 34 51 34 34 51 34 34 51 34 34 51 34 34 51 34 34 51 34 34 51 34 34 51 34 34 51 34 34 51 34 34 51 34 34 51 34 34 51 34 34 51 34 34 51 34 34 51 34 34 51 34 34 51 34 34 51 34 34 51 34 34 51 34 34 51 34 34 51 34 34 51 34 34 51 34 34 51 34 34 51 34 34 51 34 34 51 34 34 51 34 34 51 34 34 51 34 34 51 34 34 51 34 34 51 34 34 51 34 34 51 34 34 51 34 34 51 34 34 51 34 34 51 34 34 51 34 34 51 34 34 51 34 34 51 34 34 51 34 34 51 34 34 51 34 34 51 34 34 51 34 34 51 34 34 51 34 34 51 34 34 51 34 34 51 34 34 51 34 34 51 34 34 51 34 34 51 34 34 51 34 34 51 34 34 51 34 34 51 34 34 51 34 34 51 34 34 51 34 34 51 34 34 51 34 34 51 34 34 51 34 34 51 34 34 51 34 34 51 34 34 51 34 34 51 34 34 51 34 34 51 34 34 51 34 34 51 34 34 51 34 34 51 34 34 51 34 34 51 34 34 51 34 34 51 34 34 51 34 34 51 34 34 51 34 34 51 34 34 51 34 34 51 34 34 51 34 34 51 34 34 51 34 34 51 34 34 51 34 34 51 34 34 51 34 34 51 34 34 51 34 34 51 34 34 51 34 34 51 34 34 51
34 34 51 34 34 51 34 34 51 34 34 51 34 34 51 34 34 51 34 34 51 34 34 51 34 34 51 34 34 51 34 34 51 34 34 51 34 34 51 34 34 51 34 34 51 34 34 51 34 34 51 34 34 51 34 34 51 34 34 51 34 34 51 34 34 51 34 34 51 34 34 51 34 34 51 34 34 51 34 34 51 34 34 51 34 34 51 34 34 51 34 34 51 34 34 51 34 34 51 34 34 51 34 34 51 34 34 51 34 34 51 34 34 51 34 34 51 34 34 51 34 34 51 34 34 51 34 34 51 34 34 51 34 34 51 34 34 51 34 34 51 34 34 51 34 34 51 34 34 51 34 34 51 34 34 51 34 34 51 34 34 51 34 34 51 34 34 51 34 34 51 34 34 51 34 34 51 34 34 51 34 34 51 34 34 51 34 34 51 34 34 51 34 34 51 34 34 51 34 34 51 34 34 51 34 34 51 34 34 51 34 34 51 34 34 51 34 34 51 34 34 51 34 34 51 34 34 51 34 34 51 34 34 51 34 34 51 34 34 51 34 34 51 34 34 51 34 34 51 34 34 51 34 34 51 34 34 51 34 34 51 34 34 51 34 34 51 34 34 51 34 34 51 34 34 51 34 34 51 34 34 51 34 34 51 34 34 51 34 34 51 34 34 51 34 34 51 34 34 51 34 34 51 34 34 51 34 34 51 34 34 51 34 34 51 34 34 51 34 34 51 34 34 51 34 34 51 34 34 51 34 34 51 34 34 51 34 34 51 34 34 51 34 34 51 34 34 51 34 34 51 34 34 51 34 34 51 34 34 51 34 34 51 34 34 51 34 34 51 34 34 51 34 34 51 34 34 51 34 34 51 34 34 51 34 34 51 34 34 51 34 34 51 34 34 51 34 34 51 34 34 51 34 34 51 34 34 51 34 34 51 34 34 51 34 34 51 34 34 51 34 34 51 34 34 51 34 34 51 34 34 51 34 34 51 34 34 51 34 34 51 34 34 51 34 34 51 34 34 51 34 34 51 34 34 51 34 34 51 34 34 51 34 34 51 34 34 51 34 34 51 34 34 51 34 34 51 34 34 51 34 34 51 34 34 51 34 34 51 34 34 51 34 34 51 34 34 51 34 34 51 34 34 51 34 34 51 34 34 51 34 34 51 34 34 51 34 34 51 34 34 51 34 34 51 34 34 51 34 34 51 34 34 51 34 34 51 34 34 51 34 34 51 34 34 51 34 34 51 34 34 51 34 34 51 34 34 51 34 34 51 34 34 51 34 34 51 34 34 51 34 34 51 34 34 51 34 34 51 34 34 51 34 34 51 34 34 51 34 34 51 34 34 51 34 34 51 34 34 51 34 34 51 34 34 51 34 34 51 34 34 51 34 34 51 34 34 51 34 34 51 34 34 51 34 34 51 34 34 51 34 34 51 34 34 51 34 34 51 34 34 51 34 34 51 34 34 51 34 34 51 34 34 51 34 34 51 34 34 51 34 34 51 34 34 51 34 34 51 34 34 51 34 34 51 34 34 51 34 34 51 34 34 51 34 34 51 34 34 51 34 34 51 34 34 51 34 34 51 34 34 51 34 34 51 34 34 51 34 34 51 34 34 51 34 34 51 34 34 51 34 34 51 34 34 51 34 34 51 34 34 51 34 34 51 34 34 51 34 34 51 34 34 51 34 34 51 34 34 51 34 34 51 34 34 51 34 34 51 34 34 51 34 34 51 34 34 51 34 34 51 34 34 51 34 34 51 34 34 51 34 34 51 34 34 51 34 34 51 34 34 51 34 34 51 34 34 51 34 34 51 34 34 51 34 34 51 34 34 51 34 34 51 34 34 51 34 34 51 34 34 51 34 34 51 34 34 51 34 34 51 34 34 51 34 34 51 34 34 51 34 34 51 34 34 51 34 34 51 34 34 51 34 34 51 34 34 51 34 34 51 34 34 51 34 34 51 34 34 51 34 34 51 34 34 51 34 34 51 34 34 51 34 34 51 34 34 51 34 34 51 34 34 51 34 34 51 34 34 51 34 34 51 34 34 51 34 34 51 34 34 51 34 34 51 34 34 51 34 34 51 34 34 51 34 34 51 34 34 51 34 34 51 34 34 51 34 34 51 34 34 51 34 34 51 34 34 51 34 34 51 34 34 51 34 34 51 34 34 51
34 34 51 34 34 51 34 34 51 34 34 51 34 34 51 34 34 51 34 34 51 34 34 51 34 34 51 34 34 51 34 34 51 34 34 51 34 34 51 34 34 51 34 34 51 34 34 51 34 34 51 34 34 51 34 34 51 34 34 51 34 34 51 34 34 51 34 34 51 34 34 51 34 34 51 34 34 51 34 34 51 34 34 51 34 34 51 34 34 51 34 34 51 34 34 51 34 34 51 34 34 51 34 34 51 34 34 51 34 34 51 34 34 51 34 34 51 34 34 51 34 34 51 34 34 51 34 34 51 34 34 51 34 34 51 34 34 51 34 34 51 34 34 51 34 34 51 34 34 51 34 34 51 34 34 51 34 34 51 34 34 51 34 34 51 34 34 51 34 34 51 34 34 51 34 34 51 34 34 51 34 34 51 34 34 51 34 34 51 34 34 51 34 34 51 34 34 51 34 34 51 34 34 51 34 34 51 34 34 51 34 34 51 34 34 51 34 34 51 34 34 51 34 34 51 34 34 51 34 34 51 34 34 51 34 34 51 34 34 51 34 34 51 34 34 51 34 34 51 34 34 51 34 34 51 34 34 51 34 34 51 34 34 51 34 34 51 34 34 51 34 34 51 34 34 51 34 34 51 34 34 51 34 34 51 34 34 51 34 34 51 34 34 51 34 34 51 34 34 51 34 34 51 34 34 51 34 34 51 34 34 51 34 34 51 34 34 51 34 34 51 34 34 51 34 34 51 34 34 51 34 34 51 34 34 51 34 34 51 34 34 51 34 34 51 34 34 51 34 34 51 34 34 51 34 34 51 34 34 51 34 34 51 34 34 51 34 34 51 34 34 51 34 34 51 34 34 51 34 34 51 34 34 51 34 34 51 34 34 51 34 34 51 34 34 51 34 34 51 34 34 51 34 34 51 34 34 51 34 34 51 34 34 51 34 34 51 34 34 51 34 34 51 34 34 51 34 34 51 34 34 51 34 34 51 34 34 51 34 34 51 34 34 51 34 34 51 34 34 51 34 34 51 34 34 51 34 34 51 34 34 51 34 34 51 34 34 51 34 34 51 34 34 51 34 34 51 34 34 51 34 34 51 34 34 51 34 34 51 34 34 51 34 34 51 34 34 51 34 34 51 34 34 51 34 34 51 34 34 51 34 34 51 34 34 51 34 34 51 34 34 51 34 34 51 34 34 51 34 34 51 34 34 51 34 34 51 34 34 51 34 34 51 34 34 51 34 34 51 34 34 51 34 34 51 34 34 51 34 34 51 34 34 51 34 34 51 34 34 51 34 34 51 34 34 51 34 34 51 34 34 51 34 34 51 34 34 51 34 34 51 34 34 51 34 34 51 34 34 51 34 34 51 34 34 51 34 34 51 34 34 51 34 34 51 34 34 51 34 34 51 34 34 51 34 34 51 34 34 51 34 34 51 34 34 51 34 34 51 34 34 51 34 34 51 34 34 51 34 34 51 34 34 51 34 34 51 34 34 51 34 34 51 34 34 51 34 34 51 34 34 51 34 34 51 34 34 51 34 34 51 34 34 51 34 34 51 34 34 51 34 34 51 34 34 51 34 34 51 34 34 51 34 34 51 34 34 51 34 34 51 34 34 51 34 34 51 34 34 51 34 34 51 34 34 51 34 34 51 34 34 51 34 34 51 34 34 51 34 34 51 34 34 51 34 34 51 34 34 51 34 34 51 34 34 51 34 34 51 34 34 51 34 34 51 34 34 51 34 34 51 34 34 51 34 34 51 34 34 51 34 34 51 34 34 51 34 34 51 34 34 51 34 34 51 34 34 51 34 34 51 34 34 51 34 34 51 34 34 51 34 34 51 34 34 51 34 34 51 34 34 51 34 34 51 34 34 51 34 34 51 34 34 51 34 34 51 34 34 51 34 34 51 34 34 51 34 34 51 34 34 51 34 34 51 34 34 51 34 34 51 34 34 51 34 34 51 34 34 51 34 34 51 34 34 51 34 34 51 34 34 51 34 34 51 34 34 51 34 34 51 34 34 51 34 34 51 34 34 51 34 34 51 34 34 51 34 34 51 34 34 51 34 34 51 34 34 51 34 34 51 34 34 51 34 34 51 34 34 51 34 34 51 34 34 51 34 34 51 34 34 51 34 34 51 34 34 51 34 34 51 34 34 51 34 34 51 34 34 51
34 34 51 34 34 51 34 34 51 34 34 51 34 34 51 34 34 51 34 34 51 34 34 51 34 34 51 34 34 51 34 34 51 34 34 51 34 34 51 34 34 51 34 34 51 34 34 51 34 34 51 34 34 51 34 34 51 34 34 51 34 34 51 34 34 51 34 34 51 34 34 51 34 34 51 34 34 51 34 34 51 34 34 51 34 34 51 34 34 51 34 34 51 34 34 51 34 34 51 34 34 51 34 34 51 34 34 51 34 34 51 34 34 51 34 34 51 34 34 51 34 34 51 34 34 51 34 34 51 34 34 51 34 34 51 34 34 51 34 34 51 34 34 51 34 34 51 34 34 51 34 34 51 34 34 51 34 34 51 34 34 51 34 34 51 34 34 51 34 34 51 34 34 51 34 34 51 34 34 51 34 34 51 34 34 51 34 34 51 34 34 51 34 34 51 34 34 51 34 34 51 34 34 51 34 34 51 34 34 51 34 34 51 34 34 51 34 34 51 34 34 51 34 34 51 34 34 51 34 34 51 34 34 51 34 34 51 34 34 51 34 34 51 34 34 51 34 34 51 34 34 51 34 34 51 34 34 51 34 34 51 34 34 51 85 102 119 85 102 119 85 102 119 85 102 119 85 102 119 85 102 119 85 102 119 85 102 119 85 102 119 85 102 119 85 102 119 85 102 119 85 102 119 85 102 119 85 102 119 85 102 119 85 102 119 85 102 119 85 102 119 85 102 119 85 102 119 85 102 119 85 102 119 85 102 119 85 102 119 85 102 119 85 102 119 85 102 119 85 102 119 85 102 119 34 34 51 34 34 51 34 34 51 34 34 51 34 34 51 34 34 51 85 102 119 85 102 119 85 102 119 85 102 119 85 102 119 85 102 119 85 102 119 85 102 119 85 102 119 85 102 119 85 102 119 85 102 119 85 102 119 85 102 119 85 102 119 85 102 119 85 102 119 85 102 119 85 102 119 85 102 119 85 102 119 85 102 119 85 102 119 85 102 119 85 102 119 85 102 119 85 102 119 85 102 119 85 102 119 85 102 119 34 34 51 34 34 51 34 34 51 34 34 51 34 34 51 34 34 51 0 170 221 0 170 221 0 170 221 0 170 221 0 170 221 0 170 221 0 170 221 0 170 221 0 170 221 0 170 221 0 170 221 0 170 221 0 170 221 0 170 221 0 170 221 0 170 221 0 170 221 0 170 221 0 170 221 0 170 221 0 170 221 0 170 221 0 170 221 0 170 221 0 170 221 0 170 221 0 170 221 0 170 221 0 170 221 0 170 221 34 34 51 34 34 51 34 34 51 34 34 51 34 34 51 34 34 51 85 102 119 85 102 119 85 102 119 85 102 119 85 102 119 85 102 119 85 102 119 85 102 119 85 102 119 85 102 119 85 102 119 85 102 119 85 102 119 85 102 119 85 102 119 85 102 119 85 102 119 85 102 119 85 102 119 85 102 119 85 102 119 85 102 119 85 102 119 85 102 119 85 102 119 85 102 119 85 102 119 85 102 119 85 102 119 85 102 119 34 34 51 34 34 51 34 34 51 34 34 51 34 34 51 34 34 51 34 34 51 34 34 51 34 34 51 34 34 51 34 34 51 34 34 51 34 34 51 34 34 51 34 34 51 34 34 51 34 34 51 34 34 51 34 34 51 34 34 51 34 34 51 34 34 51 34 34 51 34 34 51 34 34 51 34 34 51 34 34 51 34 34 51 34 34 51 34 34 51 34 34 51 34 34 51 34 34 51 34 34 51 34 34 51 34 34 51 34 34 51 34 34 51 34 34 51 34 34 51 34 34 51 34 34 51 34 34 51 34 34 51 34 34 51 34 34 51 34 34 51 34 34 51 34 34 51 34 34 51 34 34 51 34 34 51 34 34 51 34 34 51 34 34 51 34 34 51 34 34 51 34 34 51 34 34 51 34 34 51 34 34 51 34 34 51 34 34 51 34 34 51 34 34 51 34 34 51 34 34 51 34 34 51 34 34 51 34 34 51 34 34 51 34 34 51 34 34 51 34 34 51 34 34 51 34 34 51 34 34 51 34 34 51 34 34 51 34 34 51 34 34 51 34 34 51 34 34 51 34 34 51 34 34 51 34 34 51 34 34 51 34 34 51 34 34 51 34 34 51 34 34 51 34 34 51 34 34 51 34 34 51
34 34 51 34 34 51 34 34 51 34 34 51 34 34 51 34 34 51 34 34 51 34 34 51 34 34 51 34 34 51 34 34 51 34 34 51 34 34 51 34 34 51 34 34 51 34 34 51 34 34 51 34 34 51 34 34 51 34 34 51 34 34 51 34 34 51 34 34 51 34 34 51 34 34 51 34 34 51 34 34 51 34 34 51 34 34 51 34 34 51 34 34 51 34 34 51 34 34 51 34 34 51 34 34 51 34 34 51 34 34 51 34 34 51 34 34 51 34 34 51 34 34 51 34 34 51 34 34 51 34 34 51 34 34 51 34 34 51 34 34 51 34 34 51 34 34 51 34 34 51 34 34 51 34 34 51 34 34 51 34 34 51 34 34 51 34 34 51 34 34 51 34 34 51 34 34 51 34 34 51 34 34 51 34 34 51 34 34 51 34 34 51 34 34 51 34 34 51 34 34 51 34 34 51 34 34 51 34 34 51 34 34 51 34 34 51 34 34 51 34 34 51 34 34 51 34 34 51 34 34 51 34 34 51 34 34 51 34 34 51 34 34 51 34 34 51 34 34 51 34 34 51 34 34 51 34 34 51 34 34 51 34 34 51 85 102 119 85 102 119 85 102 119 85 102 119 85 102 119 85 102 119 85 102 119 85 102 119 85 102 119 85 102 119 85 102 119 85 102 119 85 102 119 85 102 119 85 102 119 85 102 119 85 102 119 85 102 119 85 102 119 85 102 119 85 102 119 85 102 119 85 102 119 85 102 119 85 102 119 85 102 119 85 102 119 85 102 119 85 102 119 85 102 119 34 34 51 34 34 51 34 34 51 34 34 51 34 34 51 34 34 51 85 102 119 85 102 119 85 102 119 85 102 119 85 102 119 85 102 119 85 102 119 85 102 119 85 102 119 85 102 119 85 102 119 85 102 119 85 102 119 85 102 119 85 102 119 85 102 119 85 102 119 85 102 119 85 102 119 85 102 119 85 102 119 85 102 119 85 102 119 85 102 119 85 102 119 85 102 119 85 102 119 85 102 119 85 102 119 85 102 119 34 34 51 34 34 51 34 34 51 34 34 51 34 34 51 34 34 51 0 170 221 0 170 221 0 170 221 0 170 221 0 170 221 0 170 221 0 170 221 0 170 221 0 170 221 0 170 221 0 170 221 0 170 221 0 170 221 0 170 221 0 170 221 0 170 221 0 170 221 0 170 221 0 170 221 0 170 221 0 170 221 0 170 221 0 170 221 0 170 221 0 170 221 0 170 221 0 170 221 0 170 221 0 170 221 0 170 221 34 34 51 34 34 51 34 34 51 34 34 51 34 34 51 34 34 51 85 102 119 85 102 119 85 102 119 85 102 119 85 102 119 85 102 119 85 102 119 85 102 119 85 102 119 85 102 119 85 102 119 85 102 119 85 102 119 85 102 119 85 102 119 85 102 119 85 102 119 85 102 119 85 102 119 85 102 119 85 102 119 85 102 119 85 102 119 85 102 119 85 102 119 85 102 119 85 102 119 85 102 119 85 102 119 85 102 119 34 34 51 34 34 51 34 34 51 34 34 51 34 34 51 34 34 51 34 34 51 34 34 51 34 34 51 34 34 51 34 34 51 34 34 51 34 34 51 34 34 51 34 34 51 34 34 51 34 34 51 34 34 51 34 34 51 34 34 51 34 34 51 34 34 51 34 34 51 34 34 51 34 34 51 34 34 51 34 34 51 34 34 51 34 34 51 34 34 51 34 34 51 34 34 51 34 34 51 34 34 51 34 34 51 34 34 51 34 34 51 34 34 51 34 34 51 34 34 51 34 34 51 34 34 51 34 34 51 34 34 51 34 34 51 34 34 51 34 34 51 34 34 51 34 34 51 34 34 51 34 34 51 34 34 51 34 34 51 34 34 51 34 34 51 34 34 51 34 34 51 34 34 51 34 34 51 34 34 51 34 34 51 34 34 51 34 34 51 34 34 51 34 34 51 34 34 51 34 34 51 34 34 51 34 34 51 34 34 51 34 34 51 34 34 51 34 34 51 34 34 51 34 34 51 34 34 51 34 34 51 34 34 51 34 34 51 34 34 51 34 34 51 34 34 51 34 34 51 34 34 51 34 34 51 34 34 51 34 34 51 34 34 51 34 34 51 34 34 51 34 34 51 34 34 51 34 34 51 34 34 51
34 34 51 34 34 51 34 34 51 34 34 51 34 34 51 34 34 51 34 34 51 34 34 51 34 34 51 34 34 51 34 34 51 34 34 51 34 34 51 34 34 51 34 34 51 34 34 51 34 34 51 34 34 51 34 34 51 34 34 51 34 34 51 34 34 51 34 34 51 34 34 51 34 34 51 34 34 51 34 34 51 34 34 51 34 34 51 34 34 51 34 34 51 34 34 51 34 34 51 34 34 51 34 34 51 34 34 51 34 34 51 34 34 51 34 34 51 34 34 51 34 34 51 34 34 51 34 34 51 34 34 51 34 34 51 34 34 51 34 34 51 34 34 51 34 34 51 34 34 51 34 34 51 34 34 51 34 34 51 34 34 51 34 34 51 34 34 51 34 34 51 34 34 51 34 34 51 34 34 51 34 34 51 34 34 51 34 34 51 34 34 51 34 34 51 34 34 51 34 34 51 34 34 51 34 34 51 34 34 51 34 34 51 34 34 51 34 34 51 34 34 51 34 34 51 34 34 51 34 34 51 34 34 51 34 34 51 34 34 51 34 34 51 34 34 51 34 34 51 34 34 51 34 34 51 34 34 51 34 34 51 34 34 51 85 102 119 85 102 119 34 34 51 34 34 51 34 34 51 34 34 51 34 34 51 34 34 51 34 34 51 34 34 51 34 34 51 34 34 51 34 34 51 34 34 51 34 34 51 34 34 51 34 34 51 34 34 51 34 34 51 34 34 51 34 34 51 34 34 51 34 34 51 34 34 51 34 34 51 34 34 51 34 34 51 34 34 51 85 102 119 85 102 119 34 34 51 34 34 51 34 34 51 34 34 51 34 34 51 34 34 51 85 102 119 85 102 119 34 34 51 34 34 51 34 34 51 34 34 51 34 34 51 34 34 51 34 34 51 34 34 51 34 34 51 34 34 51 34 34 51 34 34 51 34 34 51 34 34 51 34 34 51 34 34 51 34 34 51 34 34 51 34 34 51 34 34 51 34 34 51 34 34 51 34 34 51 34 34 51 34 34 51 34 34 51 85 102 119 85 102 119 34 34 51 34 34 51 34 34 51 34 34 51 34 34 51 34 34 51 0 170 221 0 170 221 34 34 51 34 34 51 34 34 51 34 34 51 34 34 51 34 34 51 34 34 51 34 34 51 34 34 51 34 34 51 34 34 51 34 34 51 34 34 51 34 34 51 34 34 51 34 34 51 34 34 51 34 34 51 34 34 51 34 34 51 34 34 51 34 34 51 34 34 51 34 34 51 34 34 51 34 34 51 0 170 221 0 170 221 34 34 51 34 34 51 34 34 51 34 34 51 34 34 51 34 34 51 85 102 119 85 102 119 34 34 51 34 34 51 34 34 51 34 34 51 34 34 51 34 34 51 34 34 51 34 34 51 34 34 51 34 34 51 34 34 51 34 34 51 34 34 51 34 34 51 34 34 51 34 34 51 34 34 51 34 34 51 34 34 51 34 34 51 34 34 51 34 34 51 34 34 51 34 34 51 34 34 51 34 34 51 85 102 119 85 102 119 34 34 51 34 34 51 34 34 51 34 34 51 34 34 51 34 34 51 34 34 51 34 34 51 34 34 51 34 34 51 34 34 51 34 34 51 34 34 51 34 34 51 34 34 51 34 34 51 34 34 51 34 34 51 34 34 51 34 34 51 34 34 51 34 34 51 34 34 51 34 34 51 34 34 51 34 34 51 34 34 51 34 34 51 34 34 51 34 34 51 34 34 51 34 34 51 34 34 51 34 34 51 34 34 51 34 34 51 34 34 51 34 34 51 34 34 51 34 34 51 34 34 51 34 34 51 34 34 51 34 34 51 34 34 51 34 34 51 34 34 51 34 34 51 34 34 51 34 34 51 34 34 51 34 34 51 34 34 51 34 34 51 34 34 51 34 34 51 34 34 51 34 34 51 34 34 51 34 34 51 34 34 51 34 34 51 34 34 51 34 34 51 34 34 51 34 34 51 34 34 51 34 34 51 34 34 51 34 34 51 34 34 51 34 34 51 34 34 51 34 34 51 34 34 51 34 34 51 34 34 51 34 34 51 34 34 51 34 34 51 34 34 51 34 34 51 34 34 51 34 34 51 34 34 51 34 34 51 34 34 51 34 34 51 34 34 51 34 34 51 34 34 51 34 34 51 34 34 51 34 34 51
34 34 51 34 34 51 34 34 51 34 34 51 34 34 51 34 34 51 34 34 51 34 34 51 34 34 51 34 34 51 34 34 51 34 34 51 34 34 51 34 34 51 34 34 51 34 34 51 34 34 51 34 34 51 34 34 51 34 34 51 34 34 51 34 34 51 34 34 51 34 34 51 34 34 51 34 34 51 34 34 51 34 34 51 34 34 51 34 34 51 34 34 51 34 34 51 34 34 51 34 34 51 34 34 51 34 34 51 34 34 51 34 34 51 34 34 51 34 34 51 34 34 51 34 34 51 34 34 51 34 34 51 34 34 51 34 34 51 34 34 51 34 34 51 34 34 51 34 34 51 34 34 51 34 34 51 34 34 51 34 34 51 34 34 51 34 34 51 34 34 51 34 34 51 34 34 51 34 34 51 34 34 51 34 34 51 34 34 51 34 34 51 34 34 51 34 34 51 34 34 51 34 34 51 34 34 51 34 34 51 34 34 51 34 34 51 34 34 51 34 34 51 34 34 51 34 34 51 34 34 51 34 34 51 34 34 51 34 34 51 34 34 51 34 34 51 34 34 51 34 34 51 34 34 51 34 34 51 34 34 51 34 34 51 85 102 119 85 102 119 34 34 51 34 34 51 34 34 51 34 34 51 34 34 51 34 34 51 34 34 51 34 34 51 34 34 51 34 34 51 34 34 51 34 34 51 34 34 51 34 34 51 34 34 51 34 34 51 34 34 51 34 34 51 34 34 51 34 34 51 34 34 51 34 34 51 34 34 51 34 34 51 34 34 51 34 34 51 85 102 119 85 102 119 34 34 51 34 34 51 34 34 51 34 34 51 34 34 51 34 34 51 85 102 119 85 102 119 34 34 51 34 34 51 34 34 51 34 34 51 34 34 51 34 34 51 34 34 51 34 34 51 34 34 51 34 34 51 34 34 51 34 34 51 34 34 51 34 34 51 34 34 51 34 34 51 34 34 51 34 34 51 34 34 51 34 34 51 34 34 51 34 34 51 34 34 51 34 34 51 34 34 51 34 34 51 85 102 119 85 102 119 34 34 51 34 34 51 34 34 51 34 34 51 34 34 51 34 34 51 0 170 221 0 170 221 34 34 51 34 34 51 34 34 51 34 34 51 34 34 51 34 34 51 34 34 51 34 34 51 34 34 51 34 34 51 34 34 51 34 34 51 34 34 51 34 34 51 34 34 51 34 34 51 34 34 51 34 34 51 34 34 51 34 34 51 34 34 51 34 34 51 34 34 51 34 34 51 34 34 51 34 34 51 0 170 221 0 170 221 34 34 51 34 34 51 34 34 51 34 34 51 34 34 51 34 34 51 85 102 119 85 102 119 34 34 51 34 34 51 34 34 51 34 34 51 34 34 51 34 34 51 34 34 51 34 34 51 34 34 51 34 34 51 34 34 51 34 34 51 34 34 51 34 34 51 34 34 51 34 34 51 34 34 51 34 34 51 34 34 51 34 34 51 34 34 51 34 34 51 34 34 51 34 34 51 34 34 51 34 34 51 85 102 119 85 102 119 34 34 51 34 34 51 34 34 51 34 34 51 34 34 51 34 34 51 34 34 51 34 34 51 34 34 51 34 34 51 34 34 51 34 34 51 34 34 51 34 34 51 34 34 51 34 34 51 34 34 51 34 34 51 34 34 51 34 34 51 34 34 51 34 34 51 34 34 51 34 34 51 34 34 51 34 34 51 34 34 51 34 34 51 34 34 51 34 34 51 34 34 51 34 34 51 34 34 51 34 34 51 34 34 51 34 34 51 34 34 51 34 34 51 34 34 51 34 34 51 34 34 51 34 34 51 34 34 51 34 34 51 34 34 51 34 34 51 34 34 51 34 34 51 34 34 51 34 34 51 34 34 51 34 34 51 34 34 51 34 34 51 34 34 51 34 34 51 34 34 51 34 34 51 34 34 51 34 34 51 34 34 51 34 34 51 34 34 51 34 34 51 34 34 51 34 34 51 34 34 51 34 34 51 34 34 51 34 34 51 34 34 51 34 34 51 34 34 51 34 34 51 34 34 51 34 34 51 34 34 51 34 34 51 34 34 51 34 34 51 34 34 51 34 34 51 34 34 51 34 34 51 34 34 51 34 34 51 34 34 51 34 34 51 34 34 51 34 34 51 34 34 51 34 34 51 34 34 51 34 34 51
34 34 51 34 34 51 34 34 51 34 34 51 34 34 51 34 34 51 34 34 51 34 34 51 34 34 51 34 34 51 34 34 51 34 34 51 34 34 51 34 34 51 34 34 51 34 34 51 34 34 51 34 34 51 34 34 51 34 34 51 34 34 51 34 34 51 34 34 51 34 34 51 34 34 51 34 34 51 34 34 51 34 34 51 34 34 51 34 34 51 34 34 51 34 34 51 34 34 51 34 34 51 34 34 51 34 34 51 34 34 51 34 34 51 34 34 51 34 34 51 34 34 51 34 34 51 34 34 51 34 34 51 34 34 51 34 34 51 34 34 51 34 34 51 34 34 51 34 34 51 34 34 51 34 34 51 34 34 51 34 34 51 34 34 51 34 34 51 34 34 51 34 34 51 34 34 51 34 34 51 34 34 51 34 34 51 34 34 51 34 34 51 34 34 51 34 34 51 34 34 51 34 34 51 34 34 51 34 34 51 34 34 51 34 34 51 34 34 51 34 34 51 34 34 51 34 34 51 34 34 51 34 34 51 34 34 51 34 34 51 34 34 51 34 34 51 34 34 51 34 34 51 34 34 51 34 34 51 34 34 51 34 34 51 85 102 119 85 102 119 34 34 51 34 34 51 34 34 51 34 34 51 34 34 51 34 34 51 34 34 51 34 34 51 34 34 51 34 34 51 34 34 51 34 34 51 34 34 51 34 34 51 34 34 51 34 34 51 34 34 51 34 34 51 34 34 51 34 34 51 34 34 51 34 34 51 34 34 51 34 34 51 34 34 51 34 34 51 85 102 119 85 102 119 34 34 51 34 34 51 34 34 51 34 34 51 34 34 51 34 34 51 85 102 119 85 102 119 34 34 51 34 34 51 34 34 51 34 34 51 34 34 51 34 34 51 34 34 51 34 34 51 34 34 51 34 34 51 34 34 51 34 34 51 34 34 51 34 34 51 34 34 51 34 34 51 34 34 51 34 34 51 34 34 51 34 34 51 34 34 51 34 34 51 34 34 51 34 34 51 34 34 51 34 34 51 85 102 119 85 102 119 34 34 51 34 34 51 34 34 51 34 34 51 34 34 51 34 34 51 0 170 221 0 170 221 34 34 51 34 34 51 34 34 51 34 34 51 34 34 51 34 34 51 34 34 51 34 34 51 34 34 51 34 34 51 34 34 51 34 34 51 34 34 51 34 34 51 34 34 51 34 34 51 34 34 51 34 34 51 34 34 51 34 34 51 34 34 51 34 34 51 34 34 51 34 34 51 34 34 51 34 34 51 0 170 221 0 170 221 34 34 51 34 34 51 34 34 51 34 34 51 34 34 51 34 34 51 85 102 119 85 102 119 34 34 51 34 34 51 34 34 51 34 34 51 34 34 51 34 34 51 34 34 51 34 34 51 34 34 51 34 34 51 34 34 51 34 34 51 34 34 51 34 34 51 34 34 51 34 34 51 34 34 51 34 34 51 34 34 51 34 34 51 34 34 51 34 34 51 34 34 51 34 34 51 34 34 51 34 34 51 85 102 119 85 102 119 34 34 51 34 34 51 34 34 51 34 34 51 34 34 51 34 34 51 34 34 51 34 34 51 34 34 51 34 34 51 34 34 51 34 34 51 34 34 51 34 34 51 34 34 51 34 34 51 34 34 51 34 34 51 34 34 51 34 34 51 34 34 51 34 34 51 34 34 51 34 34 51 34 34 51 34 34 51 34 34 51 34 34 51 34 34 51 34 34 51 34 34 51 34 34 51 34 34 51 34 34 51 34 34 51 34 34 51 34 34 51 34 34 51 34 34 51 34 34 51 34 34 51 34 34 51 34 34 51 34 34 51 34 34 51 34 34 51 34 34 51 34 34 51 34 34 51 34 34 51 34 34 51 34 34 51 34 34 51 34 34 51 34 34 51 34 34 51 34 34 51 34 34 51 34 34 51 34 34 51 34 34 51 34 34 51 34 34 51 34 34 51 34 34 51 34 34 51 34 34 51 34 34 51 34 34 51 34 34 51 34 34 51 34 34 51 34 34 51 34 34 51 34 34 51 34 34 51 34 34 51 34 34 51 34 34 51 34 34 51 34 34 51 34 34 51 34 34 51 34 34 51 34 34 51 34 34 51 34 34 51 34 34 51 34 34 51 34 34 51 34 34 51 34 34 51 34 34 51 34 34 51
34 34 51 34 34 51 34 34 51 34 34 51 34 34 51 34 34 51 34 34 51 34 34 51 34 34 51 34 34 51 34 34 51 34 34 51 34 34 51 34 34 51 34 34 51 34 34 51 34 34 51 34 34 51 34 34 51 34 34 51 34 34 51 34 34 51 34 34 51 34 34 51 34 34 51 34 34 51 34 34 51 34 34 51 34 34 51 34 34 51 34 34 51 34 34 51 34 34 51 34 34 51 34 34 51 34 34 51 34 34 51 34 34 51 34 34 51 34 34 51 34 34 51 34 34 51 34 34 51 34 34 51 34 34 51 34 34 51 34 34 51 34 34 51 34 34 51 34 34 51 34 34 51 34 34 51 34 34 51 34 34 51 34 34 51 34 34 51 34 34 51 34 34 51 34 34 51 34 34 51 34 34 51 34 34 51 34 34 51 34 34 51 34 34 51 34 34 51 34 34 51 34 34 51 34 34 51 34 34 51 34 34 51 34 34 51 34 34 51 34 34 51 34 34 51 34 34 51 34 34 51 34 34 51 34 34 51 34 34 51 34 34 51 34 34 51 34 34 51 34 34 51 34 34 51 34 34 51 34 34 51 34 34 51 85 102 119 85 102 119 34 34 51 34 34 51 34 34 51 34 34 51 34 34 51 34 34 51 34 34 51 34 34 51 34 34 51 34 34 51 34 34 51 34 34 51 34 34 51 34 34 51 34 34 51 34 34 51 34 34 51 34 34 51 34 34 51 34 34 51 34 34 51 34 34 51 34 34 51 34 34 51 34 34 51 34 34 51 85 102 119 85 102 119 34 34 51 34 34 51 34 34 51 34 34 51 34 34 51 34 34 51 85 102 119 85 102 119 34 34 51 34 34 51 34 34 51 34 34 51 34 34 51 34 34 51 34 34 51 34 34 51 34 34 51 34 34 51 34 34 51 34 34 51 34 34 51 34 34 51 34 34 51 34 34 51 34 34 51 34 34 51 34 34 51 34 34 51 34 34 51 34 34 51 34 34 51 34 34 51 34 34 51 34 34 51 85 102 119 85 102 119 34 34 51 34 34 51 34 34 51 34 34 51 34 34 51 34 34 51 0 170 221 0 170 221 34 34 51 34 34 51 34 34 51 34 34 51 34 34 51 34 34 51 34 34 51 34 34 51 34 34 51 34 34 51 34 34 51 34 34 51 34 34 51 34 34 51 34 34 51 34 34 51 34 34 51 34 34 51 34 34 51 34 34 51 34 34 51 34 34 51 34 34 51 34 34 51 34 34 51 34 34 51 0 170 221 0 170 221 34 34 51 34 34 51 34 34 51 34 34 51 34 34 51 34 34 51 85 102 119 85 102 119 34 34 51 34 34 51 34 34 51 34 34 51 34 34 51 34 34 51 34 34 51 34 34 51 34 34 51 34 34 51 34 34 51 34 34 51 34 34 51 34 34 51 34 34 51 34 34 51 34 34 51 34 34 51 34 34 51 34 34 51 34 34 51 34 34 51 34 34 51 34 34 51 34 34 51 34 34 51 85 102 119 85 102 119 34 34 51 34 34 51 34 34 51 34 34 51 34 34 51 34 34 51 34 34 51 34 34 51 34 34 51 34 34 51 34 34 51 34 34 51 34 34 51 34 34 51 34 34 51 34 34 51 34 34 51 34 34 51 34 34 51 34 34 51 34 34 51 34 34 51 34 34 51 34 34 51 34 34 51 34 34 51 34 34 51 34 34 51 34 34 51 34 34 51 34 34 51 34 34 51 34 34 51 34 34 51 34 34 51 34 34 51 34 34 51 34 34 51 34 34 51 34 34 51 34 34 51 34 34 51 34 34 51 34 34 51 34 34 51 34 34 51 34 34 51 34 34 51 34 34 51 34 34 51 34 34 51 34 34 51 34 34 51 34 34 51 34 34 51 34 34 51 34 34 51 34 34 51 34 34 51 34 34 51 34 34 51 34 34 51 34 34 51 34 34 51 34 34 51 34 34 51 34 34 51 34 34 51 34 34 51 34 34 51 34 34 51 34 34 51 34 34 51 34 34 51 34 34 51 34 34 51 34 34 51 34 34 51 34 34 51 34 34 51 34 34 51 34 34 51 34 34 51 34 34 51 34 34 51 34 34 51 34 34 51 34 34 51 34 34 51 34 34 51 34 34 51 34 34 51 34 34 51 34 34 51
34 34 51 34 34 51 34 34 51 34 34 51 34 34 51 34 34 51 34 34 51 34 34 51 34 34 51 34 34 51 34 34 51 34 34 51 34 34 51 34 34 51 34 34 51 34 34 51 34 34 51 34 34 51 34 34 51 34 34 51 34 34 51 34 34 51 34 34 51 34 34 51 34 34 51 34 34 51 34 34 51 34 34 51 34 34 51 34 34 51 34 34 51 34 34 51 34 34 51 34 34 51 34 34 51 34 34 51 34 34 51 34 34 51 34 34 51 34 34 51 34 34 51 34 34 51 34 34 51 34 34 51 34 34 51 34 34 51 34 34 51 34 34 51 34 34 51 34 34 51 34 34 51 34 34 51 34 34 51 34 34 51 34 34 51 34 34 51 34 34 51 34 34 51 34 34 51 34 34 51 34 34 51 34 34 51 34 34 51 34 34 51 34 34 51 34 34 51 34 34 51 34 34 51 34 34 51 34 34 51 34 34 51 34 34 51 34 34 51 34 34 51 34 34 51 34 34 51 34 34 51 34 34 51 34 34 51 34 34 51 34 34 51 34 34 51 34 34 51 34 34 51 34 34 51 34 34 51 34 34 51 34 34 51 85 102 119 85 102 119 34 34 51 34 34 51 34 34 51 34 34 51 34 34 51 34 34 51 34 34 51 34 34 51 34 34 51 34 34 51 34 34 51 34 34 51 34 34 51 34 34 51 34 34 51 34 34 51 34 34 51 34 34 51 34 34 51 34 34 51 34 34 51 34 34 51 34 34 51 34 34 51 34 34 51 34 34 51 85 102 119 85 102 119 34 34 51 34 34 51 34 34 51 34 34 51 34 34 51 34 34 51 85 102 119 85 102 119 34 34 51 34 34 51 34 34 51 34 34 51 34 34 51 34 34 51 34 34 51 34 34 51 34 34 51 34 34 51 34 34 51 34 34 51 34 34 51 34 34 51 34 34 51 34 34 51 34 34 51 34 34 51 34 34 51 34 34 51 34 34 51 34 34 51 34 34 51 34 34 51 34 34 51 34 34 51 85 102 119 85 102 119 34 34 51 34 34 51 34 34 51 34 34 51 34 34 51 34 34 51 0 170 221 0 170 221 34 34 51 34 34 51 34 34 51 34 34 51 34 34 51 34 34 51 34 34 51 34 34 51 34 34 51 34 34 51 34 34 51 34 34 51 34 34 51 34 34 51 34 34 51 34 34 51 34 34 51 34 34 51 34 34 51 34 34 51 34 34 51 34 34 51 34 34 51 34 34 51 34 34 51 34 34 51 0 170 221 0 170 221 34 34 51 34 34 51 34 34 51 34 34 51 34 34 51 34 34 51 85 102 119 85 102 119 34 34 51 34 34 51 34 34 51 34 34 51 34 34 51 34 34 51 34 34 51 34 34 51 34 34 51 34 34 51 34 34 51 34 34 51 34 34 51 34 34 51 34 34 51 34 34 51 34 34 51 34 34 51 34 34 51 34 34 51 34 34 51 34 34 51 34 34 51 34 34 51 34 34 51 34 34 51 85 102 119 85 102 119 34 34 51 34 34 51 34 34 51 34 34 51 34 34 51 34 34 51 34 34 51 34 34 51 34 34 51 34 34 51 34 34 51 34 34 51 34 34 51 34 34 51 34 34 51 34 34 51 34 34 51 34 34 51 34 34 51 34 34 51 34 34 51 34 34 51 34 34 51 34 34 51 34 34 51 34 34 51 34 34 51 34 34 51 34 34 51 34 34 51 34 34 51 34 34 51 34 34 51 34 34 51 34 34 51 34 34 51 34 34 51 34 34 51 34 34 51 34 34 51 34 34 51 34 34 51 34 34 51 34 34 51 34 34 51 34 34 51 34 34 51 34 34 51 34 34 51 34 34 51 34 34 51 34 34 51 34 34 51 34 34 51 34 34 51 34 34 51 34 34 51 34 34 51 34 34 51 34 34 51 34 34 51 34 34 51 34 34 51 34 34 51 34 34 51 34 34 51 34 34 51 34 34 51 34 34 51 34 34 51 34 34 51 34 34 51 34 34 51 34 34 51 34 34 51 34 34 51 34 34 51 34 34 51 34 34 51 34 34 51 34 34 51 34 34 51 34 34 51 34 34 51 34 34 51 34 34 51 34 34 51 34 34 51 34 34 51 34 34 51 34 34 51 34 34 51 34 34 51 34 34 51
34 34 51 34 34 51 34 34 51 34 34 51 34 34 51 34 34 51 34 34 51 34 34 51 34 34 51 34 34 51 34 34 51 34 34 51 34 34 51 34 34 51 34 34 51 34 34 51 34 34 51 34 34 51 34 34 51 34 34 51 34 34 51 34 34 51 34 34 51 34 34 51 34 34 51 34 34 51 34 34 51 34 34 51 34 34 51 34 34 51 34 34 51 34 34 51 34 34 51 34 34 51 34 34 51 34 34 51 34 34 51 34 34 51 34 34 51 34 34 51 34 34 51 34 34 51 34 34 51 34 34 51 34 34 51 34 34 51 34 34 51 34 34 51 34 34 51 34 34 51 34 34 51 34 34 51 34 34 51 34 34 51 34 34 51 34 34 51 34 34 51 34 34 51 34 34 51 34 34 51 34 34 51 34 34 51 34 34 51 34 34 51 34 34 51 34 34 51 34 34 51 34 34 51 34 34 51 34 34 51 34 34 51 34 34 51 34 34 51 34 34 51 34 34 51 34 34 51 34 34 51 34 34 51 34 34 51 34 34 51 34 34 51 34 34 51 34 34 51 34 34 51 34 34 51 34 34 51 34 34 51 34 34 51 85 102 119 85 102 119 34 34 51 34 34 51 34 34 51 34 34 51 34 34 51 34 34 51 34 34 51 34 34 51 34 34 51 68 221 119 68 221 119 68 221 119 68 221 119 68 221 119 68 221 119 68 221 119 68 221 119 34 34 51 34 34 51 34 34 51 34 34 51 34 34 51 34 34 51 34 34 51 34 34 51 34 34 51 85 102 119 85 102 119 34 34 51 34 34 51 34 34 51 34 34 51 34 34 51 34 34 51 85 102 119 85 102 119 34 34 51 34 34 51 34 34 51 34 34 51 34 34 51 34 34 51 34 34 51 34 34 51 34 34 51 68 221 119 68 221 119 68 221 119 68 221 119 68 221 119 68 221 119 68 221 119 68 221 119 34 34 51 34 34 51 34 34 51 34 34 51 34 34 51 34 34 51 34 34 51 34 34 51 34 34 51 85 102 119 85 102 119 34 34 51 34 34 51 34 34 51 34 34 51 34 34 51 34 34 51 0 170 221 0 170 221 34 34 51 34 34 51 34 34 51 34 34 51 34 34 51 34 34 51 34 34 51 34 34 51 34 34 51 34 34 51 34 34 51 34 34 51 34 34 51 34 34 51 34 34 51 34 34 51 34 34 51 34 34 51 34 34 51 34 34 51 34 34 51 34 34 51 34 34 51 34 34 51 34 34 51 34 34 51 0 170 221 0 170 221 34 34 51 34 34 51 34 34 51 34 34 51 34 34 51 34 34 51 85 102 119 85 102 119 34 34 51 34 34 51 34 34 51 34 34 51 34 34 51 34 34 51 34 34 51 34 34 51 34 34 51 68 221 119 68 221 119 68 221 119 68 221 119 68 221 119 68 221 119 68 221 119 68 221 119 34 34 51 34 34 51 34 34 51 34 34 51 34 34 51 34 34 51 34 34 51 34 34 51 34 34 51 85 102 119 85 102 119 34 34 51 34 34 51 34 34 51 34 34 51 34 34 51 34 34 51 34 34 51 34 34 51 34 34 51 34 34 51 34 34 51 34 34 51 34 34 51 34 34 51 34 34 51 34 34 51 34 34 51 34 34 51 34 34 51 34 34 51 34 34 51 34 34 51 34 34 51 34 34 51 34 34 51 34 34 51 34 34 51 34 34 51 34 34 51 34 34 51 34 34 51 34 34 51 34 34 51 34 34 51 34 34 51 34 34 51 34 34 51 34 34 51 34 34 51 34 34 51 34 34 51 34 34 51 34 34 51 34 34 51 34 34 51 34 34 51 34 34 51 34 34 51 34 34 51 34 34 51 34 34 51 34 34 51 34 34 51 34 34 51 34 34 51 34 34 51 34 34 51 34 34 51 34 34 51 34 34 51 34 34 51 34 34 51 34 34 51 34 34 51 34 34 51 34 34 51 34 34 51 34 34 51 34 34 51 34 34 51 34 34 51 34 34 51 34 34 51 34 34 51 34 34 51 34 34 51 34 34 51 34 34 51 34 34 51 34 34 51 34 34 51 34 34 51 34 34 51 34 34 51 34 34 51 34 34 51 34 34 51 34 34 51 34 34 51 34 34 51 34 34 51 34 34 51 34 34 51 34 34 51
34 34 51 34 34 51 34 34 51 34 34 51 34 34 51 34 34 51 34 34 51 34 34 51 34 34 51 34 34 51 34 34 51 34 34 51 34 34 51 34 34 51 34 34 51 34 34 51 34 34 51 34 34 51 34 34 51 34 34 51 34 34 51 34 34 51 34 34 51 34 34 51 34 34 51 34 34 51 34 34 51 34 34 51 34 34 51 34 34 51 34 34 51 34 34 51 34 34 51 34 34 51 34 34 51 34 34 51 34 34 51 34 34 51 34 34 51 34 34 51 34 34 51 34 34 51 34 34 51 34 34 51 34 34 51 34 34 51 34 34 51 34 34 51 34 34 51 34 34 51 34 34 51 34 34 51 34 34 51 34 34 51 34 34 51 34 34 51 34 34 51 34 34 51 34 34 51 34 34 51 34 34 51 34 34 51 34 34 51 34 34 51 34 34 51 34 34 51 34 34 51 34 34 51 34 34 51 34 34 51 34 34 51 34 34 51 34 34 51 34 34 51 34 34 51 34 34 51 34 34 51 34 34 51 34 34 51 34 34 51 34 34 51 34 34 51 34 34 51 34 34 51 34 34 51 34 34 51 34 34 51 34 34 51 85 102 119 85 102 119 34 34 51 34 34 51 34 34 51 34 34 51 34 34 51 34 34 51 34 34 51 34 34 51 34 34 51 68 221 119 68 221 119 68 221 119 68 221 119 68 221 119 68 221 119 68 221 119 68 221 119 34 34 51 34 34 51 34 34 51 34 34 51 34 34 51 34 34 51 34 34 51 34 34 51 34 34 51 85 102 119 85 102 119 34 34 51 34 34 51 34 34 51 34 34 51 34 34 51 34 34 51 85 102 119 85 102 119 34 34 51 34 34 51 34 34 51 34 34 51 34 34 51 34 34 51 34 34 51 34 34 51 34 34 51 68 221 119 68 221 119 68 221 119 68 221 119 68 221 119 68 221 119 68 221 119 68 221 119 34 34 51 34 34 51 34 34 51 34 34 51 34 34 51 34 34 51 34 34 51 34 34 51 34 34 51 85 102 119 85 102 119 34 34 51 34 34 51 34 34 51 34 34 51 34 34 51 34 34 51 0 170 221 0 170 221 34 34 51 34 34 51 34 34 51 34 34 51 34 34 51 34 34 51 34 34 51 34 34 51 34 34 51 34 34 51 34 34 51 34 34 51 34 34 51 34 34 51 34 34 51 34 34 51 34 34 51 34 34 51 34 34 51 34 34 51 34 34 51 34 34 51 34 34 51 34 34 51 34 34 51 34 34 51 0 170 221 0 170 221 34 34 51 34 34 51 34 34 51 34 34 51 34 34 51 34 34 51 85 102 119 85 102 119 34 34 51 34 34 51 34 34 51 34 34 51 34 34 51 34 34 51 34 34 51 34 34 51 34 34 51 68 221 119 68 221 119 68 221 119 68 221 119 68 221 119 68 221 119 68 221 119 68 221 119 34 34 51 34 34 51 34 34 51 34 34 51 34 34 51 34 34 51 34 34 51 34 34 51 34 34 51 85 102 119 85 102 119 34 34 51 34 34 51 34 34 51 34 34 51 34 34 51 34 34 51 34 34 51 34 34 51 34 34 51 34 34 51 34 34 51 34 34 51 34 34 51 34 34 51 34 34 51 34 34 51 34 34 51 34 34 51 34 34 51 34 34 51 34 34 51 34 34 51 34 34 51 34 34 51 34 34 51 34 34 51 34 34 51 34 34 51 34 34 51 34 34 51 34 34 51 34 34 51 34 34 51 34 34 51 34 34 51 34 34 51 34 34 51 34 34 51 34 34 51 34 34 51 34 34 51 34 34 51 34 34 51 34 34 51 34 34 51 34 34 51 34 34 51 34 34 51 34 34 51 34 34 51 34 34 51 34 34 51 34 34 51 34 34 51 34 34 51 34 34 51 34 34 51 34 34 51 34 34 51 34 34 51 34 34 51 34 34 51 34 34 51 34 34 51 34 34 51 34 34 51 34 34 51 34 34 51 34 34 51 34 34 51 34 34 51 34 34 51 34 34 51 34 34 51 34 34 51 34 34 51 34 34 51 34 34 51 34 34 51 34 34 51 34 34 51 34 34 51 34 34 51 34 34 51 34 34 51 34 34 51 34 34 51 34 34 51 34 34 51 34 34 51 34 34 51 34 34 51 34 34 51 34 34 51
34 34 51 34 34 51 34 34 51 34 34 51 34 34 51 34 34 51 34 34 51 34 34 51 34 34 51 34 34 51 34 34 51 34 34 51 34 34 51 34 34 51 34 34 51 34 34 51 34 34 51 34 34 51 34 34 51 34 34 51 34 34 51 34 34 51 34 34 51 34 34 51 34 34 51 34 34 51 34 34 51 34 34 51 34 34 51 34 34 51 34 34 51 34 34 51 34 34 51 34 34 51 34 34 51 34 34 51 34 34 51 34 34 51 34 34 51 34 34 51 34 34 51 34 34 51 34 34 51 34 34 51 34 34 51 34 34 51 34 34 51 34 34 51 34 34 51 34 34 51 34 34 51 34 34 51 34 34 51 34 34 51 34 34 51 34 34 51 34 34 51 34 34 51 34 34 51 34 34 51 34 34 51 34 34 51 34 34 51 34 34 51 34 34 51 34 34 51 34 34 51 34 34 51 34 34 51 34 34 51 34 34 51 34 34 51 34 34 51 34 34 51 34 34 51 34 34 51 34 34 51 34 34 51 34 34 51 34 34 51 34 34 51 34 34 51 34 34 51 34 34 51 34 34 51 34 34 51 34 34 51 34 34 51 85 102 119 85 102 119 34 34 51 34 34 51 34 34 51 34 34 51 34 34 51 34 34 51 34 34 51 34 34 51 34 34 51 68 221 119 68 221 119 68 221 119 68 221 119 68 221 119 68 221 119 68 221 119 68 221 119 34 34 51 34 34 51 34 34 51 34 34 51 34 34 51 34 34 51 34 34 51 34 34 51 34 34 51 85 102 119 85 102 119 34 34 51 34 34 51 34 34 51 34 34 51 34 34 51 34 34 51 85 102 119 85 102 119 34 34 51 34 34 51 34 34 51 34 34 51 34 34 51 34 34 51 34 34 51 34 34 51 34 34 51 68 221 119 68 221 119 68 221 119 68 221 119 68 221 119 68 221 119 68 221 119 68 221 119 34 34 51 34 34 51 34 34 51 34 34 51 34 34 51 34 34 51 34 34 51 34 34 51 34 34 51 85 102 119 85 102 119 34 34 51 34 34 51 34 34 51 34 34 51 34 34 51 34 34 51 0 170 221 0 170 221 34 34 51 34 34 51 34 34 51 34 34 51 34 34 51 34 34 51 34 34 51 34 34 51 34 34 51 34 34 51 34 34 51 34 34 51 34 34 51 34 34 51 34 34 51 34 34 51 34 34 51 34 34 51 34 34 51 34 34 51 34 34 51 34 34 51 34 34 51 34 34 51 34 34 51 34 34 51 0 170 221 0 170 221 34 34 51 34 34 51 34 34 51 34 34 51 34 34 51 34 34 51 85 102 119 85 102 119 34 34 51 34 34 51 34 34 51 34 34 51 34 34 51 34 34 51 34 34 51 34 34 51 34 34 51 68 221 119 68 221 119 68 221 119 68 221 119 68 221 119 68 221 119 68 221 119 68 221 119 34 34 51 34 34 51 34 34 51 34 34 51 34 34 51 34 34 51 34 34 51 34 34 51 34 34 51 85 102 119 85 102 119 34 34 51 34 34 51 34 34 51 34 34 51 34 34 51 34 34 51 34 34 51 34 34 51 34 34 51 34 34 51 34 34 51 34 34 51 34 34 51 34 34 51 34 34 51 34 34 51 34 34 51 34 34 51 34 34 51 34 34 51 34 34 51 34 34 51 34 34 51 34 34 51 34 34 51 34 34 51 34 34 51 34 34 51 34 34 51 34 34 51 34 34 51 34 34 51 34 34 51 34 34 51 34 34 51 34 34 51 34 34 51 34 34 51 34 34 51 34 34 51 34 34 51 34 34 51 34 34 51 34 34 51 34 34 51 34 34 51 34 34 51 34 34 51 34 34 51 34 34 51 34 34 51 34 34 51 34 34 51 34 34 51 34 34 51 34 34 51 34 34 51 34 34 51 34 34 51 34 34 51 34 34 51 34 34 51 34 34 51 34 34 51 34 34 51 34 34 51 34 34 51 34 34 51 34 34 51 34 34 51 34 34 51 34 34 51 34 34 51 34 34 51 34 34 51 34 34 51 34 34 51 34 34 51 34 34 51 34 34 51 34 34 51 34 34 51 34 34 51 34 34 51 34 34 51 34 34 51 34 34 51 34 34 51 34 34 51 34 34 51 34 34 51 34 34 51 34 34 51 34 34 51
34 34 51 34 34 51 34 34 51 34 34 51 34 34 51 34 34 51 34 34 51 34 34 51 34 34 51 34 34 51 34 34 51 34 34 51 34 34 51 34 34 51 34 34 51 34 34 51 34 34 51 34 34 51 34 34 51 34 34 51 34 34 51 34 34 51 34 34 51 34 34 51 34 34 51 34 34 51 34 34 51 34 34 51 34 34 51 34 34 51 34 34 51 34 34 51 34 34 51 34 34 51 34 34 51 34 34 51 34 34 51 34 34 51 34 34 51 34 34 51 34 34 51 34 34 51 34 34 51 34 34 51 34 34 51 34 34 51 34 34 51 34 34 51 34 34 51 34 34 51 34 34 51 34 34 51 34 34 51 34 34 51 34 34 51 34 34 51 34 34 51 34 34 51 34 34 51 34 34 51 34 34 51 34 34 51 34 34 51 34 34 51 34 34 51 34 34 51 34 34 51 34 34 51 34 34 51 34 34 51 34 34 51 34 34 51 34 34 51 34 34 51 34 34 51 34 34 51 34 34 51 34 34 51 34 34 51 34 34 51 34 34 51 34 34 51 34 34 51 34 34 51 34 34 51 34 34 51 34 34 51 34 34 51 85 102 119 85 102 119 34 34 51 34 34 51 34 34 51 34 34 51 34 34 51 34 34 51 34 34 51 34 34 51 34 34 51 68 221 119 68 221 119 68 221 119 68 221 119 68 221 119 68 221 119 68 221 119 68 221 119 34 34 51 34 34 51 34 34 51 34 34 51 34 34 51 34 34 51 34 34 51 34 34 51 34 34 51 85 102 119 85 102 119 34 34 51 34 34 51 34 34 51 34 34 51 34 34 51 34 34 51 85 102 119 85 102 119 34 34 51 34 34 51 34 34 51 34 34 51 34 34 51 34 34 51 34 34 51 34 34 51 34 34 51 68 221 119 68 221 119 68 221 119 68 221 119 68 221 119 68 221 119 68 221 119 68 221 119 34 34 51 34 34 51 34 34 51 34 34 51 34 34 51 34 34 51 34 34 51 34 34 51 34 34 51 85 102 119 85 102 119 34 34 51 34 34 51 34 34 51 34 34 51 34 34 51 34 34 51 0 170 221 0 170 221 34 34 51 34 34 51 34 34 51 34 34 51 34 34 51 34 34 51 34 34 51 34 34 51 34 34 51 34 34 51 34 34 51 34 34 51 34 34 51 34 34 51 34 34 51 34 34 51 34 34 51 34 34 51 34 34 51 34 34 51 34 34 51 34 34 51 34 34 51 34 34 51 34 34 51 34 34 51 0 170 221 0 170 221 34 34 51 34 34 51 34 34 51 34 34 51 34 34 51 34 34 51 85 102 119 85 102 119 34 34 51 34 34 51 34 34 51 34 34 51 34 34 51 34 34 51 34 34 51 34 34 51 34 34 51 68 221 119 68 221 119 68 221 119 68 221 119 68 221 119 68 221 119 68 221 119 68 221 119 34 34 51 34 34 51 34 34 51 34 34 51 34 34 51 34 34 51 34 34 51 34 34 51 34 34 51 85 102 119 85 102 119 34 34 51 34 34 51 34 34 51 34 34 51 34 34 51 34 34 51 34 34 51 34 34 51 34 34 51 34 34 51 34 34 51 34 34 51 34 34 51 34 34 51 34 34 51 34 34 51 34 34 51 34 34 51 34 34 51 34 34 51 34 34 51 34 34 51 34 34 51 34 34 51 34 34 51 34 34 51 34 34 51 34 34 51 34 34 51 34 34 51 34 34 51 34 34 51 34 34 51 34 34 51 34 34 51 34 34 51 34 34 51 34 34 51 34 34 51 34 34 51 34 34 51 34 34 51 34 34 51 34 34 51 34 34 51 34 34 51 34 34 51 34 34 51 34 34 51 34 34 51 34 34 51 34 34 51 34 34 51 34 34 51 34 34 51 34 34 51 34 34 51 34 34 51 34 34 51 34 34 51 34 34 51 34 34 51 34 34 51 34 34 51 34 34 51 34 34 51 34 34 51 34 34 51 34 34 51 34 34 51 34 34 51 34 34 51 34 34 51 34 34 51 34 34 51 34 34 51 34 34 51 34 34 51 34 34 51 34 34 51 34 34 51 34 34 51 34 34 51 34 34 51 34 34 51 34 34 51 34 34 51 34 34 51 34 34 51 34 34 51 34 34 51 34 34 51 34 34 51 34 34 51
34 34 51 34 34 51 34 34 51 34 34 51 34 34 51 34 34 51 34 34 51 34 34 51 34 34 51 34 34 51 34 34 51 34 34 51 34 34 51 34 34 51 34 34 51 34 34 51 34 34 51 34 34 51 34 34 51 34 34 51 34 34 51 34 34 51 34 34 51 34 34 51 34 34 51 34 34 51 34 34 51 34 34 51 34 34 51 34 34 51 34 34 51 34 34 51 34 34 51 34 34 51 34 34 51 34 34 51 34 34 51 34 34 51 34 34 51 34 34 51 34 34 51 34 34 51 34 34 51 34 34 51 34 34 51 34 34 51 34 34 51 34 34 51 34 34 51 34 34 51 34 34 51 34 34 51 34 34 51 34 34 51 34 34 51 34 34 51 34 34 51 34 34 51 34 34 51 34 34 51 34 34 51 34 34 51 34 34 51 34 34 51 34 34 51 34 34 51 34 34 51 34 34 51 34 34 51 34 34 51 34 34 51 34 34 51 34 34 51 34 34 51 34 34 51 34 34 51 34 34 51 34 34 51 34 34 51 34 34 51 34 34 51 34 34 51 34 34 51 34 34 51 34 34 51 34 34 51 34 34 51 34 34 51 85 102 119 85 102 119 34 34 51 34 34 51 34 34 51 34 34 51 34 34 51 34 34 51 34 34 51 34 34 51 34 34 51 34 34 51 34 34 51 34 34 51 34 34 51 34 34 51 34 34 51 34 34 51 34 34 51 34 34 51 34 34 51 34 34 51 34 34 51 34 34 51 34 34 51 34 34 51 34 34 51 34 34 51 85 102 119 85 102 119 34 34 51 34 34 51 34 34 51 34 34 51 34 34 51 34 34 51 85 102 119 85 102 119 34 34 51 34 34 51 34 34 51 34 34 51 34 34 51 34 34 51 34 34 51 34 34 51 34 34 51 34 34 51 34 34 51 34 34 51 34 34 51 34 34 51 34 34 51 34 34 51 34 34 51 34 34 51 34 34 51 34 34 51 34 34 51 34 34 51 34 34 51 34 34 51 34 34 51 34 34 51 85 102 119 85 102 119 34 34 51 34 34 51 34 34 51 34 34 51 34 34 51 34 34 51 0 170 221 0 170 221 34 34 51 34 34 51 34 34 51 34 34 51 34 34 51 34 34 51 34 34 51 34 34 51 34 34 51 34 34 51 34 34 51 34 34 51 34 34 51 34 34 51 34 34 51 34 34 51 34 34 51 34 34 51 34 34 51 34 34 51 34 34 51 34 34 51 34 34 51 34 34 51 34 34 51 34 34 51 0 170 221 0 170 221 34 34 51 34 34 51 34 34 51 34 34 51 34 34 51 34 34 51 85 102 119 85 102 119 34 34 51 34 34 51 34 34 51 34 34 51 34 34 51 34 34 51 34 34 51 34 34 51 34 34 51 34 34 51 34 34 51 34 34 51 34 34 51 34 34 51 34 34 51 34 34 51 34 34 51 34 34 51 34 34 51 34 34 51 34 34 51 34 34 51 34 34 51 34 34 51 34 34 51 34 34 51 85 102 119 85 102 119 34 34 51 34 34 51 34 34 51 34 34 51 34 34 51 34 34 51 34 34 51 34 34 51 34 34 51 34 34 51 34 34 51 34 34 51 34 34 51 34 34 51 34 34 51 34 34 51 34 34 51 34 34 51 34 34 51 34 34 51 34 34 51 34 34 51 34 34 51 34 34 51 34 34 51 34 34 51 34 34 51 34 34 51 34 34 51 34 34 51 34 34 51 34 34 51 34 34 51 34 34 51 34 34 51 34 34 51 34 34 51 34 34 51 34 34 51 34 34 51 34 34 51 34 34 51 34 34 51 34 34 51 34 34 51 34 34 51 34 34 51 34 34 51 34 34 51 34 34 51 34 34 51 34 34 51 34 34 51 34 34 51 34 34 51 34 34 51 34 34 51 34 34 51 34 34 51 34 34 51 34 34 51 34 34 51 34 34 51 34 34 51 34 34 51 34 34 51 34 34 51 34 34 51 34 34 51 34 34 51 34 34 51 34 34 51 34 34 51 34 34 51 34 34 51 34 34 51 34 34 51 34 34 51 34 34 51 34 34 51 34 34 51 34 34 51 34 34 51 34 34 51 34 34 51 34 34 51 34 34 51 34 34 51 34 34 51 34 34 51 34 34 51 34 34 51 34 34 51 34 34 51
34 34 51 34 34 51 34 34 51 34 34 51 34 34 51 34 34 51 34 34 51 34 34 51 34 34 51 34 34 51 34 34 51 34 34 51 34 34 51 34 34 51 34 34 51 34 34 51 34 34 51 34 34 51 34 34 51 34 34 51 34 34 51 34 34 51 34 34 51 34 34 51 34 34 51 34 34 51 34 34 51 34 34 51 34 34 51 34 34 51 34 34 51 34 34 51 34 34 51 34 34 51 34 34 51 34 34 51 34 34 51 34 34 51 34 34 51 34 34 51 34 34 51 34 34 51 34 34 51 34 34 51 34 34 51 34 34 51 34 34 51 34 34 51 34 34 51 34 34 51 34 34 51 34 34 51 34 34 51 34 34 51 34 34 51 34 34 51 34 34 51 34 34 51 34 34 51 34 34 51 34 34 51 34 34 51 34 34 51 34 34 51 34 34 51 34 34 51 34 34 51 34 34 51 34 34 51 34 34 51 34 34 51 34 34 51 34 34 51 34 34 51 34 34 51 34 34 51 34 34 51 34 34 51 34 34 51 34 34 51 34 34 51 34 34 51 34 34 51 34 34 51 34 34 51 34 34 51 34 34 51 34 34 51 85 102 119 85 102 119 34 34 51 34 34 51 34 34 51 34 34 51 34 34 51 34 34 51 34 34 51 34 34 51 34 34 51 34 34 51 34 34 51 34 34 51 34 34 51 34 34 51 34 34 51 34 34 51 34 34 51 34 34 51 34 34 51 34 34 51 34 34 51 34 34 51 34 34 51 34 34 51 34 34 51 34 34 51 85 102 119 85 102 119 34 34 51 34 34 51 34 34 51 34 34 51 34 34 51 34 34 51 85 102 119 85 102 119 34 34 51 34 34 51 34 34 51 34 34 51 34 34 51 34 34 51 34 34 51 34 34 51 34 34 51 34 34 51 34 34 51 34 34 51 34 34 51 34 34 51 34 34 51 34 34 51 34 34 51 34 34 51 34 34 51 34 34 51 34 34 51 34 34 51 34 34 51 34 34 51 34 34 51 34 34 51 85 102 119 85 102 119 34 34 51 34 34 51 34 34 51 34 34 51 34 34 51 34 34 51 0 170 221 0 170 221 34 34 51 34 34 51 34 34 51 34 34 51 34 34 51 34 34 51 34 34 51 34 34 51 34 34 51 34 34 51 34 34 51 34 34 51 34 34 51 34 34 51 34 34 51 34 34 51 34 34 51 34 34 51 34 34 51 34 34 51 34 34 51 34 34 51 34 34 51 34 34 51 34 34 51 34 34 51 0 170 221 0 170 221 34 34 51 34 34 51 34 34 51 34 34 51 34 34 51 34 34 51 85 102 119 85 102 119 34 34 51 34 34 51 34 34 51 34 34 51 34 34 51 34 34 51 34 34 51 34 34 51 34 34 51 34 34 51 34 34 51 34 34 51 34 34 51 34 34 51 34 34 51 34 34 51 34 34 51 34 34 51 34 34 51 34 34 51 34 34 51 34 34 51 34 34 51 34 34 51 34 34 51 34 34 51 85 102 119 85 102 119 34 34 51 34 34 51 34 34 51 34 34 51 34 34 51 34 34 51 34 34 51 34 34 51 34 34 51 34 34 51 34 34 51 34 34 51 34 34 51 34 34 51 34 34 51 34 34 51 34 34 51 34 34 51 34 34 51 34 34 51 34 34 51 34 34 51 34 34 51 34 34 51 34 34 51 34 34 51 34 34 51 34 34 51 34 34 51 34 34 51 34 34 51 34 34 51 34 34 51 34 34 51 34 34 51 34 34 51 34 34 51 34 34 51 34 34 51 34 34 51 34 34 51 34 34 51 34 34 51 34 34 51 34 34 51 34 34 51 34 34 51 34 34 51 34 34 51 34 34 51 34 34 51 34 34 51 34 34 51 34 34 51 34 34 51 34 34 51 34 34 51 34 34 51 34 34 51 34 34 51 34 34 51 34 34 51 34 34 51 34 34 51 34 34 51 34 34 51 34 34 51 34 34 51 34 34 51 34 34 51 34 34 51 34 34 51 34 34 51 34 34 51 34 34 51 34 34 51 34 34 51 34 34 51 34 34 51 34 34 51 34 34 51 34 34 51 34 34 51 34 34 51 34 34 51 34 34 51 34 34 51 34 34 51 34 34 51 34 34 51 34 34 51 34 34 51 34 34 51 34 34 51
34 34 51 34 34 51 34 34 51 34 34 51 34 34 51 34 34 51 34 34 51 34 34 51 34 34 51 34 34 51 34 34 51 34 34 51 34 34 51 34 34 51 34 34 51 34 34 51 34 34 51 34 34 51 34 34 51 34 34 51 34 34 51 34 34 51 34 34 51 34 34 51 34 34 51 34 34 51 34 34 51 34 34 51 34 34 51 34 34 51 34 34 51 34 34 51 34 34 51 34 34 51 34 34 51 34 34 51 34 34 51 34 34 51 34 34 51 34 34 51 34 34 51 34 34 51 34 34 51 34 34 51 34 34 51 34 34 51 34 34 51 34 34 51 34 34 51 34 34 51 34 34 51 34 34 51 34 34 51 34 34 51 34 34 51 34 34 51 34 34 51 34 34 51 34 34 51 34 34 51 34 34 51 34 34 51 34 34 51 34 34 51 34 34 51 34 34 51 34 34 51 34 34 51 34 34 51 34 34 51 34 34 51 34 34 51 34 34 51 34 34 51 34 34 51 34 34 51 34 34 51 34 34 51 34 34 51 34 34 51 34 34 51 34 34 51 34 34 51 34 34 51 34 34 51 34 34 51 34 34 51 34 34 51 85 102 119 85 102 119 34 34 51 34 34 51 34 34 51 34 34 51 34 34 51 34 34 51 34 34 51 34 34 51 34 34 51 34 34 51 34 34 51 34 34 51 34 34 51 34 34 51 34 34 51 34 34 51 34 34 51 34 34 51 34 34 51 34 34 51 34 34 51 34 34 51 34 34 51 34 34 51 34 34 51 34 34 51 85 102 119 85 102 119 34 34 51 34 34 51 34 34 51 34 34 51 34 34 51 34 34 51 85 102 119 85 102 119 34 34 51 34 34 51 34 34 51 34 34 51 34 34 51 34 34 51 34 34 51 34 34 51 34 34 51 34 34 51 34 34 51 34 34 51 34 34 51 34 34 51 34 34 51 34 34 51 34 34 51 34 34 51 34 34 51 34 34 51 34 34 51 34 34 51 34 34 51 34 34 51 34 34 51 34 34 51 85 102 119 85 102 119 34 34 51 34 34 51 34 34 51 34 34 51 34 34 51 34 34 51 0 170 221 0 170 221 34 34 51 34 34 51 34 34 51 34 34 51 34 34 51 34 34 51 34 34 51 34 34 51 34 34 51 34 34 51 34 34 51 34 34 51 34 34 51 34 34 51 34 34 51 34 34 51 34 34 51 34 34 51 34 34 51 34 34 51 34 34 51 34 34 51 34 34 51 34 34 51 34 34 51 34 34 51 0 170 221 0 170 221 34 34 51 34 34 51 34 34 51 34 34 51 34 34 51 34 34 51 85 102 119 85 102 119 34 34 51 34 34 51 34 34 51 34 34 51 34 34 51 34 34 51 34 34 51 34 34 51 34 34 51 34 34 51 34 34 51 34 34 51 34 34 51 34 34 51 34 34 51 34 34 51 34 34 51 34 34 51 34 34 51 34 34 51 34 34 51 34 34 51 34 34 51 34 34 51 34 34 51 34 34 51 85 102 119 85 102 119 34 34 51 34 34 51 34 34 51 34 34 51 34 34 51 34 34 51 34 34 51 34 34 51 34 34 51 34 34 51 34 34 51 34 34 51 34 34 51 34 34 51 34 34 51 34 34 51 34 34 51 34 34 51 34 34 51 34 34 51 34 34 51 34 34 51 34 34 51 34 34 51 34 34 51 34 34 51 34 34 51 34 34 51 34 34 51 34 34 51 34 34 51 34 34 51 34 34 51 34 34 51 34 34 51 34 34 51 34 34 51 34 34 51 34 34 51 34 34 51 34 34 51 34 34 51 34 34 51 34 34 51 34 34 51 34 34 51 34 34 51 34 34 51 34 34 51 34 34 51 34 34 51 34 34 51 34 34 51 34 34 51 34 34 51 34 34 51 34 34 51 34 34 51 34 34 51 34 34 51 34 34 51 34 34 51 34 34 51 34 34 51 34 34 51 34 34 51 34 34 51 34 34 51 34 34 51 34 34 51 34 34 51 34 34 51 34 34 51 34 34 51 34 34 51 34 34 51 34 34 51 34 34 51 34 34 51 34 34 51 34 34 51 34 34 51 34 34 51 34 34 51 34 34 51 34 34 51 34 34 51 34 34 51 34 34 51 34 34 51 34 34 51 34 34 51 34 34 51 34 34 51
34 34 51 34 34 51 34 34 51 34 34 51 34 34 51 34 34 51 34 34 51 34 34 51 34 34 51 34 34 51 34 34 51 34 34 51 34 34 51 34 34 51 34 34 51 34 34 51 34 34 51 34 34 51 34 34 51 34 34 51 34 34 51 34 34 51 34 34 51 34 34 51 34 34 51 34 34 51 34 34 51 34 34 51 34 34 51 34 34 51 34 34 51 34 34 51 34 34 51 34 34 51 34 34 51 34 34 51 34 34 51 34 34 51 34 34 51 34 34 51 34 34 51 34 34 51 34 34 51 34 34 51 34 34 51 34 34 51 34 34 51 34 34 51 34 34 51 34 34 51 34 34 51 34 34 51 34 34 51 34 34 51 34 34 51 34 34 51 34 34 51 34 34 51 34 34 51 34 34 51 34 34 51 34 34 51 34 34 51 34 34 51 34 34 51 34 34 51 34 34 51 34 34 51 34 34 51 34 34 51 34 34 51 34 34 51 34 34 51 34 34 51 34 34 51 34 34 51 34 34 51 34 34 51 34 34 51 34 34 51 34 34 51 34 34 51 34 34 51 34 34 51 34 34 51 34 34 51 34 34 51 34 34 51 85 102 119 85 102 119 34 34 51 34 34 51 34 34 51 34 34 51 34 34 51 34 34 51 34 34 51 34 34 51 34 34 51 34 34 51 34 34 51 34 34 51 34 34 51 34 34 51 34 34 51 34 34 51 34 34 51 34 34 51 34 34 51 34 34 51 34 34 51 34 34 51 34 34 51 34 34 51 34 34 51 34 34 51 85 102 119 85 102 119 34 34 51 34 34 51 34 34 51 34 34 51 34 34 51 34 34 51 85 102 119 85 102 119 34 34 51 34 34 51 34 34 51 34 34 51 34 34 51 34 34 51 34 34 51 34 34 51 34 34 51 34 34 51 34 34 51 34 34 51 34 34 51 34 34 51 34 34 51 34 34 51 34 34 51 34 34 51 34 34 51 34 34 51 34 34 51 34 34 51 34 34 51 34 34 51 34 34 51 34 34 51 85 102 119 85 102 119 34 34 51 34 34 51 34 34 51 34 34 51 34 34 51 34 34 51 0 170 221 0 170 221 34 34 51 34 34 51 34 34 51 34 34 51 34 34 51 34 34 51 34 34 51 34 34 51 34 34 51 34 34 51 34 34 51 34 34 51 34 34 51 34 34 51 34 34 51 34 34 51 34 34 51 34 34 51 34 34 51 34 34 51 34 34 51 34 34 51 34 34 51 34 34 51 34 34 51 34 34 51 0 170 221 0 170 221 34 34 51 34 34 51 34 34 51 34 34 51 34 34 51 34 34 51 85 102 119 85 102 119 34 34 51 34 34 51 34 34 51 34 34 51 34 34 51 34 34 51 34 34 51 34 34 51 34 34 51 34 34 51 34 34 51 34 34 51 34 34 51 34 34 51 34 34 51 34 34 51 34 34 51 34 34 51 34 34 51 34 34 51 34 34 51 34 34 51 34 34 51 34 34 51 34 34 51 34 34 51 85 102 119 85 102 119 34 34 51 34 34 51 34 34 51 34 34 51 34 34 51 34 34 51 34 34 51 34 34 51 34 34 51 34 34 51 34 34 51 34 34 51 34 34 51 34 34 51 34 34 51 34 34 51 34 34 51 34 34 51 34 34 51 34 34 51 34 34 51 34 34 51 34 34 51 34 34 51 34 34 51 34 34 51 34 34 51 34 34 51 34 34 51 34 34 51 34 34 51 34 34 51 34 34 51 34 34 51 34 34 51 34 34 51 34 34 51 34 34 51 34 34 51 34 34 51 34 34 51 34 34 51 34 34 51 34 34 51 34 34 51 34 34 51 34 34 51 34 34 51 34 34 51 34 34 51 34 34 51 34 34 51 34 34 51 34 34 51 34 34 51 34 34 51 34 34 51 34 34 51 34 34 51 34 34 51 34 34 51 34 34 51 34 34 51 34 34 51 34 34 51 34 34 51 34 34 51 34 34 51 34 34 51 34 34 51 34 34 51 34 34 51 34 34 51 34 34 51 34 34 51 34 34 51 34 34 51 34 34 51 34 34 51 34 34 51 34 34 51 34 34 51 34 34 51 34 34 51 34 34 51 34 34 51 34 34 51 34 34 51 34 34 51 34 34 51 34 34 51 34 34 51 34 34 51 34 34 51
34 34 51 34 34 51 34 34 51 34 34 51 34 34 51 34 34 51 34 34 51 34 34 51 34 34 51 34 34 51 34 34 51 34 34 51 34 34 51 34 34 51 34 34 51 34 34 51 34 34 51 34 34 51 34 34 51 34 34 51 34 34 51 34 34 51 34 34 51 34 34 51 34 34 51 34 34 51 34 34 51 34 34 51 34 34 51 34 34 51 34 34 51 34 34 51 34 34 51 34 34 51 34 34 51 34 34 51 34 34 51 34 34 51 34 34 51 34 34 51 34 34 51 34 34 51 34 34 51 34 34 51 34 34 51 34 34 51 34 34 51 34 34 51 34 34 51 34 34 51 34 34 51 34 34 51 34 34 51 34 34 51 34 34 51 34 34 51 34 34 51 34 34 51 34 34 51 34 34 51 34 34 51 34 34 51 34 34 51 34 34 51 34 34 51 34 34 51 34 34 51 34 34 51 34 34 51 34 34 51 34 34 51 34 34 51 34 34 51 34 34 51 34 34 51 34 34 51 34 34 51 34 34 51 34 34 51 34 34 51 34 34 51 34 34 51 34 34 51 34 34 51 34 34 51 34 34 51 34 34 51 34 34 51 85 102 119 85 102 119 34 34 51 34 34 51 34 34 51 34 34 51 34 34 51 34 34 51 34 34 51 34 34 51 34 34 51 34 34 51 34 34 51 34 34 51 34 34 51 34 34 51 34 34 51 34 34 51 34 34 51 34 34 51 34 34 51 34 34 51 34 34 51 34 34 51 34 34 51 34 34 51 34 34 51 34 34 51 85 102 119 85 102 119 34 34 51 34 34 51 34 34 51 34 34 51 34 34 51 34 34 51 85 102 119 85 102 119 34 34 51 34 34 51 34 34 51 34 34 51 34 34 51 34 34 51 34 34 51 34 34 51 34 34 51 34 34 51 34 34 51 34 34 51 34 34 51 34 34 51 34 34 51 34 34 51 34 34 51 34 34 51 34 34 51 34 34 51 34 34 51 34 34 51 34 34 51 34 34 51 34 34 51 34 34 51 85 102 119 85 102 119 34 34 51 34 34 51 34 34 51 34 34 51 34 34 51 34 34 51 0 170 221 0 170 221 34 34 51 34 34 51 34 34 51 34 34 51 34 34 51 34 34 51 34 34 51 34 34 51 34 34 51 34 34 51 34 34 51 34 34 51 34 34 51 34 34 51 34 34 51 34 34 51 34 34 51 34 34 51 34 34 51 34 34 51 34 34 51 34 34 51 34 34 51 34 34 51 34 34 51 34 34 51 0 170 221 0 170 221 34 34 51 34 34 51 34 34 51 34 34 51 34 34 51 34 34 51 85 102 119 85 102 119 34 34 51 34 34 51 34 34 51 34 34 51 34 34 51 34 34 51 34 34 51 34 34 51 34 34 51 34 34 51 34 34 51 34 34 51 34 34 51 34 34 51 34 34 51 34 34 51 34 34 51 34 34 51 34 34 51 34 34 51 34 34 51 34 34 51 34 34 51 34 34 51 34 34 51 34 34 51 85 102 119 85 102 119 34 34 51 34 34 51 34 34 51 34 34 51 34 34 51 34 34 51 34 34 51 34 34 51 34 34 51 34 34 51 34 34 51 34 34 51 34 34 51 34 34 51 34 34 51 34 34 51 34 34 51 34 34 51 34 34 51 34 34 51 34 34 51 34 34 51 34 34 51 34 34 51 34 34 51 34 34 51 34 34 51 34 34 51 34 34 51 34 34 51 34 34 51 34 34 51 34 34 51 34 34 51 34 34 51 34 34 51 34 34 51 34 34 51 34 34 51 34 34 51 34 34 51 34 34 51 34 34 51 34 34 51 34 34 51 34 34 51 34 34 51 34 34 51 34 34 51 34 34 51 34 34 51 34 34 51 34 34 51 34 34 51 34 34 51 34 34 51 34 34 51 34 34 51 34 34 51 34 34 51 34 34 51 34 34 51 34 34 51 34 34 51 34 34 51 34 34 51 34 34 51 34 34 51 34 34 51 34 34 51 34 34 51 34 34 51 34 34 51 34 34 51 34 34 51 34 34 51 34 34 51 34 34 51 34 34 51 34 34 51 34 34 51 34 34 51 34 34 51 34 34 51 34 34 51 34 34 51 34 34 51 34 34 51 34 34 51 34 34 51 34 34 51 34 34 51 34 34 51 34 34 51
34 34 51 34 34 51 34 34 51 34 34 51 34 34 51 34 34 51 34 34 51 34 34 51 34 34 51 34 34 51 34 34 51 34 34 51 34 34 51 34 34 51 34 34 51 34 34 51 34 34 51 34 34 51 34 34 51 34 34 51 34 34 51 34 34 51 34 34 51 34 34 51 34 34 51 34 34 51 34 34 51 34 34 51 34 34 51 34 34 51 34 34 51 34 34 51 34 34 51 34 34 51 34 34 51 34 34 51 34 34 51 34 34 51 34 34 51 34 34 51 34 34 51 34 34 51 34 34 51 34 34 51 34 34 51 34 34 51 34 34 51 34 34 51 34 34 51 34 34 51 34 34 51 34 34 51 34 34 51 34 34 51 34 34 51 34 34 51 34 34 51 34 34 51 34 34 51 34 34 51 34 34 51 34 34 51 34 34 51 34 34 51 34 34 51 34 34 51 34 34 51 34 34 51 34 34 51 34 34 51 34 34 51 34 34 51 34 34 51 34 34 51 34 34 51 34 34 51 34 34 51 34 34 51 34 34 51 34 34 51 34 34 51 34 34 51 34 34 51 34 34 51 34 34 51 34 34 51 34 34 51 34 34 51 85 102 119 85 102 119 85 102 119 85 102 119 85 102 119 85 102 119 85 102 119 85 102 119 85 102 119 85 102 119 85 102 119 85 102 119 85 102 119 85 102 119 85 102 119 85 102 119 85 102 119 85 102 119 85 102 119 85 102 119 85 102 119 85 102 119 85 102 119 85 102 119 85 102 119 85 102 119 85 102 119 85 102 119 85 102 119 85 102 119 34 34 51 34 34 51 34 34 51 34 34 51 34 34 51 34 34 51 85 102 119 85 102 119 85 102 119 85 102 119 85 102 119 85 102 119 85 102 119 85 102 119 85 102 119 85 102 119 85 102 119 85 102 119 85 102 119 85 102 119 85 102 119 85 102 119 85 102 119 85 102 119 85 102 119 85 102 119 85 102 119 85 102 119 85 102 119 85 102 119 85 102 119 85 102 119 85 102 119 85 102 119 85 102 119 85 102 119 34 34 51 34 34 51 34 34 51 34 34 51 34 34 51 34 34 51 0 170 221 0 170 221 0 170 221 0 170 221 0 170 221 0 170 221 0 170 221 0 170 221 0 170 221 0 170 221 0 170 221 0 170 221 0 170 221 0 170 221 0 170 221 0 170 221 0 170 221 0 170 221 0 170 221 0 170 221 0 170 221 0 170 221 0 170 221 0 170 221 0 170 221 0 170 221 0 170 221 0 170 221 0 170 221 0 170 221 34 34 51 34 34 51 34 34 51 34 34 51 34 34 51 34 34 51 85 102 119 85 102 119 85 102 119 85 102 119 85 102 119 85 102 119 85 102 119 85 102 119 85 102 119 85 102 119 85 102 119 85 102 119 85 102 119 85 102 119 85 102 119 85 102 119 85 102 119 85 102 119 85 102 119 85 102 119 85 102 119 85 102 119 85 102 119 85 102 119 85 102 119 85 102 119 85 102 119 85 102 119 85 102 119 85 102 119 34 34 51 34 34 51 34 34 51 34 34 51 34 34 51 34 34 51 34 34 51 34 34 51 34 34 51 34 34 51 34 34 51 34 34 51 34 34 51 34 34 51 34 34 51 34 34 51 34 34 51 34 34 51 34 34 51 34 34 51 34 34 51 34 34 51 34 34 51 34 34 51 34 34 51 34 34 51 34 34 51 34 34 51 34 34 51 34 34 51 34 34 51 34 34 51 34 34 51 34 34 51 34 34 51 34 34 51 34 34 51 34 34 51 34 34 51 34 34 51 34 34 51 34 34 51 34 34 51 34 34 51 34 34 51 34 34 51 34 34 51 34 34 51 34 34 51 34 34 51 34 34 51 34 34 51 34 34 51 34 34 51 34 34 51 34 34 51 34 34 51 34 34 51 34 34 51 34 34 51 34 34 51 34 34 51 34 34 51 34 34 51 34 34 51 34 34 51 34 34 51 34 34 51 34 34 51 34 34 51 34 34 51 34 34 51 34 34 51 34 34 51 34 34 51 34 34 51 34 34 51 34 34 51 34 34 51 34 34 51 34 34 51 34 34 51 34 34 51 34 34 51 34 34 51 34 34 51 34 34 51 34 34 51 34 34 51 34 34 51 34 34 51 34 34 51 34 34 51 34 34 51
34 34 51 34 34 51 34 34 51 34 34 51 34 34 51 34 34 51 34 34 51 34 34 51 34 34 51 34 34 51 34 34 51 34 34 51 34 34 51 34 34 51 34 34 51 34 34 51 34 34 51 34 34 51 34 34 51 34 34 51 34 34 51 34 34 51 34 34 51 34 34 51 34 34 51 34 34 51 34 34 51 34 34 51 34 34 51 34 34 51 34 34 51 34 34 51 34 34 51 34 34 51 34 34 51 34 34 51 34 34 51 34 34 51 34 34 51 34 34 51 34 34 51 34 34 51 34 34 51 34 34 51 34 34 51 34 34 51 34 34 51 34 34 51 34 34 51 34 34 51 34 34 51 34 34 51 34 34 51 34 34 51 34 34 51 34 34 51 34 34 51 34 34 51 34 34 51 34 34 51 34 34 51 34 34 51 34 34 51 34 34 51 34 34 51 34 34 51 34 34 51 34 34 51 34 34 51 34 34 51 34 34 51 34 34 51 34 34 51 34 34 51 34 34 51 34 34 51 34 34 51 34 34 51 34 34 51 34 34 51 34 34 51 34 34 51 34 34 51 34 34 51 34 34 51 34 34 51 34 34 51 34 34 51 85 102 119 85 102 119 85 102 119 85 102 119 85 102 119 85 102 119 85 102 119 85 102 119 85 102 119 85 102 119 85 102 119 85 102 119 85 102 119 85 102 119 85 102 119 85 102 119 85 102 119 85 102 119 85 102 119 85 102 119 85 102 119 85 102 119 85 102 119 85 102 119 85 102 119 85 102 119 85 102 119 85 102 119 85 102 119 85 102 119 34 34 51 34 34 51 34 34 51 34 34 51 34 34 51 34 34 51 85 102 119 85 102 119 85 102 119 85 102 119 85 102 119 85 102 119 85 102 119 85 102 119 85 102 119 85 102 119 85 102 119 85 102 119 85 102 119 85 102 119 85 102 119 85 102 119 85 102 119 85 102 119 85 102 119 85 102 119 85 102 119 85 102 119 85 102 119 85 102 119 85 102 119 85 102 119 85 102 119 85 102 119 85 102 119 85 102 119 34 34 51 34 34 51 34 34 51 34 34 51 34 34 51 34 34 51 0 170 221 0 170 221 0 170 221 0 170 221 0 170 221 0 170 221 0 170 221 0 170 221 0 170 221 0 170 221 0 170 221 0 170 221 0 170 221 0 170 221 0 170 221 0 170 221 0 170 221 0 170 221 0 170 221 0 170 221 0 170 221 0 170 221 0 170 221 0 170 221 0 170 221 0 170 221 0 170 221 0 170 221 0 170 221 0 170 221 34 34 51 34 34 51 34 34 51 34 34 51 34 34 51 34 34 51 85 102 119 85 102 119 85 102 119 85 102 119 85 102 119 85 102 119 85 102 119 85 102 119 85 102 119 85 102 119 85 102 119 85 102 119 85 102 119 85 102 119 85 102 119 85 102 119 85 102 119 85 102 119 85 102 119 85 102 119 85 102 119 85 102 119 85 102 119 85 102 119 85 102 119 85 102 119 85 102 119 85 102 119 85 102 119 85 102 119 34 34 51 34 34 51 34 34 51 34 34 51 34 34 51 34 34 51 34 34 51 34 34 51 34 34 51 34 34 51 34 34 51 34 34 51 34 34 51 34 34 51 34 34 51 34 34 51 34 34 51 34 34 51 34 34 51 34 34 51 34 34 51 34 34 51 34 34 51 34 34 51 34 34 51 34 34 51 34 34 51 34 34 51 34 34 51 34 34 51 34 34 51 34 34 51 34 34 51 34 34 51 34 34 51 34 34 51 34 34 51 34 34 51 34 34 51 34 34 51 34 34 51 34 34 51 34 34 51 34 34 51 34 34 51 34 34 51 34 34 51 34 34 51 34 34 51 34 34 51 34 34 51 34 34 51 34 34 51 34 34 51 34 34 51 34 34 51 34 34 51 34 34 51 34 34 51 34 34 51 34 34 51 34 34 51 34 34 51 34 34 51 34 34 51 34 34 51 34 34 51 34 34 51 34 34 51 34 34 51 34 34 51 34 34 51 34 34 51 34 34 51 34 34 51 34 34 51 34 34 51 34 34 51 34 34 51 34 34 51 34 34 51 34 34 51 34 34 51 34 34 51 34 34 51 34 34 51 34 34 51 34 34 51 34 34 51 34 34 51 34 34 51 34 34 51 34 34 51 34 34 51
34 34 51 34 34 51 34 34 51 34 34 51 34 34 51 34 34 51 34 34 51 34 34 51 34 34 51 34 34 51 34 34 51 34 34 51 34 34 51 34 34 51 34 34 51 34 34 51 34 34 51 34 34 51 34 34 51 34 34 51 34 34 51 34 34 51 34 34 51 34 34 51 34 34 51 34 34 51 34 34 51 34 34 51 34 34 51 34 34 51 34 34 51 34 34 51 34 34 51 34 34 51 34 34 51 34 34 51 34 34 51 34 34 51 34 34 51 34 34 51 34 34 51 34 34 51 34 34 51 34 34 51 34 34 51 34 34 51 34 34 51 34 34 51 34 34 51 34 34 51 34 34 51 34 34 51 34 34 51 34 34 51 34 34 51 34 34 51 34 34 51 34 34 51 34 34 51 34 34 51 34 34 51 34 34 51 34 34 51 34 34 51 34 34 51 34 34 51 34 34 51 34 34 51 34 34 51 34 34 51 34 34 51 34 34 51 34 34 51 34 34 51 34 34 51 34 34 51 34 34 51 34 34 51 34 34 51 34 34 51 34 34 51 34 34 51 34 34 51 34 34 51 34 34 51 34 34 51 34 34 51 34 34 51 34 34 51 34 34 51 34 34 51 34 34 51 34 34 51 34 34 51 34 34 51 34 34 51 34 34 51 34 34 51 34 34 51 34 34 51 34 34 51 34 34 51 34 34 51 34 34 51 34 34 51 34 34 51 34 34 51 34 34 51 34 34 51 34 34 51 34 34 51 34 34 51 34 34 51 34 34 51 34 34 51 34 34 51 34 34 51 34 34 51 34 34 51 34 34 51 34 34 51 34 34 51 34 34 51 34 34 51 34 34 51 34 34 51 34 34 51 34 34 51 34 34 51 34 34 51 34 34 51 34 34 51 34 34 51 34 34 51 34 34 51 34 34 51 34 34 51 34 34 51 34 34 51 34 34 51 34 34 51 34 34 51 34 34 51 34 34 51 34 34 51 34 34 51 34 34 51 34 34 51 34 34 51 34 34 51 34 34 51 34 34 51 34 34 51 34 34 51 34 34 51 34 34 51 34 34 51 34 34 51 34 34 51 34 34 51 34 34 51 34 34 51 34 34 51 34 34 51 34 34 51 34 34 51 34 34 51 34 34 51 34 34 51 34 34 51 34 34 51 34 34 51 34 34 51 34 34 51 34 34 51 34 34 51 34 34 51 34 34 51 34 34 51 34 34 51 34 34 51 34 34 51 34 34 51 34 34 51 34 34 51 34 34 51 34 34 51 34 34 51 34 34 51 34 34 51 34 34 51 34 34 51 34 34 51 34 34 51 34 34 51 34 34 51 34 34 51 34 34 51 34 34 51 34 34 51 34 34 51 34 34 51 34 34 51 34 34 51 34 34 51 34 34 51 34 34 51 34 34 51 34 34 51 34 34 51 34 34 51 34 34 51 34 34 51 34 34 51 34 34 51 34 34 51 34 34 51 34 34 51 34 34 51 34 34 51 34 34 51 34 34 51 34 34 51 34 34 51 34 34 51 34 34 51 34 34 51 34 34 51 34 34 51 34 34 51 34 34 51 34 34 51 34 34 51 34 34 51 34 34 51 34 34 51 34 34 51 34 34 51 34 34 51 34 34 51 34 34 51 34 34 51 34 34 51 34 34 51 34 34 51 34 34 51 34 34 51 34 34 51 34 34 51 34 34 51 34 34 51 34 34 51 34 34 51 34 34 51 34 34 51 34 34 51 34 34 51 34 34 51 34 34 51 34 34 51 34 34 51 34 34 51 34 34 51 34 34 51 34 34 51 34 34 51 34 34 51 34 34 51 34 34 51 34 34 51 34 34 51 34 34 51 34 34 51 34 34 51 34 34 51 34 34 51 34 34 51 34 34 51 34 34 51 34 34 51 34 34 51 34 34 51 34 34 51 34 34 51 34 34 51 34 34 51 34 34 51 34 34 51 34 34 51 34 34 51 34 34 51 34 34 51 34 34 51 34 34 51 34 34 51 34 34 51 34 34 51 34 34 51 34 34 51 34 34 51 34 34 51 34 34 51 34 34 51 34 34 51 34 34 51 34 34 51 34 34 51 34 34 51 34 34 51 34 34 51 34 34 51 34 34 51 34 34 51 34 34 51 34 34 51 34 34 51 34 34 51 34 34 51 34 34 51 34 34 51
34 34 51 34 34 51 34 34 51 34 34 51 34 34 51 34 34 51 34 34 51 34 34 51 34 34 51 34 34 51 34 34 51 34 34 51 34 34 51 34 34 51 34 34 51 34 34 51 34 34 51 34 34 51 34 34 51 34 34 51 34 34 51 34 34 51 34 34 51 34 34 51 34 34 51 34 34 51 34 34 51 34 34 51 34 34 51 34 34 51 34 34 51 34 34 51 34 34 51 34 34 51 34 34 51 34 34 51 34 34 51 34 34 51 34 34 51 34 34 51 34 34 51 34 34 51 34 34 51 34 34 51 34 34 51 34 34 51 34 34 51 34 34 51 34 34 51 34 34 51 34 34 51 34 34 51 34 34 51 34 34 51 34 34 51 34 34 51 34 34 51 34 34 51 34 34 51 34 34 51 34 34 51 34 34 51 34 34 51 34 34 51 34 34 51 34 34 51 34 34 51 34 34 51 34 34 51 34 34 51 34 34 51 34 34 51 34 34 51 34 34 51 34 34 51 34 34 51 34 34 51 34 34 51 34 34 51 34 34 51 34 34 51 34 34 51 34 34 51 34 34 51 34 34 51 34 34 51 34 34 51 34 34 51 34 34 51 34 34 51 34 34 51 34 34 51 34 34 51 34 34 51 34 34 51 34 34 51 34 34 51 34 34 51 34 34 51 34 34 51 34 34 51 34 34 51 34 34 51 34 34 51 34 34 51 34 34 51 34 34 51 34 34 51 34 34 51 34 34 51 34 34 51 34 34 51 34 34 51 34 34 51 34 34 51 34 34 51 34 34 51 34 34 51 34 34 51 34 34 51 34 34 51 34 34 51 34 34 51 34 34 51 34 34 51 34 34 51 34 34 51 34 34 51 34 34 51 34 34 51 34 34 51 34 34 51 34 34 51 34 34 51 34 34 51 34 34 51 34 34 51 34 34 51 34 34 51 34 34 51 34 34 51 34 34 51 34 34 51 34 34 51 34 34 51 34 34 51 34 34 51 34 34 51 34 34 51 34 34 51 34 34 51 34 34 51 34 34 51 34 34 51 34 34 51 34 34 51 34 34 51 34 34 51 34 34 51 34 34 51 34 34 51 34 34 51 34 34 51 34 34 51 34 34 51 34 34 51 34 34 51 34 34 51 34 34 51 34 34 51 34 34 51 34 34 51 34 34 51 34 34 51 34 34 51 34 34 51 34 34 51 34 34 51 34 34 51 34 34 51 34 34 51 34 34 51 34 34 51 34 34 51 34 34 51 34 34 51 34 34 51 34 34 51 34 34 51 34 34 51 34 34 51 34 34 51 34 34 51 34 34 51 34 34 51 34 34 51 34 34 51 34 34 51 34 34 51 34 34 51 34 34 51 34 34 51 34 34 51 34 34 51 34 34 51 34 34 51 34 34 51 34 34 51 34 34 51 34 34 51 34 34 51 34 34 51 34 34 51 34 34 51 34 34 51 34 34 51 34 34 51 34 34 51 34 34 51 34 34 51 34 34 51 34 34 51 34 34 51 34 34 51 34 34 51 34 34 51 34 34 51 34 34 51 34 34 51 34 34 51 34 34 51 34 34 51 34 34 51 34 34 51 34 34 51 34 34 51 34 34 51 34 34 51 34 34 51 34 34 51 34 34 51 34 34 51 34 34 51 34 34 51 34 34 51 34 34 51 34 34 51 34 34 51 34 34 51 34 34 51 34 34 51 34 34 51 34 34 51 34 34 51 34 34 51 34 34 51 34 34 51 34 34 51 34 34 51 34 34 51 34 34 51 34 34 51 34 34 51 34 34 51 34 34 51 34 34 51 34 34 51 34 34 51 34 34 51 34 34 51 34 34 51 34 34 51 34 34 51 34 34 51 34 34 51 34 34 51 34 34 51 34 34 51 34 34 51 34 34 51 34 34 51 34 34 51 34 34 51 34 34 51 34 34 51 34 34 51 34 34 51 34 34 51 34 34 51 34 34 51 34 34 51 34 34 51 34 34 51 34 34 51 34 34 51 34 34 51 34 34 51 34 34 51 34 34 51 34 34 51 34 34 51 34 34 51 34 34 51 34 34 51 34 34 51 34 34 51 34 34 51 34 34 51 34 34 51 34 34 51 34 34 51 34 34 51 34 34 51 34 34 51 34 34 51 34 34 51 34 34 51 34 34 51 34 34 51 34 34 51
34 34 51 34 34 51 34 34 51 34 34 51 34 34 51 34 34 51 34 34 51 34 34 51 34 34 51 34 34 51 34 34 51 34 34 51 34 34 51 34 34 51 34 34 51 34 34 51 34 34 51 34 34 51 34 34 51 34 34 51 34 34 51 34 34 51 34 34 51 34 34 51 34 34 51 34 34 51 34 34 51 34 34 51 34 34 51 34 34 51 34 34 51 34 34 51 34 34 51 34 34 51 34 34 51 34 34 51 34 34 51 34 34 51 34 34 51 34 34 51 34 34 51 34 34 51 34 34 51 34 34 51 34 34 51 34 34 51 34 34 51 34 34 51 34 34 51 34 34 51 34 34 51 34 34 51 34 34 51 34 34 51 34 34 51 34 34 51 34 34 51 34 34 51 34 34 51 34 34 51 34 34 51 34 34 51 34 34 51 34 34 51 34 34 51 34 34 51 34 34 51 34 34 51 34 34 51 34 34 51 34 34 51 34 34 51 34 34 51 34 34 51 34 34 51 34 34 51 34 34 51 34 34 51 34 34 51 34 34 51 34 34 51 34 34 51 34 34 51 34 34 51 34 34 51 34 34 51 34 34 51 34 34 51 34 34 51 34 34 51 34 34 51 34 34 51 34 34 51 34 34 51 34 34 51 34 34 51 34 34 51 34 34 51 34 34 51 34 34 51 34 34 51 34 34 51 34 34 51 34 34 51 34 34 51 34 34 51 34 34 51 34 34 51 34 34 51 34 34 51 34 34 51 34 34 51 34 34 51 34 34 51 34 34 51 34 34 51 34 34 51 34 34 51 34 34 51 34 34 51 34 34 51 34 34 51 34 34 51 34 34 51 34 34 51 34 34 51 34 34 51 34 34 51 34 34 51 34 34 51 34 34 51 34 34 51 34 34 51 34 34 51 34 34 51 34 34 51 34 34 51 34 34 51 34 34 51 34 34 51 34 34 51 34 34 51 34 34 51 34 34 51 34 34 51 34 34 51 34 34 51 34 34 51 34 34 51 34 34 51 34 34 51 34 34 51 34 34 51 34 34 51 34 34 51 34 34 51 34 34 51 34 34 51 34 34 51 34 34 51 34 34 51 34 34 51 34 34 51 34 34 51 34 34 51 34 34 51 34 34 51 34 34 51 34 34 51 34 34 51 34 34 51 34 34 51 34 34 51 34 34 51 34 34 51 34 34 51 34 34 51 34 34 51 34 34 51 34 34 51 34 34 51 34 34 51 34 34 51 34 34 51 34 34 51 34 34 51 34 34 51 34 34 51 34 34 51 34 34 51 34 34 51 34 34 51 34 34 51 34 34 51 34 34 51 34 34 51 34 34 51 34 34 51 34 34 51 34 34 51 34 34 51 34 34 51 34 34 51 34 34 51 34 34 51 34 34 51 34 34 51 34 34 51 34 34 51 34 34 51 34 34 51 34 34 51 34 34 51 34 34 51 34 34 51 34 34 51 34 34 51 34 34 51 34 34 51 34 34 51 34 34 51 34 34 51 34 34 51 34 34 51 34 34 51 34 34 51 34 34 51 34 34 51 34 34 51 34 34 51 34 34 51 34 34 51 34 34 51 34 34 51 34 34 51 34 34 51 34 34 51 34 34 51 34 34 51 34 34 51 34 34 51 34 34 51 34 34 51 34 34 51 34 34 51 34 34 51 34 34 51 34 34 51 34 34 51 34 34 51 34 34 51 34 34 51 34 34 51 34 34 51 34 34 51 34 34 51 34 34 51 34 34 51 34 34 51 34 34 51 34 34 51 34 34 51 34 34 51 34 34 51 34 34 51 34 34 51 34 34 51 34 34 51 34 34 51 34 34 51 34 34 51 34 34 51 34 34 51 34 34 51 34 34 51 34 34 51 34 34 51 34 34 51 34 34 51 34 34 51 34 34 51 34 34 51 34 34 51 34 34 51 34 34 51 34 34 51 34 34 51 34 34 51 34 34 51 34 34 51 34 34 51 34 34 51 34 34 51 34 34 51 34 34 51 34 34 51 34 34 51 34 34 51 34 34 51 34 34 51 34 34 51 34 34 51 34 34 51 34 34 51 34 34 51 34 34 51 34 34 51 34 34 51 34 34 51 34 34 51 34 34 51 34 34 51 34 34 51 34 34 51 34 34 51 34 34 51 34 34 51 34 34 51 34 34 51 34 34 51
34 34 51 34 34 51 34 34 51 34 34 51 34 34 51 34 34 51 34 34 51 34 34 51 34 34 51 34 34 51 34 34 51 34 34 51 34 34 51 34 34 51 34 34 51 34 34 51 34 34 51 34 34 51 34 34 51 34 34 51 34 34 51 34 34 51 34 34 51 34 34 51 34 34 51 34 34 51 34 34 51 34 34 51 34 34 51 34 34 51 34 34 51 34 34 51 34 34 51 34 34 51 34 34 51 34 34 51 34 34 51 34 34 51 34 34 51 34 34 51 34 34 51 34 34 51 34 34 51 34 34 51 34 34 51 34 34 51 34 34 51 34 34 51 34 34 51 34 34 51 34 34 51 34 34 51 34 34 51 34 34 51 34 34 51 34 34 51 34 34 51 34 34 51 34 34 51 34 34 51 34 34 51 34 34 51 34 34 51 34 34 51 34 34 51 34 34 51 34 34 51 34 34 51 34 34 51 34 34 51 34 34 51 34 34 51 34 34 51 34 34 51 34 34 51 34 34 51 34 34 51 34 34 51 34 34 51 34 34 51 34 34 51 34 34 51 34 34 51 34 34 51 34 34 51 34 34 51 34 34 51 34 34 51 34 34 51 34 34 51 34 34 51 34 34 51 34 34 51 34 34 51 34 34 51 34 34 51 34 34 51 34 34 51 34 34 51 34 34 51 34 34 51 34 34 51 34 34 51 34 34 51 34 34 51 34 34 51 34 34 51 34 34 51 34 34 51 34 34 51 34 34 51 34 34 51 34 34 51 34 34 51 34 34 51 34 34 51 34 34 51 34 34 51 34 34 51 34 34 51 34 34 51 34 34 51 34 34 51 34 34 51 34 34 51 34 34 51 34 34 51 34 34 51 34 34 51 34 34 51 34 34 51 34 34 51 34 34 51 34 34 51 34 34 51 34 34 51 34 34 51 34 34 51 34 34 51 34 34 51 34 34 51 34 34 51 34 34 51 34 34 51 34 34 51 34 34 51 34 34 51 34 34 51 34 34 51 34 34 51 34 34 51 34 34 51 34 34 51 34 34 51 34 34 51 34 34 51 34 34 51 34 34 51 34 34 51 34 34 51 34 34 51 34 34 51 34 34 51 34 34 51 34 34 51 34 34 51 34 34 51 34 34 51 34 34 51 34 34 51 34 34 51 34 34 51 34 34 51 34 34 51 34 34 51 34 34 51 34 34 51 34 34 51 34 34 51 34 34 51 34 34 51 34 34 51 34 34 51 34 34 51 34 34 51 34 34 51 34 34 51 34 34 51 34 34 51 34 34 51 34 34 51 34 34 51 34 34 51 34 34 51 34 34 51 34 34 51 34 34 51 34 34 51 34 34 51 34 34 51 34 34 51 34 34 51 34 34 51 34 34 51 34 34 51 34 34 51 34 34 51 34 34 51 34 34 51 34 34 51 34 34 51 34 34 51 34 34 51 34 34 51 34 34 51 34 34 51 34 34 51 34 34 51 34 34 51 34 34 51 34 34 51 34 34 51 34 34 51 34 34 51 34 34 51 34 34 51 34 34 51 34 34 51 34 34 51 34 34 51 34 34 51 34 34 51 34 34 51 34 34 51 34 34 51 34 34 51 34 34 51 34 34 51 34 34 51 34 34 51 34 34 51 34 34 51 34 34 51 34 34 51 34 34 51 34 34 51 34 34 51 34 34 51 34 34 51 34 34 51 34 34 51 34 34 51 34 34 51 34 34 51 34 34 51 34 34 51 34 34 51 34 34 51 34 34 51 34 34 51 34 34 51 34 34 51 34 34 51 34 34 51 34 34 51 34 34 51 34 34 51 34 34 51 34 34 51 34 34 51 34 34 51 34 34 51 34 34 51 34 34 51 34 34 51 34 34 51 34 34 51 34 34 51 34 34 51 34 34 51 34 34 51 34 34 51 34 34 51 34 34 51 34 34 51 34 34 51 34 34 51 34 34 51 34 34 51 34 34 51 34 34 51 34 34 51 34 34 51 34 34 51 34 34 51 34 34 51 34 34 51 34 34 51 34 34 51 34 34 51 34 34 51 34 34 51 34 34 51 34 34 51 34 34 51 34 34 51 34 34 51 34 34 51 34 34 51 34 34 51 34 34 51 34 34 51 34 34 51 34 34 51 34 34 51 34 34 51 34 34 51 34 34 51 34 34 51 34 34 51
34 34 51 34 34 51 34 34 51 34 34 51 34 34 51 34 34 51 34 34 51 34 34 51 34 34 51 34 34 51 34 34 51 34 34 51 34 34 51 34 34 51 34 34 51 34 34 51 34 34 51 34 34 51 34 34 51 34 34 51 34 34 51 34 34 51 34 34 51 34 34 51 34 34 51 34 34 51 34 34 51 34 34 51 34 34 51 34 34 51 34 34 51 34 34 51 34 34 51 34 34 51 34 34 51 34 34 51 34 34 51 34 34 51 34 34 51 34 34 51 34 34 51 34 34 51 34 34 51 34 34 51 34 34 51 34 34 51 34 34 51 34 34 51 34 34 51 34 34 51 34 34 51 34 34 51 34 34 51 34 34 51 34 34 51 34 34 51 34 34 51 34 34 51 34 34 51 34 34 51 34 34 51 34 34 51 34 34 51 34 34 51 34 34 51 34 34 51 34 34 51 34 34 51 34 34 51 34 34 51 34 34 51 34 34 51 34 34 51 34 34 51 34 34 51 34 34 51 34 34 51 34 34 51 34 34 51 34 34 51 34 34 51 34 34 51 34 34 51 34 34 51 34 34 51 34 34 51 34 34 51 34 34 51 34 34 51 34 34 51 34 34 51 34 34 51 34 34 51 34 34 51 34 34 51 34 34 51 34 34 51 34 34 51 34 34 51 34 34 51 34 34 51 34 34 51 34 34 51 34 34 51 34 34 51 34 34 51 34 34 51 34 34 51 34 34 51 34 34 51 34 34 51 34 34 51 34 34 51 34 34 51 34 34 51 34 34 51 34 34 51 34 34 51 34 34 51 34 34 51 34 34 51 34 34 51 34 34 51 34 34 51 34 34 51 34 34 51 34 34 51 34 34 51 34 34 51 34 34 51 34 34 51 34 34 51 34 34 51 34 34 51 34 34 51 34 34 51 34 34 51 34 34 51 34 34 51 34 34 51 34 34 51 34 34 51 34 34 51 34 34 51 34 34 51 34 34 51 34 34 51 34 34 51 34 34 51 34 34 51 34 34 51 34 34 51 34 34 51 34 34 51 34 34 51 34 34 51 34 34 51 34 34 51 34 34 51 34 34 51 34 34 51 34 34 51 34 34 51 34 34 51 34 34 51 34 34 51 34 34 51 34 34 51 34 34 51 34 34 51 34 34 51 34 34 51 34 34 51 34 34 51 34 34 51 34 34 51 34 34 51 34 34 51 34 34 51 34 34 51 34 34 51 34 34 51 34 34 51 34 34 51 34 34 51 34 34 51 34 34 51 34 34 51 34 34 51 34 34 51 34 34 51 34 34 51 34 34 51 34 34 51 34 34 51 34 34 51 34 34 51 34 34 51 34 34 51 34 34 51 34 34 51 34 34 51 34 34 51 34 34 51 34 34 51 34 34 51 34 34 51 34 34 51 34 34 51 34 34 51 34 34 51 34 34 51 34 34 51 34 34 51 34 34 51 34 34 51 34 34 51 34 34 51 34 34 51 34 34 51 34 34 51 34 34 51 34 34 51 34 34 51 34 34 51 34 34 51 34 34 51 34 34 51 34 34 51 34 34 51 34 34 51 34 34 51 34 34 51 34 34 51 34 34 51 34 34 51 34 34 51 34 34 51 34 34 51 34 34 51 34 34 51 34 34 51 34 34 51 34 34 51 34 34 51 34 34 51 34 34 51 34 34 51 34 34 51 34 34 51 34 34 51 34 34 51 34 34 51 34 34 51 34 34 51 34 34 51 34 34 51 34 34 51 34 34 51 34 34 51 34 34 51 34 34 51 34 34 51 34 34 51 34 34 51 34 34 51 34 34 51 34 34 51 34 34 51 34 34 51 34 34 51 34 34 51 34 34 51 34 34 51 34 34 51 34 34 51 34 34 51 34 34 51 34 34 51 34 34 51 34 34 51 34 34 51 34 34 51 34 34 51 34 34 51 34 34 51 34 34 51 34 34 51 34 34 51 34 34 51 34 34 51 34 34 51 34 34 51 34 34 51 34 34 51 34 34 51 34 34 51 34 34 51 34 34 51 34 34 51 34 34 51 34 34 51 34 34 51 34 34 51 34 34 51 34 34 51 34 34 51 34 34 51 34 34 51 34 34 51 34 34 51 34 34 51 34 34 51 34 34 51 34 34 51 34 34 51 34 34 51 34 34 51 34 34 51 34 34 51
34 34 51 34 34 51 34 34 51 34 34 51 34 34 51 34 34 51 34 34 51 34 34 51 34 34 51 34 34 51 34 34 51 34 34 51 34 34 51 34 34 51 34 34 51 34 34 51 34 34 51 34 34 51 34 34 51 34 34 51 34 34 51 34 34 51 34 34 51 34 34 51 34 34 51 34 34 51 34 34 51 34 34 51 34 34 51 34 34 51 34 34 51 34 34 51 34 34 51 34 34 51 34 34 51 34 34 51 34 34 51 34 34 51 34 34 51 34 34 51 34 34 51 34 34 51 34 34 51 34 34 51 34 34 51 34 34 51 34 34 51 34 34 51 34 34 51 34 34 51 34 34 51 34 34 51 34 34 51 34 34 51 34 34 51 34 34 51 34 34 51 34 34 51 34 34 51 34 34 51 34 34 51 34 34 51 34 34 51 34 34 51 34 34 51 34 34 51 34 34 51 34 34 51 34 34 51 34 34 51 34 34 51 34 34 51 34 34 51 34 34 51 34 34 51 34 34 51 34 34 51 34 34 51 34 34 51 34 34 51 34 34 51 34 34 51 34 34 51 34 34 51 34 34 51 34 34 51 34 34 51 34 34 51 34 34 51 34 34 51 34 34 51 34 34 51 34 34 51 34 34 51 34 34 51 34 34 51 34 34 51 34 34 51 34 34 51 34 34 51 34 34 51 34 34 51 34 34 51 34 34 51 34 34 51 34 34 51 34 34 51 34 34 51 34 34 51 34 34 51 34 34 51 34 34 51 34 34 51 34 34 51 34 34 51 34 34 51 34 34 51 34 34 51 34 34 51 34 34 51 34 34 51 34 34 51 34 34 51 34 34 51 34 34 51 34 34 51 34 34 51 34 34 51 34 34 51 34 34 51 34 34 51 34 34 51 34 34 51 34 34 51 34 34 51 34 34 51 34 34 51 34 34 51 34 34 51 34 34 51 34 34 51 34 34 51 34 34 51 34 34 51 34 34 51 34 34 51 34 34 51 34 34 51 34 34 51 34 34 51 34 34 51 34 34 51 34 34 51 34 34 51 34 34 51 34 34 51 34 34 51 34 34 51 34 34 51 34 34 51 34 34 51 34 34 51 34 34 51 34 34 51 34 34 51 34 34 51 34 34 51 34 34 51 34 34 51 34 34 51 34 34 51 34 34 51 34 34 51 34 34 51 34 34 51 34 34 51 34 34 51 34 34 51 34 34 51 34 34 51 34 34 51 34 34 51 34 34 51 34 34 51 34 34 51 34 34 51 34 34 51 34 34 51 34 34 51 34 34 51 34 34 51 34 34 51 34 34 51 34 34 51 34 34 51 34 34 51 34 34 51 34 34 51 34 34 51 34 34 51 34 34 51 34 34 51 34 34 51 34 34 51 34 34 51 34 34 51 34 34 51 34 34 51 34 34 51 34 34 51 34 34 51 34 34 51 34 34 51 34 34 51 34 34 51 34 34 51 34 34 51 34 34 51 34 34 51 34 34 51 34 34 51 34 34 51 34 34 51 34 34 51 34 34 51 34 34 51 34 34 51 34 34 51 34 34 51 34 34 51 34 34 51 34 34 51 34 34 51 34 34 51 34 34 51 34 34 51 34 34 51 34 34 51 34 34 51 34 34 51 34 34 51 34 34 51 34 34 51 34 34 51 34 34 51 34 34 51 34 34 51 34 34 51 34 34 51 34 34 51 34 34 51 34 34 51 34 34 51 34 34 51 34 34 51 34 34 51 34 34 51 34 34 51 34 34 51 34 34 51 34 34 51 34 34 51 34 34 51 34 34 51 34 34 51 34 34 51 34 34 51 34 34 51 34 34 51 34 34 51 34 34 51 34 34 51 34 34 51 34 34 51 34 34 51 34 34 51 34 34 51 34 34 51 34 34 51 34 34 51 34 34 51 34 34 51 34 34 51 34 34 51 34 34 51 34 34 51 34 34 51 34 34 51 34 34 51 34 34 51 34 34 51 34 34 51 34 34 51 34 34 51 34 34 51 34 34 51 34 34 51 34 34 51 34 34 51 34 34 51 34 34 51 34 34 51 34 34 51 34 34 51 34 34 51 34 34 51 34 34 51 34 34 51 34 34 51 34 34 51 34 34 51 34 34 51 34 34 51 34 34 51 34 34 51 34 34 51 34 34 51 34 34 51 34 34 51 34 34 51
34 34 51 34 34 51 34 34 51 34 34 51 34 34 51 34 34 51 34 34 51 34 34 51 34 34 51 34 34 51 34 34 51 34 34 51 34 34 51 34 34 51 34 34 51 34 34 51 34 34 51 34 34 51 34 34 51 34 34 51 34 34 51 34 34 51 34 34 51 34 34 51 34 34 51 34 34 51 34 34 51 34 34 51 34 34 51 34 34 51 34 34 51 34 34 51 34 34 51 34 34 51 34 34 51 34 34 51 34 34 51 34 34 51 34 34 51 34 34 51 34 34 51 34 34 51 34 34 51 34 34 51 34 34 51 34 34 51 34 34 51 34 34 51 34 34 51 34 34 51 34 34 51 34 34 51 34 34 51 34 34 51 34 34 51 34 34 51 34 34 51 34 34 51 34 34 51 34 34 51 34 34 51 34 34 51 34 34 51 34 34 51 34 34 51 34 34 51 34 34 51 34 34 51 34 34 51 34 34 51 34 34 51 34 34 51 34 34 51 34 34 51 34 34 51 34 34 51 34 34 51 34 34 51 34 34 51 34 34 51 34 34 51 34 34 51 34 34 51 34 34 51 34 34 51 34 34 51 34 34 51 34 34 51 34 34 51 34 34 51 34 34 51 34 34 51 34 34 51 34 34 51 34 34 51 34 34 51 34 34 51 34 34 51 34 34 51 34 34 51 34 34 51 34 34 51 34 34 51 34 34 51 34 34 51 34 34 51 34 34 51 34 34 51 34 34 51 34 34 51 34 34 51 34 34 51 34 34 51 34 34 51 34 34 51 34 34 51 34 34 51 34 34 51 34 34 51 34 34 51 34 34 51 34 34 51 34 34 51 34 34 51 34 34 51 34 34 51 34 34 51 34 34 51 34 34 51 34 34 51 34 34 51 34 34 51 34 34 51 34 34 51 34 34 51 34 34 51 34 34 51 34 34 51 34 34 51 34 34 51 34 34 51 34 34 51 34 34 51 34 34 51 34 34 51 34 34 51 34 34 51 34 34 51 34 34 51 34 34 51 34 34 51 34 34 51 34 34 51 34 34 51 34 34 51 34 34 51 34 34 51 34 34 51 34 34 51 34 34 51 34 34 51 34 34 51 34 34 51 34 34 51 34 34 51 34 34 51 34 34 51 34 34 51 34 34 51 34 34 51 34 34 51 34 34 51 34 34 51 34 34 51 34 34 51 34 34 51 34 34 51 34 34 51 34 34 51 34 34 51 34 34 51 34 34 51 34 34 51 34 34 51 34 34 51 34 34 51 34 34 51 34 34 51 34 34 51 34 34 51 34 34 51 34 34 51 34 34 51 34 34 51 34 34 51 34 34 51 34 34 51 34 34 51 34 34 51 34 34 51 34 34 51 34 34 51 34 34 51 34 34 51 34 34 51 34 34 51 34 34 51 34 34 51 34 34 51 34 34 51 34 34 51 34 34 51 34 34 51 34 34 51 34 34 51 34 34 51 34 34 51 34 34 51 34 34 51 34 34 51 34 34 51 34 34 51 34 34 51 34 34 51 34 34 51 34 34 51 34 34 51 34 34 51 34 34 51 34 34 51 34 34 51 34 34 51 34 34 51 34 34 51 34 34 51 34 34 51 34 34 51 34 34 51 34 34 51 34 34 51 34 34 51 34 34 51 34 34 51 34 34 51 34 34 51 34 34 51 34 34 51 34 34 51 34 34 51 34 34 51 34 34 51 34 34 51 34 34 51 34 34 51 34 34 51 34 34 51 34 34 51 34 34 51 34 34 51 34 34 51 34 34 51 34 34 51 34 34 51 34 34 51 34 34 51 34 34 51 34 34 51 34 34 51 34 34 51 34 34 51 34 34 51 34 34 51 34 34 51 34 34 51 34 34 51 34 34 51 34 34 51 34 34 51 34 34 51 34 34 51 34 34 51 34 34 51 34 34 51 34 34 51 34 34 51 34 34 51 34 34 51 34 34 51 34 34 51 34 34 51 34 34 51 34 34 51 34 34 51 34 34 51 34 34 51 34 34 51 34 34 51 34 34 51 34 34 51 34 34 51 34 34 51 34 34 51 34 34 51 34 34 51 34 34 51 34 34 51 34 34 51 34 34 51 34 34 51 34 34 51 34 34 51 34 34 51 34 34 51 34 34 51 34 34 51 34 34 51 34 34 51 34 34 51 34 34 51 34 34 51
34 34 51 34 34 51 34 34 51 34 34 51 34 34 51 34 34 51 34 34 51 34 34 51 34 34 51 34 34 51 34 34 51 34 34 51 34 34 51 34 34 51 34 34 51 34 34 51 34 34 51 34 34 51 34 34 51 34 34 51 34 34 51 34 34 51 34 34 51 34 34 51 34 34 51 34 34 51 34 34 51 34 34 51 34 34 51 34 34 51 34 34 51 34 34 51 34 34 51 34 34 51 34 34 51 34 34 51 34 34 51 34 34 51 34 34 51 34 34 51 34 34 51 34 34 51 34 34 51 34 34 51 34 34 51 34 34 51 34 34 51 34 34 51 34 34 51 34 34 51 34 34 51 34 34 51 34 34 51 34 34 51 34 34 51 34 34 51 34 34 51 34 34 51 34 34 51 34 34 51 34 34 51 34 34 51 34 34 51 34 34 51 34 34 51 34 34 51 34 34 51 34 34 51 34 34 51 34 34 51 34 34 51 34 34 51 34 34 51 34 34 51 34 34 51 34 34 51 34 34 51 34 34 51 34 34 51 34 34 51 34 34 51 34 34 51 34 34 51 34 34 51 34 34 51 34 34 51 34 34 51 34 34 51 34 34 51 34 34 51 34 34 51 34 34 51 34 34 51 34 34 51 34 34 51 34 34 51 34 34 51 34 34 51 34 34 51 34 34 51 34 34 51 34 34 51 34 34 51 34 34 51 34 34 51 34 34 51 34 34 51 34 34 51 34 34 51 34 34 51 34 34 51 34 34 51 34 34 51 34 34 51 34 34 51 34 34 51 34 34 51 34 34 51 34 34 51 34 34 51 34 34 51 34 34 51 34 34 51 34 34 51 34 34 51 34 34 51 34 34 51 34 34 51 34 34 51 34 34 51 34 34 51 34 34 51 34 34 51 34 34 51 34 34 51 34 34 51 34 34 51 34 34 51 34 34 51 34 34 51 34 34 51 34 34 51 34 34 51 34 34 51 34 34 51 34 34 51 34 34 51 34 34 51 34 34 51 34 34 51 34 34 51 34 34 51 34 34 51 34 34 51 34 34 51 34 34 51 34 34 51 34 34 51 34 34 51 34 34 51 34 34 51 34 34 51 34 34 51 34 34 51 34 34 51 34 34 51 34 34 51 34 34 51 34 34 51 34 34 51 34 34 51 34 34 51 34 34 51 34 34 51 34 34 51 34 34 51 34 34 51 34 34 51 34 34 51 34 34 51 34 34 51 34 34 51 34 34 51 34 34 51 34 34 51 34 34 51 34 34 51 34 34 51 34 34 51 34 34 51 34 34 51 34 34 51 34 34 51 34 34 51 34 34 51 34 34 51 34 34 51 34 34 51 34 34 51 34 34 51 34 34 51 34 34 51 34 34 51 34 34 51 34 34 51 34 34 51 34 34 51 34 34 51 34 34 51 34 34 51 34 34 51 34 34 51 34 34 51 34 34 51 34 34 51 34 34 51 34 34 51 34 34 51 34 34 51 34 34 51 34 34 51 34 34 51 34 34 51 34 34 51 34 34 51 34 34 51 34 34 51 34 34 51 34 34 51 34 34 51 34 34 51 34 34 51 34 34 51 34 34 51 34 34 51 34 34 51 34 34 51 34 34 51 34 34 51 34 34 51 34 34 51 34 34 51 34 34 51 34 34 51 34 34 51 34 34 51 34 34 51 34 34 51 34 34 51 34 34 51 34 34 51 34 34 51 34 34 51 34 34 51 34 34 51 34 34 51 34 34 51 34 34 51 34 34 51 34 34 51 34 34 51 34 34 51 34 34 51 34 34 51 34 34 51 34 34 51 34 34 51 34 34 51 34 34 51 34 34 51 34 34 51 34 34 51 34 34 51 34 34 51 34 34 51 34 34 51 34 34 51 34 34 51 34 34 51 34 34 51 34 34 51 34 34 51 34 34 51 34 34 51 34 34 51 34 34 51 34 34 51 34 34 51 34 34 51 34 34 51 34 34 51 34 34 51 34 34 51 34 34 51 34 34 51 34 34 51 34 34 51 34 34 51 34 34 51 34 34 51 34 34 51 34 34 51 34 34 51 34 34 51 34 34 51 34 34 51 34 34 51 34 34 51 34 34 51 34 34 51 34 34 51 34 34 51 34 34 51 34 34 51 34 34 51 34 34 51 34 34 51 34 34 51 34 34 51 34 34 51
34 34 51 34 34 51 34 34 51 34 34 51 34 34 51 34 34 51 34 34 51 34 34 51 34 34 51 34 34 51 34 34 51 34 34 51 34 34 51 34 34 51 34 34 51 34 34 51 34 34 51 34 34 51 34 34 51 34 34 51 34 34 51 34 34 51 34 34 51 34 34 51 34 34 51 34 34 51 34 34 51 34 34 51 34 34 51 34 34 51 34 34 51 34 34 51 34 34 51 34 34 51 34 34 51 34 34 51 34 34 51 34 34 51 34 34 51 34 34 51 34 34 51 34 34 51 34 34 51 34 34 51 34 34 51 34 34 51 34 34 51 34 34 51 34 34 51 34 34 51 34 34 51 34 34 51 34 34 51 34 34 51 34 34 51 34 34 51 34 34 51 34 34 51 34 34 51 34 34 51 34 34 51 34 34 51 34 34 51 34 34 51 34 34 51 34 34 51 34 34 51 34 34 51 34 34 51 34 34 51 34 34 51 34 34 51 34 34 51 34 34 51 34 34 51 34 34 51 34 34 51 34 34 51 34 34 51 34 34 51 34 34 51 34 34 51 34 34 51 34 34 51 34 34 51 34 34 51 34 34 51 34 34 51 34 34 51 34 34 51 34 34 51 34 34 51 34 34 51 34 34 51 34 34 51 34 34 51 34 34 51 34 34 51 34 34 51 34 34 51 34 34 51 34 34 51 34 34 51 34 34 51 34 34 51 34 34 51 34 34 51 34 34 51 34 34 51 34 34 51 34 34 51 34 34 51 34 34 51 34 34 51 34 34 51 34 34 51 34 34 51 34 34 51 34 34 51 34 34 51 34 34 51 34 34 51 34 34 51 34 34 51 34 34 51 34 34 51 34 34 51 34 34 51 34 34 51 34 34 51 34 34 51 34 34 51 34 34 51 34 34 51 34 34 51 34 34 51 34 34 51 34 34 51 34 34 51 34 34 51 34 34 51 34 34 51 34 34 51 34 34 51 34 34 51 34 34 51 34 34 51 34 34 51 34 34 51 34 34 51 34 34 51 34 34 51 34 34 51 34 34 51 34 34 51 34 34 51 34 34 51 34 34 51 34 34 51 34 34 51 34 34 51 34 34 51 34 34 51 34 34 51 34 34 51 34 34 51 34 34 51 34 34 51 34 34 51 34 34 51 34 34 51 34 34 51 34 34 51 34 34 51 34 34 51 34 34 51 34 34 51 34 34 51 34 34 51 34 34 51 34 34 51 34 34 51 34 34 51 34 34 51 34 34 51 34 34 51 34 34 51 34 34 51 34 34 51 34 34 51 34 34 51 34 34 51 34 34 51 34 34 51 34 34 51 34 34 51 34 34 51 34 34 51 34 34 51 34 34 51 34 34 51 34 34 51 34 34 51 34 34 51 34 34 51 34 34 51 34 34 51 34 34 51 34 34 51 34 34 51 34 34 51 34 34 51 34 34 51 34 34 51 34 34 51 34 34 51 34 34 51 34 34 51 34 34 51 34 34 51 34 34 51 34 34 51 34 34 51 34 34 51 34 34 51 34 34 51 34 34 51 34 34 51 34 34 51 34 34 51 34 34 51 34 34 51 34 34 51 34 34 51 34 34 51 34 34 51 34 34 51 34 34 51 34 34 51 34 34 51 34 34 51 34 34 51 34 34 51 34 34 51 34 34 51 34 34 51 34 34 51 34 34 51 34 34 51 34 34 51 34 34 51 34 34 51 34 34 51 34 34 51 34 34 51 34 34 51 34 34 51 34 34 51 34 34 51 34 34 51 34 34 51 34 34 51 34 34 51 34 34 51 34 34 51 34 34 51 34 34 51 34 34 51 34 34 51 34 34 51 34 34 51 34 34 51 34 34 51 34 34 51 34 34 51 34 34 51 34 34 51 34 34 51 34 34 51 34 34 51 34 34 51 34 34 51 34 34 51 34 34 51 34 34 51 34 34 51 34 34 51 34 34 51 34 34 51 34 34 51 34 34 51 34 34 51 34 34 51 34 34 51 34 34 51 34 34 51 34 34 51 34 34 51 34 34 51 34 34 51 34 34 51 34 34 51 34 34 51 34 34 51 34 34 51 34 34 51 34 34 51 34 34 51 34 34 51 34 34 51 34 34 51 34 34 51 34 34 51 34 34 51 34 34 51 34 34 51 34 34 51 34 34 51 34 34 51 34 34 51
34 34 51 34 34 51 34 34 51 34 34 51 34 34 51 34 34 51 34 34 51 34 34 51 34 34 51 34 34 51 34 34 51 34 34 51 34 34 51 34 34 51 34 34 51 34 34 51 34 34 51 34 34 51 34 34 51 34 34 51 34 34 51 34 34 51 34 34 51 34 34 51 34 34 51 34 34 51 34 34 51 34 34 51 34 34 51 34 34 51 34 34 51 34 34 51 34 34 51 34 34 51 34 34 51 34 34 51 34 34 51 34 34 51 34 34 51 34 34 51 34 34 51 34 34 51 34 34 51 34 34 51 34 34 51 34 34 51 34 34 51 34 34 51 34 34 51 34 34 51 34 34 51 34 34 51 34 34 51 34 34 51 34 34 51 34 34 51 34 34 51 34 34 51 34 34 51 34 34 51 34 34 51 34 34 51 34 34 51 34 34 51 34 34 51 34 34 51 34 34 51 34 34 51 34 34 51 34 34 51 34 34 51 34 34 51 34 34 51 34 34 51 34 34 51 34 34 51 34 34 51 34 34 51 34 34 51 34 34 51 34 34 51 34 34 51 34 34 51 34 34 51 34 34 51 34 34 51 34 34 51 34 34 51 34 34 51 34 34 51 34 34 51 34 34 51 34 34 51 34 34 51 34 34 51 34 34 51 34 34 51 34 34 51 34 34 51 34 34 51 34 34 51 34 34 51 34 34 51 34 34 51 34 34 51 34 34 51 34 34 51 34 34 51 34 34 51 34 34 51 34 34 51 34 34 51 34 34 51 34 34 51 34 34 51 34 34 51 34 34 51 34 34 51 34 34 51 34 34 51 34 34 51 34 34 51 34 34 51 34 34 51 34 34 51 34 34 51 34 34 51 34 34 51 34 34 51 34 34 51 34 34 51 34 34 51 34 34 51 34 34 51 34 34 51 34 34 51 34 34 51 34 34 51 34 34 51 34 34 51 34 34 51 34 34 51 34 34 51 34 34 51 34 34 51 34 34 51 34 34 51 34 34 51 34 34 51 34 34 51 34 34 51 34 34 51 34 34 51 34 34 51 34 34 51 34 34 51 34 34 51 34 34 51 34 34 51 34 34 51 34 34 51 34 34 51 34 34 51 34 34 51 34 34 51 34 34 51 34 34 51 34 34 51 34 34 51 34 34 51 34 34 51 34 34 51 34 34 51 34 34 51 34 34 51 34 34 51 34 34 51 34 34 51 34 34 51 34 34 51 34 34 51 34 34 51 34 34 51 34 34 51 34 34 51 34 34 51 34 34 51 34 34 51 34 34 51 34 34 51 34 34 51 34 34 51 34 34 51 34 34 51 34 34 51 34 34 51 34 34 51 34 34 51 34 34 51 34 34 51 34 34 51 34 34 51 34 34 51 34 34 51 34 34 51 34 34 51 34 34 51 34 34 51 34 34 51 34 34 51 34 34 51 34 34 51 34 34 51 34 34 51 34 34 51 34 34 51 34 34 51 34 34 51 34 34 51 34 34 51 34 34 51 34 34 51 34 34 51 34 34 51 34 34 51 34 34 51 34 34 51 34 34 51 34 34 51 34 34 51 34 34 51 34 34 51 34 34 51 34 34 51 34 34 51 34 34 51 34 34 51 34 34 51 34 34 51 34 34 51 34 34 51 34 34 51 34 34 51 34 34 51 34 34 51 34 34 51 34 34 51 34 34 51 34 34 51 34 34 51 34 34 51 34 34 51 34 34 51 34 34 51 34 34 51 34 34 51 34 34 51 34 34 51 34 34 51 34 34 51 34 34 51 34 34 51 34 34 51 34 34 51 34 34 51 34 34 51 34 34 51 34 34 51 34 34 51 34 34 51 34 34 51 34 34 51 34 34 51 34 34 51 34 34 51 34 34 51 34 34 51 34 34 51 34 34 51 34 34 51 34 34 51 34 34 51 34 34 51 34 34 51 34 34 51 34 34 51 34 34 51 34 34 51 34 34 51 34 34 51 34 34 51 34 34 51 34 34 51 34 34 51 34 34 51 34 34 51 34 34 51 34 34 51 34 34 51 34 34 51 34 34 51 34 34 51 34 34 51 34 34 51 34 34 51 34 34 51 34 34 51 34 34 51 34 34 51 34 34 51 34 34 51 34 34 51 34 34 51 34 34 51 34 34 51 34 34 51 34 34 51 34 34 51 34 34 51 34 34 51
