P3
112 56
255
0 0 0 0 0 0 0 0 0 0 0 0 0 0 0 0 0 0 0 0 0 0 0 0 0 0 0 0 0 0 0 0 0 0 0 0 0 0 0 0 0 0 0 0 0 0 0 0 0 0 0 0 0 0 0 0 0 0 0 0 0 0 0 0 0 0 0 0 0 0 0 0 0 0 0 0 0 0 0 0 0 0 0 0 0 0 0 0 0 0 0 0 0 0 0 0 0 0 0 0 0 0 0 0 0 0 0 0 0 0 0 0 0 0 0 0 0 0 0 0 0 0 0 0 0 0 0 0 0 0 0 0 0 0 0 0 0 0 0 0 0 0 0 0 0 0 0 0 0 0 0 0 0 0 0 0 0 0 0 0 0 0 0 0 0 0 0 0 0 0 0 0 0 0 0 0 0 0 0 0 0 0 0 0 0 0 0 0 0 0 0 0 0 0 0 0 0 0 0 0 0 0 0 0 0 0 0 0 0 0 0 0 0 0 0 0 0 0 0 0 0 0 0 0 0 0 0 0 0 0 0 0 0 0 0 0 0 0 0 0 0 0 0 0 0 0 0 0 0 0 0 0 0 0 0 0 0 0 0 0 0 0 0 0 0 0 0 0 0 0 0 0 0 0 0 0 0 0 0 0 0 0 0 0 0 0 0 0 0 0 0 0 0 0 0 0 0 0 0 0 0 0 0 0 0 0 0 0 0 0 0 0 0 0 0 0 0 0 0 0 0 0 0 0 0 0 0 0 0 0 0 0 0 0 0 0
0 0 0 0 0 0 0 0 0 0 0 0 0 0 0 0 0 0 0 0 0 0 0 0 0 0 0 0 0 0 0 0 0 0 0 0 0 0 0 0 0 0 0 0 0 0 0 0 0 0 0 0 0 0 0 0 0 0 0 0 0 0 0 0 0 0 0 0 0 0 0 0 0 0 0 0 0 0 0 0 0 0 0 0 0 0 0 0 0 0 0 0 0 0 0 0 0 0 0 0 0 0 0 0 0 0 0 0 0 0 0 0 0 0 0 0 0 0 0 0 0 0 0 0 0 0 0 0 0 0 0 0 0 0 0 0 0 0 0 0 0 0 0 0 0 0 0 0 0 0 0 0 0 0 0 0 0 0 0 0 0 0 0 0 0 0 0 0 0 0 0 0 0 0 0 0 0 0 0 0 0 0 0 0 0 0 0 0 0 0 0 0 0 0 0 0 0 0 0 0 0 0 0 0 0 0 0 0 0 0 0 0 0 0 0 0 0 0 0 0 0 0 0 0 0 0 0 0 0 0 0 0 0 0 0 0 0 0 0 0 0 0 0 0 0 0 0 0 0 0 0 0 0 0 0 0 0 0 0 0 0 0 0 0 0 0 0 0 0 0 0 0 0 0 0 0 0 0 0 0 0 0 0 0 0 0 0 0 0 0 0 0 0 0 0 0 0 0 0 0 0 0 0 0 0 0 0 0 0 0 0 0 0 0 0 0 0 0 0 0 0 0 0 0 0 0 0 0 0 0 0 0 0 0 0 0
0 0 0 0 0 0 0 0 0 0 0 0 0 0 0 0 0 0 0 0 0 0 0 0 0 0 0 0 0 0 0 0 0 0 0 0 0 0 0 0 0 0 0 0 0 0 0 0 0 0 0 0 0 0 0 0 0 0 0 0 0 0 0 0 0 0 0 0 0 0 0 0 0 0 0 0 0 0 0 0 0 0 0 0 0 0 0 0 0 0 0 0 0 0 0 0 0 0 0 0 0 0 0 0 0 0 0 0 0 0 0 0 0 0 0 0 0 0 0 0 0 0 0 0 0 0 0 0 0 0 0 0 0 0 0 0 0 0 0 0 0 0 0 0 0 0 0 0 0 0 0 0 0 0 0 0 0 0 0 0 0 0 0 0 0 0 0 0 0 0 0 0 0 0 0 0 0 0 0 0 0 0 0 0 0 0 0 0 0 0 0 0 0 0 0 0 0 0 0 0 0 0 0 0 0 0 0 0 0 0 0 0 0 0 0 0 0 0 0 0 0 0 0 0 0 0 0 0 0 0 0 0 0 0 0 0 0 0 0 0 0 0 0 0 0 0 0 0 0 0 0 0 0 0 0 0 0 0 0 0 0 0 0 0 0 0 0 0 0 0 0 0 0 0 0 0 0 0 0 0 0 0 0 0 0 0 0 0 0 0 0 0 0 0 0 0 0 0 0 0 0 0 0 0 0 0 0 0 0 0 0 0 0 0 0 0 0 0 0 0 0 0 0 0 0 0 0 0 0 0 0 0 0 0 0 0
0 0 0 0 0 0 0 0 0 0 0 0 0 0 0 0 0 0 0 0 0 0 0 0 0 0 0 0 0 0 0 0 0 0 0 0 0 0 0 0 0 0 0 0 0 0 0 0 0 0 0 0 0 0 0 0 0 0 0 0 0 0 0 0 0 0 0 0 0 0 0 0 0 0 0 0 0 0 0 0 0 0 0 0 0 0 0 0 0 0 0 0 0 0 0 0 0 0 0 0 0 0 0 0 0 0 0 0 0 0 0 0 0 0 0 0 0 0 0 0 0 0 0 0 0 0 0 0 0 0 0 0 0 0 0 0 0 0 0 0 0 0 0 0 0 0 0 0 0 0 0 0 0 0 0 0 0 0 0 0 0 0 0 0 0 0 0 0 0 0 0 0 0 0 0 0 0 0 0 0 0 0 0 0 0 0 0 0 0 0 0 0 0 0 0 0 0 0 0 0 0 0 0 0 0 0 0 0 0 0 0 0 0 0 0 0 0 0 0 0 0 0 0 0 0 0 0 0 0 0 0 0 0 0 0 0 0 0 0 0 0 0 0 0 0 0 0 0 0 0 0 0 0 0 0 0 0 0 0 0 0 0 0 0 0 0 0 0 0 0 0 0 0 0 0 0 0 0 0 0 0 0 0 0 0 0 0 0 0 0 0 0 0 0 0 0 0 0 0 0 0 0 0 0 0 0 0 0 0 0 0 0 0 0 0 0 0 0 0 0 0 0 0 0 0 0 0 0 0 0 0 0 0 0 0 0
0 0 0 0 0 0 0 0 0 0 0 0 0 0 0 0 0 0 0 0 0 0 0 0 0 0 0 0 0 0 0 0 0 0 0 0 0 0 0 0 0 0 0 0 0 0 0 0 0 0 0 0 0 0 0 0 0 0 0 0 0 0 0 0 0 0 0 0 0 0 0 0 0 0 0 0 0 0 0 0 0 0 0 0 0 0 0 0 0 0 0 0 0 0 0 0 0 0 0 0 0 0 0 0 0 0 0 0 0 0 0 0 0 0 0 0 0 0 0 0 0 0 0 0 0 0 0 0 0 0 0 0 0 0 0 0 0 0 119 136 153 119 136 153 119 136 153 119 136 153 119 136 153 119 136 153 119 136 153 119 136 153 119 136 153 119 136 153 119 136 153 119 136 153 119 136 153 119 136 153 119 136 153 119 136 153 119 136 153 119 136 153 119 136 153 119 136 153 0 0 0 0 0 0 0 0 0 0 0 0 0 0 0 0 0 0 0 0 0 0 0 0 0 0 0 0 0 0 0 0 0 0 0 0 0 0 0 0 0 0 0 0 0 0 0 0 0 0 0 0 0 0 0 0 0 0 0 0 0 0 0 0 0 0 0 0 0 0 0 0 0 0 0 0 0 0 0 0 0 0 0 0 0 0 0 0 0 0 0 0 0 0 0 0 0 0 0 0 0 0 0 0 0 0 0 0 0 0 0 0 0 0 0 0 0 0 0 0 0 0 0 0 0 0 0 0 0 0 0 0 0 0 0 0 0 0
0 0 0 0 0 0 0 0 0 0 0 0 0 0 0 0 0 0 0 0 0 0 0 0 0 0 0 0 0 0 0 0 0 0 0 0 0 0 0 0 0 0 0 0 0 0 0 0 0 0 0 0 0 0 0 0 0 0 0 0 0 0 0 0 0 0 0 0 0 0 0 0 0 0 0 0 0 0 0 0 0 0 0 0 0 0 0 0 0 0 0 0 0 0 0 0 0 0 0 0 0 0 0 0 0 0 0 0 0 0 0 0 0 0 0 0 0 0 0 0 0 0 0 0 0 0 0 0 0 0 0 0 0 0 0 0 0 0 119 136 153 119 136 153 119 136 153 119 136 153 119 136 153 119 136 153 119 136 153 119 136 153 119 136 153 119 136 153 119 136 153 119 136 153 119 136 153 119 136 153 119 136 153 119 136 153 119 136 153 119 136 153 119 136 153 119 136 153 0 0 0 0 0 0 0 0 0 0 0 0 0 0 0 0 0 0 0 0 0 0 0 0 0 0 0 0 0 0 0 0 0 0 0 0 0 0 0 0 0 0 0 0 0 0 0 0 0 0 0 0 0 0 0 0 0 0 0 0 0 0 0 0 0 0 0 0 0 0 0 0 0 0 0 0 0 0 0 0 0 0 0 0 0 0 0 0 0 0 0 0 0 0 0 0 0 0 0 0 0 0 0 0 0 0 0 0 0 0 0 0 0 0 0 0 0 0 0 0 0 0 0 0 0 0 0 0 0 0 0 0 0 0 0 0 0 0
0 0 0 0 0 0 0 0 0 0 0 0 0 0 0 0 0 0 0 0 0 0 0 0 0 0 0 0 0 0 0 0 0 0 0 0 0 0 0 0 0 0 0 0 0 0 0 0 0 0 0 0 0 0 0 0 0 0 0 0 0 0 0 0 0 0 0 0 0 0 0 0 0 0 0 0 0 0 0 0 0 0 0 0 0 0 0 0 0 0 0 0 0 0 0 0 0 0 0 0 0 0 0 0 0 0 0 0 0 0 0 0 0 0 0 0 0 0 0 0 0 0 0 0 0 0 0 0 0 0 0 0 0 0 0 0 0 0 119 136 153 119 136 153 119 136 153 119 136 153 119 136 153 119 136 153 119 136 153 119 136 153 119 136 153 119 136 153 119 136 153 119 136 153 119 136 153 119 136 153 119 136 153 119 136 153 119 136 153 119 136 153 119 136 153 119 136 153 0 0 0 0 0 0 0 0 0 0 0 0 51 68 85 51 68 85 51 68 85 51 68 85 51 68 85 51 68 85 51 68 85 51 68 85 51 68 85 51 68 85 51 68 85 51 68 85 51 68 85 51 68 85 51 68 85 51 68 85 51 68 85 51 68 85 51 68 85 51 68 85 51 68 85 51 68 85 51 68 85 51 68 85 51 68 85 51 68 85 51 68 85 51 68 85 0 0 0 0 0 0 0 0 0 0 0 0 0 0 0 0 0 0 0 0 0 0 0 0 0 0 0 0 0 0 0 0 0 0 0 0 0 0 0 0 0 0
0 0 0 0 0 0 0 0 0 0 0 0 0 0 0 0 0 0 0 0 0 0 0 0 0 0 0 0 0 0 0 0 0 0 0 0 0 0 0 0 0 0 0 0 0 0 0 0 0 0 0 0 0 0 0 0 0 0 0 0 0 0 0 0 0 0 0 0 0 0 0 0 0 0 0 0 0 0 0 0 0 0 0 0 0 0 0 0 0 0 0 0 0 0 0 0 0 0 0 0 0 0 0 0 0 0 0 0 0 0 0 0 0 0 0 0 0 0 0 0 0 0 0 0 0 0 0 0 0 0 0 0 0 0 0 0 0 0 119 136 153 119 136 153 119 136 153 119 136 153 119 136 153 119 136 153 119 136 153 119 136 153 119 136 153 119 136 153 119 136 153 119 136 153 119 136 153 119 136 153 119 136 153 119 136 153 119 136 153 119 136 153 119 136 153 119 136 153 0 0 0 0 0 0 0 0 0 0 0 0 51 68 85 51 68 85 51 68 85 51 68 85 51 68 85 51 68 85 51 68 85 51 68 85 51 68 85 51 68 85 51 68 85 51 68 85 51 68 85 51 68 85 51 68 85 51 68 85 51 68 85 51 68 85 51 68 85 51 68 85 51 68 85 51 68 85 51 68 85 51 68 85 51 68 85 51 68 85 51 68 85 51 68 85 0 0 0 0 0 0 0 0 0 0 0 0 0 0 0 0 0 0 0 0 0 0 0 0 0 0 0 0 0 0 0 0 0 0 0 0 0 0 0 0 0 0
0 0 0 0 0 0 0 0 0 0 0 0 0 0 0 0 0 0 0 0 0 0 0 0 0 0 0 0 0 0 0 0 0 0 0 0 0 0 0 0 0 0 51 68 85 51 68 85 51 68 85 51 68 85 51 68 85 51 68 85 51 68 85 51 68 85 51 68 85 51 68 85 51 68 85 51 68 85 51 68 85 51 68 85 51 68 85 51 68 85 51 68 85 51 68 85 51 68 85 51 68 85 51 68 85 51 68 85 51 68 85 51 68 85 51 68 85 51 68 85 51 68 85 51 68 85 51 68 85 51 68 85 0 0 0 0 0 0 119 136 153 119 136 153 119 136 153 119 136 153 170 187 204 170 187 204 170 187 204 170 187 204 170 187 204 170 187 204 170 187 204 170 187 204 170 187 204 170 187 204 170 187 204 170 187 204 119 136 153 119 136 153 119 136 153 119 136 153 0 0 0 0 0 0 0 0 0 0 0 0 51 68 85 51 68 85 51 68 85 51 68 85 51 68 85 51 68 85 51 68 85 51 68 85 51 68 85 51 68 85 51 68 85 51 68 85 51 68 85 51 68 85 51 68 85 51 68 85 51 68 85 51 68 85 51 68 85 51 68 85 51 68 85 51 68 85 51 68 85 51 68 85 51 68 85 51 68 85 51 68 85 51 68 85 0 0 0 0 0 0 0 0 0 0 0 0 0 0 0 0 0 0 0 0 0 0 0 0 0 0 0 0 0 0 0 0 0 0 0 0 0 0 0 0 0 0
0 0 0 0 0 0 0 0 0 0 0 0 0 0 0 0 0 0 0 0 0 0 0 0 0 0 0 0 0 0 0 0 0 0 0 0 0 0 0 0 0 0 51 68 85 51 68 85 51 68 85 51 68 85 51 68 85 51 68 85 51 68 85 51 68 85 51 68 85 51 68 85 51 68 85 51 68 85 51 68 85 51 68 85 51 68 85 51 68 85 51 68 85 51 68 85 51 68 85 51 68 85 51 68 85 51 68 85 51 68 85 51 68 85 51 68 85 51 68 85 51 68 85 51 68 85 51 68 85 51 68 85 0 0 0 0 0 0 119 136 153 119 136 153 119 136 153 119 136 153 170 187 204 170 187 204 170 187 204 170 187 204 170 187 204 170 187 204 170 187 204 170 187 204 170 187 204 170 187 204 170 187 204 170 187 204 119 136 153 119 136 153 119 136 153 119 136 153 0 0 0 0 0 0 0 0 0 0 0 0 51 68 85 51 68 85 51 68 85 51 68 85 51 68 85 51 68 85 51 68 85 51 68 85 51 68 85 51 68 85 51 68 85 51 68 85 51 68 85 51 68 85 51 68 85 51 68 85 51 68 85 51 68 85 51 68 85 51 68 85 51 68 85 51 68 85 51 68 85 51 68 85 51 68 85 51 68 85 51 68 85 51 68 85 0 0 0 0 0 0 0 0 0 0 0 0 0 0 0 0 0 0 0 0 0 0 0 0 0 0 0 0 0 0 0 0 0 0 0 0 0 0 0 0 0 0
0 0 0 0 0 0 0 0 0 0 0 0 0 0 0 0 0 0 0 0 0 0 0 0 0 0 0 0 0 0 0 0 0 0 0 0 0 0 0 0 0 0 51 68 85 51 68 85 51 68 85 51 68 85 51 68 85 51 68 85 51 68 85 51 68 85 51 68 85 51 68 85 51 68 85 51 68 85 51 68 85 51 68 85 51 68 85 51 68 85 51 68 85 51 68 85 51 68 85 51 68 85 51 68 85 51 68 85 51 68 85 51 68 85 51 68 85 51 68 85 51 68 85 51 68 85 51 68 85 51 68 85 0 0 0 0 0 0 119 136 153 119 136 153 119 136 153 119 136 153 170 187 204 170 187 204 170 187 204 170 187 204 170 187 204 170 187 204 170 187 204 170 187 204 170 187 204 170 187 204 170 187 204 170 187 204 119 136 153 119 136 153 119 136 153 119 136 153 0 0 0 0 0 0 0 0 0 0 0 0 51 68 85 51 68 85 51 68 85 51 68 85 51 68 85 51 68 85 51 68 85 51 68 85 51 68 85 51 68 85 51 68 85 51 68 85 51 68 85 51 68 85 51 68 85 51 68 85 51 68 85 51 68 85 51 68 85 51 68 85 51 68 85 51 68 85 51 68 85 51 68 85 51 68 85 51 68 85 51 68 85 51 68 85 0 0 0 0 0 0 0 0 0 0 0 0 0 0 0 0 0 0 0 0 0 0 0 0 0 0 0 0 0 0 0 0 0 0 0 0 0 0 0 0 0 0
0 0 0 0 0 0 0 0 0 0 0 0 0 0 0 0 0 0 0 0 0 0 0 0 0 0 0 0 0 0 0 0 0 0 0 0 0 0 0 0 0 0 51 68 85 51 68 85 51 68 85 51 68 85 51 68 85 51 68 85 51 68 85 51 68 85 51 68 85 51 68 85 51 68 85 51 68 85 51 68 85 51 68 85 51 68 85 51 68 85 51 68 85 51 68 85 51 68 85 51 68 85 51 68 85 51 68 85 51 68 85 51 68 85 51 68 85 51 68 85 51 68 85 51 68 85 51 68 85 51 68 85 0 0 0 0 0 0 119 136 153 119 136 153 119 136 153 119 136 153 170 187 204 170 187 204 170 187 204 170 187 204 170 187 204 170 187 204 170 187 204 170 187 204 170 187 204 170 187 204 170 187 204 170 187 204 119 136 153 119 136 153 119 136 153 119 136 153 0 0 0 0 0 0 0 0 0 0 0 0 51 68 85 51 68 85 51 68 85 51 68 85 51 68 85 51 68 85 51 68 85 51 68 85 51 68 85 51 68 85 51 68 85 51 68 85 51 68 85 51 68 85 51 68 85 51 68 85 51 68 85 51 68 85 51 68 85 51 68 85 51 68 85 51 68 85 51 68 85 51 68 85 51 68 85 51 68 85 51 68 85 51 68 85 0 0 0 0 0 0 0 0 0 0 0 0 0 0 0 0 0 0 0 0 0 0 0 0 0 0 0 0 0 0 0 0 0 0 0 0 0 0 0 0 0 0
0 0 0 0 0 0 0 0 0 0 0 0 0 0 0 0 0 0 0 0 0 0 0 0 34 34 51 34 34 51 34 34 51 34 34 51 34 34 51 34 34 51 51 68 85 51 68 85 51 68 85 51 68 85 51 68 85 51 68 85 51 68 85 51 68 85 51 68 85 51 68 85 51 68 85 51 68 85 51 68 85 51 68 85 51 68 85 51 68 85 51 68 85 51 68 85 51 68 85 51 68 85 51 68 85 51 68 85 51 68 85 51 68 85 51 68 85 51 68 85 51 68 85 51 68 85 51 68 85 51 68 85 34 34 51 34 34 51 119 136 153 119 136 153 119 136 153 119 136 153 170 187 204 170 187 204 170 187 204 170 187 204 170 187 204 170 187 204 170 187 204 170 187 204 170 187 204 170 187 204 170 187 204 170 187 204 119 136 153 119 136 153 119 136 153 119 136 153 34 34 51 34 34 51 34 34 51 34 34 51 51 68 85 51 68 85 51 68 85 51 68 85 51 68 85 51 68 85 85 102 119 85 102 119 85 102 119 85 102 119 85 102 119 85 102 119 85 102 119 85 102 119 85 102 119 85 102 119 85 102 119 85 102 119 85 102 119 85 102 119 85 102 119 85 102 119 51 68 85 51 68 85 51 68 85 51 68 85 51 68 85 51 68 85 34 34 51 34 34 51 34 34 51 34 34 51 34 34 51 34 34 51 0 0 0 0 0 0 0 0 0 0 0 0 0 0 0 0 0 0 0 0 0 0 0 0
0 0 0 0 0 0 0 0 0 0 0 0 0 0 0 0 0 0 0 0 0 0 0 0 34 34 51 34 34 51 34 34 51 34 34 51 34 34 51 34 34 51 51 68 85 51 68 85 51 68 85 51 68 85 51 68 85 51 68 85 51 68 85 51 68 85 51 68 85 51 68 85 51 68 85 51 68 85 51 68 85 51 68 85 51 68 85 51 68 85 51 68 85 51 68 85 51 68 85 51 68 85 51 68 85 51 68 85 51 68 85 51 68 85 51 68 85 51 68 85 51 68 85 51 68 85 51 68 85 51 68 85 34 34 51 34 34 51 119 136 153 119 136 153 119 136 153 119 136 153 170 187 204 170 187 204 170 187 204 170 187 204 170 187 204 170 187 204 170 187 204 170 187 204 170 187 204 170 187 204 170 187 204 170 187 204 119 136 153 119 136 153 119 136 153 119 136 153 34 34 51 34 34 51 34 34 51 34 34 51 51 68 85 51 68 85 51 68 85 51 68 85 51 68 85 51 68 85 85 102 119 85 102 119 85 102 119 85 102 119 85 102 119 85 102 119 85 102 119 85 102 119 85 102 119 85 102 119 85 102 119 85 102 119 85 102 119 85 102 119 85 102 119 85 102 119 51 68 85 51 68 85 51 68 85 51 68 85 51 68 85 51 68 85 34 34 51 34 34 51 34 34 51 34 34 51 34 34 51 34 34 51 0 0 0 0 0 0 0 0 0 0 0 0 0 0 0 0 0 0 0 0 0 0 0 0
0 0 0 0 0 0 0 0 0 0 0 0 0 0 0 0 0 0 0 0 0 0 0 0 34 34 51 34 34 51 34 34 51 34 34 51 34 34 51 34 34 51 51 68 85 51 68 85 51 68 85 51 68 85 51 68 85 51 68 85 85 102 119 85 102 119 85 102 119 85 102 119 85 102 119 85 102 119 85 102 119 85 102 119 85 102 119 85 102 119 85 102 119 85 102 119 85 102 119 85 102 119 85 102 119 85 102 119 85 102 119 85 102 119 51 68 85 51 68 85 51 68 85 51 68 85 51 68 85 51 68 85 34 34 51 34 34 51 119 136 153 119 136 153 119 136 153 119 136 153 170 187 204 170 187 204 170 187 204 170 187 204 170 187 204 170 187 204 170 187 204 170 187 204 170 187 204 170 187 204 170 187 204 170 187 204 119 136 153 119 136 153 119 136 153 119 136 153 34 34 51 34 34 51 34 34 51 34 34 51 51 68 85 51 68 85 51 68 85 51 68 85 51 68 85 51 68 85 85 102 119 85 102 119 85 102 119 85 102 119 85 102 119 85 102 119 85 102 119 85 102 119 85 102 119 85 102 119 85 102 119 85 102 119 85 102 119 85 102 119 85 102 119 85 102 119 51 68 85 51 68 85 51 68 85 51 68 85 51 68 85 51 68 85 34 34 51 34 34 51 34 34 51 34 34 51 34 34 51 34 34 51 0 0 0 0 0 0 0 0 0 0 0 0 0 0 0 0 0 0 0 0 0 0 0 0
0 0 0 0 0 0 0 0 0 0 0 0 0 0 0 0 0 0 0 0 0 0 0 0 34 34 51 34 34 51 34 34 51 34 34 51 34 34 51 34 34 51 51 68 85 51 68 85 51 68 85 51 68 85 51 68 85 51 68 85 85 102 119 85 102 119 85 102 119 85 102 119 85 102 119 85 102 119 85 102 119 85 102 119 85 102 119 85 102 119 85 102 119 85 102 119 85 102 119 85 102 119 85 102 119 85 102 119 85 102 119 85 102 119 51 68 85 51 68 85 51 68 85 51 68 85 51 68 85 51 68 85 34 34 51 34 34 51 119 136 153 119 136 153 119 136 153 119 136 153 170 187 204 170 187 204 170 187 204 170 187 204 170 187 204 170 187 204 170 187 204 170 187 204 170 187 204 170 187 204 170 187 204 170 187 204 119 136 153 119 136 153 119 136 153 119 136 153 34 34 51 34 34 51 34 34 51 34 34 51 51 68 85 51 68 85 51 68 85 51 68 85 51 68 85 51 68 85 85 102 119 85 102 119 85 102 119 85 102 119 85 102 119 85 102 119 85 102 119 85 102 119 85 102 119 85 102 119 85 102 119 85 102 119 85 102 119 85 102 119 85 102 119 85 102 119 51 68 85 51 68 85 51 68 85 51 68 85 51 68 85 51 68 85 34 34 51 34 34 51 34 34 51 34 34 51 34 34 51 34 34 51 0 0 0 0 0 0 0 0 0 0 0 0 0 0 0 0 0 0 0 0 0 0 0 0
0 0 0 0 0 0 0 0 0 0 0 0 0 0 0 0 0 0 0 0 0 0 0 0 34 34 51 34 34 51 34 34 51 34 34 51 34 34 51 34 34 51 51 68 85 51 68 85 51 68 85 51 68 85 51 68 85 51 68 85 85 102 119 85 102 119 85 102 119 85 102 119 85 102 119 85 102 119 85 102 119 85 102 119 85 102 119 85 102 119 85 102 119 85 102 119 85 102 119 85 102 119 85 102 119 85 102 119 85 102 119 85 102 119 51 68 85 51 68 85 51 68 85 51 68 85 51 68 85 51 68 85 34 34 51 34 34 51 119 136 153 119 136 153 119 136 153 119 136 153 170 187 204 170 187 204 170 187 204 0 170 221 0 170 221 0 170 221 0 170 221 0 170 221 0 170 221 170 187 204 170 187 204 170 187 204 119 136 153 119 136 153 119 136 153 119 136 153 34 34 51 34 34 51 34 34 51 34 34 51 51 68 85 51 68 85 51 68 85 51 68 85 51 68 85 51 68 85 85 102 119 85 102 119 85 102 119 85 102 119 85 102 119 85 102 119 85 102 119 85 102 119 85 102 119 85 102 119 85 102 119 85 102 119 85 102 119 85 102 119 85 102 119 85 102 119 51 68 85 51 68 85 51 68 85 51 68 85 51 68 85 51 68 85 34 34 51 34 34 51 34 34 51 34 34 51 34 34 51 34 34 51 0 0 0 0 0 0 0 0 0 0 0 0 0 0 0 0 0 0 0 0 0 0 0 0
0 0 0 0 0 0 0 0 0 0 0 0 0 0 0 0 0 0 0 0 0 0 0 0 34 34 51 34 34 51 34 34 51 34 34 51 34 34 51 34 34 51 51 68 85 51 68 85 51 68 85 51 68 85 51 68 85 51 68 85 85 102 119 85 102 119 85 102 119 85 102 119 85 102 119 85 102 119 85 102 119 85 102 119 85 102 119 85 102 119 85 102 119 85 102 119 85 102 119 85 102 119 85 102 119 85 102 119 85 102 119 85 102 119 51 68 85 51 68 85 51 68 85 51 68 85 51 68 85 51 68 85 34 34 51 34 34 51 119 136 153 119 136 153 119 136 153 119 136 153 170 187 204 170 187 204 170 187 204 0 170 221 0 170 221 0 170 221 0 170 221 0 170 221 0 170 221 170 187 204 170 187 204 170 187 204 119 136 153 119 136 153 119 136 153 119 136 153 34 34 51 34 34 51 34 34 51 34 34 51 51 68 85 51 68 85 51 68 85 51 68 85 51 68 85 51 68 85 85 102 119 85 102 119 85 102 119 85 102 119 85 102 119 85 102 119 85 102 119 85 102 119 85 102 119 85 102 119 85 102 119 85 102 119 85 102 119 85 102 119 85 102 119 85 102 119 51 68 85 51 68 85 51 68 85 51 68 85 51 68 85 51 68 85 34 34 51 34 34 51 34 34 51 34 34 51 34 34 51 34 34 51 0 0 0 0 0 0 0 0 0 0 0 0 0 0 0 0 0 0 0 0 0 0 0 0
0 0 0 0 0 0 0 0 0 0 0 0 0 0 0 0 0 0 0 0 0 0 0 0 34 34 51 34 34 51 34 34 51 34 34 51 34 34 51 34 34 51 51 68 85 51 68 85 51 68 85 51 68 85 51 68 85 51 68 85 85 102 119 85 102 119 85 102 119 85 102 119 85 102 119 85 102 119 85 102 119 85 102 119 221 51 68 221 51 68 221 51 68 221 51 68 85 102 119 85 102 119 85 102 119 85 102 119 85 102 119 85 102 119 51 68 85 51 68 85 51 68 85 51 68 85 51 68 85 51 68 85 34 34 51 34 34 51 119 136 153 119 136 153 119 136 153 119 136 153 170 187 204 170 187 204 170 187 204 0 170 221 0 170 221 0 170 221 0 170 221 0 170 221 0 170 221 170 187 204 170 187 204 170 187 204 119 136 153 119 136 153 119 136 153 119 136 153 34 34 51 34 34 51 34 34 51 34 34 51 51 68 85 51 68 85 51 68 85 51 68 85 51 68 85 51 68 85 85 102 119 85 102 119 85 102 119 85 102 119 85 102 119 85 102 119 85 102 119 85 102 119 85 102 119 85 102 119 85 102 119 85 102 119 85 102 119 85 102 119 85 102 119 85 102 119 51 68 85 51 68 85 51 68 85 51 68 85 51 68 85 51 68 85 34 34 51 34 34 51 34 34 51 34 34 51 34 34 51 34 34 51 0 0 0 0 0 0 0 0 0 0 0 0 0 0 0 0 0 0 0 0 0 0 0 0
0 0 0 0 0 0 0 0 0 0 0 0 0 0 0 0 0 0 0 0 0 0 0 0 34 34 51 34 34 51 34 34 51 34 34 51 34 34 51 34 34 51 51 68 85 51 68 85 51 68 85 51 68 85 51 68 85 51 68 85 85 102 119 85 102 119 85 102 119 85 102 119 85 102 119 85 102 119 85 102 119 85 102 119 221 51 68 221 51 68 221 51 68 221 51 68 85 102 119 85 102 119 85 102 119 85 102 119 85 102 119 85 102 119 51 68 85 51 68 85 51 68 85 51 68 85 51 68 85 51 68 85 34 34 51 34 34 51 119 136 153 119 136 153 119 136 153 119 136 153 170 187 204 170 187 204 170 187 204 0 170 221 0 170 221 0 170 221 0 170 221 0 170 221 0 170 221 170 187 204 170 187 204 170 187 204 119 136 153 119 136 153 119 136 153 119 136 153 34 34 51 34 34 51 34 34 51 34 34 51 51 68 85 51 68 85 51 68 85 51 68 85 51 68 85 51 68 85 85 102 119 85 102 119 85 102 119 85 102 119 85 102 119 85 102 119 85 102 119 85 102 119 85 102 119 85 102 119 85 102 119 85 102 119 85 102 119 85 102 119 85 102 119 85 102 119 51 68 85 51 68 85 51 68 85 51 68 85 51 68 85 51 68 85 34 34 51 34 34 51 34 34 51 34 34 51 34 34 51 34 34 51 0 0 0 0 0 0 0 0 0 0 0 0 0 0 0 0 0 0 0 0 0 0 0 0
0 0 0 0 0 0 0 0 0 0 0 0 0 0 0 0 0 0 255 170 34 255 170 34 255 170 34 255 170 34 255 170 34 255 170 34 255 170 34 255 170 34 255 170 34 255 170 34 51 68 85 51 68 85 51 68 85 51 68 85 85 102 119 85 102 119 85 102 119 85 102 119 85 102 119 85 102 119 85 102 119 85 102 119 221 51 68 221 51 68 221 51 68 221 51 68 85 102 119 85 102 119 85 102 119 85 102 119 85 102 119 85 102 119 51 68 85 51 68 85 51 68 85 51 68 85 51 68 85 51 68 85 34 34 51 34 34 51 119 136 153 119 136 153 119 136 153 119 136 153 170 187 204 170 187 204 170 187 204 0 170 221 221 238 255 221 238 255 221 238 255 221 238 255 0 170 221 170 187 204 170 187 204 170 187 204 119 136 153 119 136 153 119 136 153 119 136 153 34 34 51 34 34 51 34 34 51 34 34 51 51 68 85 51 68 85 51 68 85 51 68 85 51 68 85 51 68 85 85 102 119 85 102 119 85 102 119 85 102 119 85 102 119 85 102 119 221 51 68 221 51 68 221 51 68 221 51 68 85 102 119 85 102 119 85 102 119 85 102 119 85 102 119 85 102 119 51 68 85 51 68 85 51 68 85 51 68 85 51 68 85 51 68 85 34 34 51 34 34 51 34 34 51 34 34 51 34 34 51 34 34 51 0 0 0 0 0 0 0 0 0 0 0 0 0 0 0 0 0 0 0 0 0 0 0 0
0 0 0 0 0 0 0 0 0 0 0 0 0 0 0 0 0 0 255 170 34 255 170 34 255 170 34 255 170 34 255 170 34 255 170 34 255 170 34 255 170 34 255 170 34 255 170 34 51 68 85 51 68 85 51 68 85 51 68 85 85 102 119 85 102 119 85 102 119 85 102 119 85 102 119 85 102 119 85 102 119 85 102 119 221 51 68 221 51 68 221 51 68 221 51 68 85 102 119 85 102 119 85 102 119 85 102 119 85 102 119 85 102 119 51 68 85 51 68 85 51 68 85 51 68 85 51 68 85 51 68 85 34 34 51 34 34 51 119 136 153 119 136 153 119 136 153 119 136 153 170 187 204 170 187 204 170 187 204 0 170 221 221 238 255 221 238 255 221 238 255 221 238 255 0 170 221 170 187 204 170 187 204 170 187 204 119 136 153 119 136 153 119 136 153 119 136 153 34 34 51 34 34 51 34 34 51 34 34 51 51 68 85 51 68 85 51 68 85 51 68 85 51 68 85 51 68 85 85 102 119 85 102 119 85 102 119 85 102 119 85 102 119 85 102 119 221 51 68 221 51 68 221 51 68 221 51 68 85 102 119 85 102 119 85 102 119 85 102 119 85 102 119 85 102 119 51 68 85 51 68 85 51 68 85 51 68 85 51 68 85 51 68 85 34 34 51 34 34 51 34 34 51 34 34 51 34 34 51 34 34 51 0 0 0 0 0 0 0 0 0 0 0 0 0 0 0 0 0 0 0 0 0 0 0 0
0 0 0 0 0 0 0 0 0 0 0 0 0 0 0 0 0 0 255 170 34 255 170 34 255 170 34 255 170 34 255 170 34 255 170 34 255 170 34 255 170 34 255 170 34 255 170 34 51 68 85 51 68 85 51 68 85 51 68 85 85 102 119 85 102 119 85 102 119 85 102 119 85 102 119 85 102 119 85 102 119 85 102 119 85 102 119 85 102 119 85 102 119 85 102 119 85 102 119 85 102 119 85 102 119 85 102 119 85 102 119 85 102 119 51 68 85 51 68 85 51 68 85 51 68 85 51 68 85 51 68 85 34 34 51 34 34 51 119 136 153 119 136 153 119 136 153 119 136 153 170 187 204 170 187 204 170 187 204 0 170 221 221 238 255 221 238 255 221 238 255 221 238 255 0 170 221 170 187 204 170 187 204 170 187 204 119 136 153 119 136 153 119 136 153 119 136 153 34 34 51 34 34 51 34 34 51 34 34 51 51 68 85 51 68 85 51 68 85 51 68 85 51 68 85 51 68 85 85 102 119 85 102 119 85 102 119 85 102 119 85 102 119 85 102 119 221 51 68 221 51 68 221 51 68 221 51 68 85 102 119 85 102 119 85 102 119 85 102 119 85 102 119 85 102 119 51 68 85 51 68 85 51 68 85 51 68 85 51 68 85 51 68 85 34 34 51 34 34 51 34 34 51 34 34 51 34 34 51 34 34 51 0 0 0 0 0 0 0 0 0 0 0 0 0 0 0 0 0 0 0 0 0 0 0 0
0 0 0 0 0 0 0 0 0 0 0 0 0 0 0 0 0 0 255 170 34 255 170 34 255 170 34 255 170 34 255 170 34 255 170 34 255 170 34 255 170 34 255 170 34 255 170 34 51 68 85 51 68 85 51 68 85 51 68 85 85 102 119 85 102 119 85 102 119 85 102 119 85 102 119 85 102 119 85 102 119 85 102 119 85 102 119 85 102 119 85 102 119 85 102 119 85 102 119 85 102 119 85 102 119 85 102 119 85 102 119 85 102 119 51 68 85 51 68 85 51 68 85 51 68 85 51 68 85 51 68 85 34 34 51 34 34 51 119 136 153 119 136 153 119 136 153 119 136 153 170 187 204 170 187 204 170 187 204 0 170 221 221 238 255 221 238 255 221 238 255 221 238 255 0 170 221 170 187 204 170 187 204 170 187 204 119 136 153 119 136 153 119 136 153 119 136 153 34 34 51 34 34 51 34 34 51 34 34 51 51 68 85 51 68 85 51 68 85 51 68 85 51 68 85 51 68 85 85 102 119 85 102 119 85 102 119 85 102 119 85 102 119 85 102 119 221 51 68 221 51 68 221 51 68 221 51 68 85 102 119 85 102 119 85 102 119 85 102 119 85 102 119 85 102 119 51 68 85 51 68 85 51 68 85 51 68 85 51 68 85 51 68 85 34 34 51 34 34 51 34 34 51 34 34 51 34 34 51 34 34 51 0 0 0 0 0 0 0 0 0 0 0 0 0 0 0 0 0 0 0 0 0 0 0 0
0 0 0 0 0 0 0 0 0 0 0 0 0 0 0 0 0 0 255 170 34 255 170 34 255 170 34 255 170 34 255 170 34 255 170 34 255 170 34 255 170 34 255 170 34 255 170 34 51 68 85 51 68 85 51 68 85 51 68 85 85 102 119 85 102 119 85 102 119 85 102 119 85 102 119 85 102 119 85 102 119 85 102 119 85 102 119 85 102 119 85 102 119 85 102 119 85 102 119 85 102 119 85 102 119 85 102 119 85 102 119 85 102 119 51 68 85 51 68 85 51 68 85 51 68 85 51 68 85 51 68 85 34 34 51 34 34 51 119 136 153 119 136 153 119 136 153 119 136 153 170 187 204 170 187 204 170 187 204 0 170 221 221 238 255 221 238 255 221 238 255 221 238 255 0 170 221 170 187 204 170 187 204 170 187 204 119 136 153 119 136 153 119 136 153 119 136 153 34 34 51 34 34 51 34 34 51 34 34 51 51 68 85 51 68 85 51 68 85 51 68 85 51 68 85 51 68 85 85 102 119 85 102 119 85 102 119 85 102 119 85 102 119 85 102 119 85 102 119 85 102 119 85 102 119 85 102 119 85 102 119 85 102 119 85 102 119 85 102 119 85 102 119 85 102 119 51 68 85 51 68 85 51 68 85 51 68 85 255 170 34 255 170 34 255 170 34 255 170 34 255 170 34 255 170 34 255 170 34 255 170 34 255 170 34 255 170 34 0 0 0 0 0 0 0 0 0 0 0 0 0 0 0 0 0 0
0 0 0 0 0 0 0 0 0 0 0 0 0 0 0 0 0 0 255 170 34 255 170 34 255 170 34 255 170 34 255 170 34 255 170 34 255 170 34 255 170 34 255 170 34 255 170 34 51 68 85 51 68 85 51 68 85 51 68 85 85 102 119 85 102 119 85 102 119 85 102 119 85 102 119 85 102 119 85 102 119 85 102 119 85 102 119 85 102 119 85 102 119 85 102 119 85 102 119 85 102 119 85 102 119 85 102 119 85 102 119 85 102 119 51 68 85 51 68 85 51 68 85 51 68 85 51 68 85 51 68 85 34 34 51 34 34 51 119 136 153 119 136 153 119 136 153 119 136 153 170 187 204 170 187 204 170 187 204 0 170 221 221 238 255 221 238 255 221 238 255 221 238 255 0 170 221 170 187 204 170 187 204 170 187 204 119 136 153 119 136 153 119 136 153 119 136 153 34 34 51 34 34 51 34 34 51 34 34 51 51 68 85 51 68 85 51 68 85 51 68 85 51 68 85 51 68 85 85 102 119 85 102 119 85 102 119 85 102 119 85 102 119 85 102 119 85 102 119 85 102 119 85 102 119 85 102 119 85 102 119 85 102 119 85 102 119 85 102 119 85 102 119 85 102 119 51 68 85 51 68 85 51 68 85 51 68 85 255 170 34 255 170 34 255 170 34 255 170 34 255 170 34 255 170 34 255 170 34 255 170 34 255 170 34 255 170 34 0 0 0 0 0 0 0 0 0 0 0 0 0 0 0 0 0 0
0 0 0 0 0 0 0 0 0 0 0 0 0 0 0 0 0 0 0 0 0 0 0 0 34 34 51 34 34 51 34 34 51 34 34 51 34 34 51 34 34 51 51 68 85 51 68 85 51 68 85 51 68 85 51 68 85 51 68 85 85 102 119 85 102 119 85 102 119 85 102 119 85 102 119 85 102 119 85 102 119 85 102 119 85 102 119 85 102 119 85 102 119 85 102 119 85 102 119 85 102 119 85 102 119 85 102 119 85 102 119 85 102 119 51 68 85 51 68 85 51 68 85 51 68 85 51 68 85 51 68 85 34 34 51 34 34 51 119 136 153 119 136 153 119 136 153 119 136 153 170 187 204 170 187 204 170 187 204 0 170 221 221 238 255 221 238 255 221 238 255 221 238 255 0 170 221 170 187 204 170 187 204 170 187 204 119 136 153 119 136 153 119 136 153 119 136 153 34 34 51 34 34 51 34 34 51 34 34 51 51 68 85 51 68 85 51 68 85 51 68 85 51 68 85 51 68 85 85 102 119 85 102 119 85 102 119 85 102 119 85 102 119 85 102 119 85 102 119 85 102 119 85 102 119 85 102 119 85 102 119 85 102 119 85 102 119 85 102 119 85 102 119 85 102 119 51 68 85 51 68 85 51 68 85 51 68 85 255 170 34 255 170 34 255 170 34 255 170 34 255 170 34 255 170 34 255 170 34 255 170 34 255 170 34 255 170 34 0 0 0 0 0 0 0 0 0 0 0 0 0 0 0 0 0 0
0 0 0 0 0 0 0 0 0 0 0 0 0 0 0 0 0 0 0 0 0 0 0 0 34 34 51 34 34 51 34 34 51 34 34 51 34 34 51 34 34 51 51 68 85 51 68 85 51 68 85 51 68 85 51 68 85 51 68 85 85 102 119 85 102 119 85 102 119 85 102 119 85 102 119 85 102 119 85 102 119 85 102 119 85 102 119 85 102 119 85 102 119 85 102 119 85 102 119 85 102 119 85 102 119 85 102 119 85 102 119 85 102 119 51 68 85 51 68 85 51 68 85 51 68 85 51 68 85 51 68 85 34 34 51 34 34 51 119 136 153 119 136 153 119 136 153 119 136 153 170 187 204 170 187 204 170 187 204 0 170 221 221 238 255 221 238 255 221 238 255 221 238 255 0 170 221 170 187 204 170 187 204 170 187 204 119 136 153 119 136 153 119 136 153 119 136 153 34 34 51 34 34 51 34 34 51 34 34 51 51 68 85 51 68 85 51 68 85 51 68 85 51 68 85 51 68 85 85 102 119 85 102 119 85 102 119 85 102 119 85 102 119 85 102 119 85 102 119 85 102 119 85 102 119 85 102 119 85 102 119 85 102 119 85 102 119 85 102 119 85 102 119 85 102 119 51 68 85 51 68 85 51 68 85 51 68 85 255 170 34 255 170 34 255 170 34 255 170 34 255 170 34 255 170 34 255 170 34 255 170 34 255 170 34 255 170 34 0 0 0 0 0 0 0 0 0 0 0 0 0 0 0 0 0 0
0 0 0 0 0 0 0 0 0 0 0 0 0 0 0 0 0 0 0 0 0 0 0 0 34 34 51 34 34 51 34 34 51 34 34 51 34 34 51 34 34 51 51 68 85 51 68 85 51 68 85 51 68 85 51 68 85 51 68 85 85 102 119 85 102 119 85 102 119 85 102 119 85 102 119 85 102 119 85 102 119 85 102 119 85 102 119 85 102 119 85 102 119 85 102 119 85 102 119 85 102 119 85 102 119 85 102 119 85 102 119 85 102 119 51 68 85 51 68 85 51 68 85 51 68 85 51 68 85 51 68 85 34 34 51 34 34 51 119 136 153 119 136 153 119 136 153 119 136 153 170 187 204 170 187 204 170 187 204 0 170 221 221 238 255 221 238 255 221 238 255 221 238 255 0 170 221 170 187 204 170 187 204 170 187 204 119 136 153 119 136 153 119 136 153 119 136 153 34 34 51 34 34 51 34 34 51 34 34 51 51 68 85 51 68 85 51 68 85 51 68 85 51 68 85 51 68 85 85 102 119 85 102 119 85 102 119 85 102 119 85 102 119 85 102 119 85 102 119 85 102 119 85 102 119 85 102 119 85 102 119 85 102 119 85 102 119 85 102 119 85 102 119 85 102 119 51 68 85 51 68 85 51 68 85 51 68 85 255 170 34 255 170 34 255 170 34 255 170 34 255 170 34 255 170 34 255 170 34 255 170 34 255 170 34 255 170 34 0 0 0 0 0 0 0 0 0 0 0 0 0 0 0 0 0 0
0 0 0 0 0 0 0 0 0 0 0 0 0 0 0 0 0 0 0 0 0 0 0 0 34 34 51 34 34 51 34 34 51 34 34 51 34 34 51 34 34 51 51 68 85 51 68 85 51 68 85 51 68 85 51 68 85 51 68 85 85 102 119 85 102 119 85 102 119 85 102 119 85 102 119 85 102 119 85 102 119 85 102 119 85 102 119 85 102 119 85 102 119 85 102 119 85 102 119 85 102 119 85 102 119 85 102 119 85 102 119 85 102 119 51 68 85 51 68 85 51 68 85 51 68 85 51 68 85 51 68 85 34 34 51 34 34 51 119 136 153 119 136 153 119 136 153 119 136 153 170 187 204 170 187 204 170 187 204 0 170 221 221 238 255 221 238 255 221 238 255 221 238 255 0 170 221 170 187 204 170 187 204 170 187 204 119 136 153 119 136 153 119 136 153 119 136 153 34 34 51 34 34 51 34 34 51 34 34 51 51 68 85 51 68 85 51 68 85 51 68 85 51 68 85 51 68 85 85 102 119 85 102 119 85 102 119 85 102 119 85 102 119 85 102 119 85 102 119 85 102 119 85 102 119 85 102 119 85 102 119 85 102 119 85 102 119 85 102 119 85 102 119 85 102 119 51 68 85 51 68 85 51 68 85 51 68 85 255 170 34 255 170 34 255 170 34 255 170 34 255 170 34 255 170 34 255 170 34 255 170 34 255 170 34 255 170 34 0 0 0 0 0 0 0 0 0 0 0 0 0 0 0 0 0 0
0 0 0 0 0 0 0 0 0 0 0 0 0 0 0 0 0 0 0 0 0 0 0 0 34 34 51 34 34 51 34 34 51 34 34 51 34 34 51 34 34 51 51 68 85 51 68 85 51 68 85 51 68 85 51 68 85 51 68 85 85 102 119 85 102 119 85 102 119 85 102 119 85 102 119 85 102 119 85 102 119 85 102 119 85 102 119 85 102 119 85 102 119 85 102 119 85 102 119 85 102 119 85 102 119 85 102 119 85 102 119 85 102 119 51 68 85 51 68 85 51 68 85 51 68 85 51 68 85 51 68 85 34 34 51 34 34 51 119 136 153 119 136 153 119 136 153 119 136 153 170 187 204 170 187 204 170 187 204 0 170 221 0 170 221 0 170 221 0 170 221 0 170 221 0 170 221 170 187 204 170 187 204 170 187 204 119 136 153 119 136 153 119 136 153 119 136 153 34 34 51 34 34 51 34 34 51 34 34 51 51 68 85 51 68 85 51 68 85 51 68 85 51 68 85 51 68 85 85 102 119 85 102 119 85 102 119 85 102 119 85 102 119 85 102 119 85 102 119 85 102 119 85 102 119 85 102 119 85 102 119 85 102 119 85 102 119 85 102 119 85 102 119 85 102 119 51 68 85 51 68 85 51 68 85 51 68 85 51 68 85 51 68 85 34 34 51 34 34 51 34 34 51 34 34 51 34 34 51 34 34 51 0 0 0 0 0 0 0 0 0 0 0 0 0 0 0 0 0 0 0 0 0 0 0 0
0 0 0 0 0 0 0 0 0 0 0 0 0 0 0 0 0 0 0 0 0 0 0 0 34 34 51 34 34 51 34 34 51 34 34 51 34 34 51 34 34 51 51 68 85 51 68 85 51 68 85 51 68 85 51 68 85 51 68 85 85 102 119 85 102 119 85 102 119 85 102 119 85 102 119 85 102 119 85 102 119 85 102 119 85 102 119 85 102 119 85 102 119 85 102 119 85 102 119 85 102 119 85 102 119 85 102 119 85 102 119 85 102 119 51 68 85 51 68 85 51 68 85 51 68 85 51 68 85 51 68 85 34 34 51 34 34 51 119 136 153 119 136 153 119 136 153 119 136 153 170 187 204 170 187 204 170 187 204 0 170 221 0 170 221 0 170 221 0 170 221 0 170 221 0 170 221 170 187 204 170 187 204 170 187 204 119 136 153 119 136 153 119 136 153 119 136 153 34 34 51 34 34 51 34 34 51 34 34 51 51 68 85 51 68 85 51 68 85 51 68 85 51 68 85 51 68 85 85 102 119 85 102 119 85 102 119 85 102 119 85 102 119 85 102 119 85 102 119 85 102 119 85 102 119 85 102 119 85 102 119 85 102 119 85 102 119 85 102 119 85 102 119 85 102 119 51 68 85 51 68 85 51 68 85 51 68 85 51 68 85 51 68 85 34 34 51 34 34 51 34 34 51 34 34 51 34 34 51 34 34 51 0 0 0 0 0 0 0 0 0 0 0 0 0 0 0 0 0 0 0 0 0 0 0 0
0 0 0 0 0 0 0 0 0 0 0 0 0 0 0 0 0 0 0 0 0 0 0 0 34 34 51 34 34 51 34 34 51 34 34 51 34 34 51 34 34 51 51 68 85 51 68 85 51 68 85 51 68 85 51 68 85 51 68 85 85 102 119 85 102 119 85 102 119 85 102 119 85 102 119 85 102 119 85 102 119 85 102 119 85 102 119 85 102 119 85 102 119 85 102 119 85 102 119 85 102 119 85 102 119 85 102 119 85 102 119 85 102 119 51 68 85 51 68 85 51 68 85 51 68 85 51 68 85 51 68 85 34 34 51 34 34 51 119 136 153 119 136 153 119 136 153 119 136 153 170 187 204 170 187 204 170 187 204 0 170 221 0 170 221 0 170 221 0 170 221 0 170 221 0 170 221 170 187 204 170 187 204 170 187 204 119 136 153 119 136 153 119 136 153 119 136 153 34 34 51 34 34 51 34 34 51 34 34 51 51 68 85 51 68 85 51 68 85 51 68 85 51 68 85 51 68 85 85 102 119 85 102 119 85 102 119 85 102 119 85 102 119 85 102 119 85 102 119 85 102 119 85 102 119 85 102 119 85 102 119 85 102 119 85 102 119 85 102 119 85 102 119 85 102 119 51 68 85 51 68 85 51 68 85 51 68 85 51 68 85 51 68 85 34 34 51 34 34 51 34 34 51 34 34 51 34 34 51 34 34 51 0 0 0 0 0 0 0 0 0 0 0 0 0 0 0 0 0 0 0 0 0 0 0 0
0 0 0 0 0 0 0 0 0 0 0 0 0 0 0 0 0 0 0 0 0 0 0 0 34 34 51 34 34 51 34 34 51 34 34 51 34 34 51 34 34 51 51 68 85 51 68 85 51 68 85 51 68 85 51 68 85 51 68 85 85 102 119 85 102 119 85 102 119 85 102 119 85 102 119 85 102 119 85 102 119 85 102 119 85 102 119 85 102 119 85 102 119 85 102 119 85 102 119 85 102 119 85 102 119 85 102 119 85 102 119 85 102 119 51 68 85 51 68 85 51 68 85 51 68 85 51 68 85 51 68 85 34 34 51 34 34 51 119 136 153 119 136 153 119 136 153 119 136 153 170 187 204 170 187 204 170 187 204 0 170 221 0 170 221 0 170 221 0 170 221 0 170 221 0 170 221 170 187 204 170 187 204 170 187 204 119 136 153 119 136 153 119 136 153 119 136 153 34 34 51 34 34 51 34 34 51 34 34 51 51 68 85 51 68 85 51 68 85 51 68 85 51 68 85 51 68 85 85 102 119 85 102 119 85 102 119 85 102 119 85 102 119 85 102 119 85 102 119 85 102 119 85 102 119 85 102 119 85 102 119 85 102 119 85 102 119 85 102 119 85 102 119 85 102 119 51 68 85 51 68 85 51 68 85 51 68 85 51 68 85 51 68 85 34 34 51 34 34 51 34 34 51 34 34 51 34 34 51 34 34 51 0 0 0 0 0 0 0 0 0 0 0 0 0 0 0 0 0 0 0 0 0 0 0 0
0 0 0 0 0 0 0 0 0 0 0 0 0 0 0 0 0 0 0 0 0 0 0 0 34 34 51 34 34 51 34 34 51 34 34 51 34 34 51 34 34 51 51 68 85 51 68 85 51 68 85 51 68 85 51 68 85 51 68 85 85 102 119 85 102 119 85 102 119 85 102 119 85 102 119 85 102 119 85 102 119 85 102 119 85 102 119 85 102 119 85 102 119 85 102 119 85 102 119 85 102 119 85 102 119 85 102 119 85 102 119 85 102 119 51 68 85 51 68 85 51 68 85 51 68 85 51 68 85 51 68 85 34 34 51 34 34 51 119 136 153 119 136 153 119 136 153 119 136 153 170 187 204 170 187 204 170 187 204 170 187 204 170 187 204 170 187 204 170 187 204 170 187 204 170 187 204 170 187 204 170 187 204 170 187 204 119 136 153 119 136 153 119 136 153 119 136 153 34 34 51 34 34 51 34 34 51 34 34 51 51 68 85 51 68 85 51 68 85 51 68 85 51 68 85 51 68 85 85 102 119 85 102 119 85 102 119 85 102 119 85 102 119 85 102 119 85 102 119 85 102 119 85 102 119 85 102 119 85 102 119 85 102 119 85 102 119 85 102 119 85 102 119 85 102 119 51 68 85 51 68 85 51 68 85 51 68 85 51 68 85 51 68 85 34 34 51 34 34 51 34 34 51 34 34 51 34 34 51 34 34 51 0 0 0 0 0 0 0 0 0 0 0 0 0 0 0 0 0 0 0 0 0 0 0 0
0 0 0 0 0 0 0 0 0 0 0 0 0 0 0 0 0 0 0 0 0 0 0 0 34 34 51 34 34 51 34 34 51 34 34 51 34 34 51 34 34 51 51 68 85 51 68 85 51 68 85 51 68 85 51 68 85 51 68 85 85 102 119 85 102 119 85 102 119 85 102 119 85 102 119 85 102 119 85 102 119 85 102 119 85 102 119 85 102 119 85 102 119 85 102 119 85 102 119 85 102 119 85 102 119 85 102 119 85 102 119 85 102 119 51 68 85 51 68 85 51 68 85 51 68 85 51 68 85 51 68 85 34 34 51 34 34 51 119 136 153 119 136 153 119 136 153 119 136 153 170 187 204 170 187 204 170 187 204 170 187 204 170 187 204 170 187 204 170 187 204 170 187 204 170 187 204 170 187 204 170 187 204 170 187 204 119 136 153 119 136 153 119 136 153 119 136 153 34 34 51 34 34 51 34 34 51 34 34 51 51 68 85 51 68 85 51 68 85 51 68 85 51 68 85 51 68 85 85 102 119 85 102 119 85 102 119 85 102 119 85 102 119 85 102 119 85 102 119 85 102 119 85 102 119 85 102 119 85 102 119 85 102 119 85 102 119 85 102 119 85 102 119 85 102 119 51 68 85 51 68 85 51 68 85 51 68 85 51 68 85 51 68 85 34 34 51 34 34 51 34 34 51 34 34 51 34 34 51 34 34 51 0 0 0 0 0 0 0 0 0 0 0 0 0 0 0 0 0 0 0 0 0 0 0 0
0 0 0 0 0 0 0 0 0 0 0 0 0 0 0 0 0 0 0 0 0 0 0 0 34 34 51 34 34 51 34 34 51 34 34 51 34 34 51 34 34 51 51 68 85 51 68 85 51 68 85 51 68 85 51 68 85 51 68 85 85 102 119 85 102 119 85 102 119 85 102 119 85 102 119 85 102 119 85 102 119 85 102 119 85 102 119 85 102 119 85 102 119 85 102 119 85 102 119 85 102 119 85 102 119 85 102 119 85 102 119 85 102 119 51 68 85 51 68 85 51 68 85 51 68 85 51 68 85 51 68 85 34 34 51 34 34 51 119 136 153 119 136 153 119 136 153 119 136 153 170 187 204 170 187 204 170 187 204 170 187 204 170 187 204 170 187 204 170 187 204 170 187 204 170 187 204 170 187 204 170 187 204 170 187 204 119 136 153 119 136 153 119 136 153 119 136 153 34 34 51 34 34 51 34 34 51 34 34 51 51 68 85 51 68 85 51 68 85 51 68 85 51 68 85 51 68 85 85 102 119 85 102 119 85 102 119 85 102 119 85 102 119 85 102 119 85 102 119 85 102 119 85 102 119 85 102 119 85 102 119 85 102 119 85 102 119 85 102 119 85 102 119 85 102 119 51 68 85 51 68 85 51 68 85 51 68 85 51 68 85 51 68 85 34 34 51 34 34 51 34 34 51 34 34 51 34 34 51 34 34 51 0 0 0 0 0 0 0 0 0 0 0 0 0 0 0 0 0 0 0 0 0 0 0 0
0 0 0 0 0 0 0 0 0 0 0 0 0 0 0 0 0 0 0 0 0 0 0 0 34 34 51 34 34 51 34 34 51 34 34 51 34 34 51 34 34 51 51 68 85 51 68 85 51 68 85 51 68 85 51 68 85 51 68 85 85 102 119 85 102 119 85 102 119 85 102 119 85 102 119 85 102 119 85 102 119 85 102 119 85 102 119 85 102 119 85 102 119 85 102 119 85 102 119 85 102 119 85 102 119 85 102 119 85 102 119 85 102 119 51 68 85 51 68 85 51 68 85 51 68 85 51 68 85 51 68 85 34 34 51 34 34 51 119 136 153 119 136 153 119 136 153 119 136 153 170 187 204 170 187 204 170 187 204 170 187 204 170 187 204 170 187 204 170 187 204 170 187 204 170 187 204 170 187 204 170 187 204 170 187 204 119 136 153 119 136 153 119 136 153 119 136 153 34 34 51 34 34 51 34 34 51 34 34 51 51 68 85 51 68 85 51 68 85 51 68 85 51 68 85 51 68 85 85 102 119 85 102 119 85 102 119 85 102 119 85 102 119 85 102 119 85 102 119 85 102 119 85 102 119 85 102 119 85 102 119 85 102 119 85 102 119 85 102 119 85 102 119 85 102 119 51 68 85 51 68 85 51 68 85 51 68 85 51 68 85 51 68 85 34 34 51 34 34 51 34 34 51 34 34 51 34 34 51 34 34 51 0 0 0 0 0 0 0 0 0 0 0 0 0 0 0 0 0 0 0 0 0 0 0 0
0 0 0 0 0 0 0 0 0 0 0 0 0 0 0 0 0 0 0 0 0 0 0 0 34 34 51 34 34 51 34 34 51 34 34 51 34 34 51 34 34 51 51 68 85 51 68 85 51 68 85 51 68 85 51 68 85 51 68 85 85 102 119 85 102 119 85 102 119 85 102 119 85 102 119 85 102 119 85 102 119 85 102 119 85 102 119 85 102 119 85 102 119 85 102 119 85 102 119 85 102 119 85 102 119 85 102 119 85 102 119 85 102 119 51 68 85 51 68 85 51 68 85 51 68 85 51 68 85 51 68 85 34 34 51 34 34 51 119 136 153 119 136 153 119 136 153 119 136 153 170 187 204 170 187 204 170 187 204 170 187 204 170 187 204 170 187 204 170 187 204 170 187 204 170 187 204 170 187 204 170 187 204 170 187 204 119 136 153 119 136 153 119 136 153 119 136 153 34 34 51 34 34 51 34 34 51 34 34 51 51 68 85 51 68 85 51 68 85 51 68 85 51 68 85 51 68 85 85 102 119 85 102 119 85 102 119 85 102 119 85 102 119 85 102 119 85 102 119 85 102 119 85 102 119 85 102 119 85 102 119 85 102 119 85 102 119 85 102 119 85 102 119 85 102 119 51 68 85 51 68 85 51 68 85 51 68 85 51 68 85 51 68 85 34 34 51 34 34 51 34 34 51 34 34 51 34 34 51 34 34 51 0 0 0 0 0 0 0 0 0 0 0 0 0 0 0 0 0 0 0 0 0 0 0 0
0 0 0 0 0 0 0 0 0 0 0 0 0 0 0 0 0 0 0 0 0 0 0 0 34 34 51 34 34 51 34 34 51 34 34 51 34 34 51 34 34 51 51 68 85 51 68 85 51 68 85 51 68 85 51 68 85 51 68 85 85 102 119 85 102 119 85 102 119 85 102 119 85 102 119 85 102 119 85 102 119 85 102 119 85 102 119 85 102 119 85 102 119 85 102 119 85 102 119 85 102 119 85 102 119 85 102 119 85 102 119 85 102 119 51 68 85 51 68 85 51 68 85 51 68 85 51 68 85 51 68 85 34 34 51 34 34 51 119 136 153 119 136 153 119 136 153 119 136 153 170 187 204 170 187 204 170 187 204 170 187 204 170 187 204 170 187 204 170 187 204 170 187 204 170 187 204 170 187 204 170 187 204 170 187 204 119 136 153 119 136 153 119 136 153 119 136 153 34 34 51 34 34 51 34 34 51 34 34 51 51 68 85 51 68 85 51 68 85 51 68 85 51 68 85 51 68 85 85 102 119 85 102 119 85 102 119 85 102 119 85 102 119 85 102 119 85 102 119 85 102 119 85 102 119 85 102 119 85 102 119 85 102 119 85 102 119 85 102 119 85 102 119 85 102 119 51 68 85 51 68 85 51 68 85 51 68 85 51 68 85 51 68 85 34 34 51 34 34 51 34 34 51 34 34 51 34 34 51 34 34 51 0 0 0 0 0 0 0 0 0 0 0 0 0 0 0 0 0 0 0 0 0 0 0 0
0 0 0 0 0 0 0 0 0 0 0 0 0 0 0 0 0 0 0 0 0 0 0 0 34 34 51 34 34 51 34 34 51 34 34 51 34 34 51 34 34 51 51 68 85 51 68 85 51 68 85 51 68 85 51 68 85 51 68 85 85 102 119 85 102 119 85 102 119 85 102 119 85 102 119 85 102 119 85 102 119 85 102 119 85 102 119 85 102 119 85 102 119 85 102 119 85 102 119 85 102 119 85 102 119 85 102 119 85 102 119 85 102 119 51 68 85 51 68 85 51 68 85 51 68 85 51 68 85 51 68 85 34 34 51 34 34 51 119 136 153 119 136 153 119 136 153 119 136 153 170 187 204 170 187 204 170 187 204 170 187 204 170 187 204 170 187 204 170 187 204 170 187 204 170 187 204 170 187 204 170 187 204 170 187 204 119 136 153 119 136 153 119 136 153 119 136 153 34 34 51 34 34 51 34 34 51 34 34 51 51 68 85 51 68 85 51 68 85 51 68 85 51 68 85 51 68 85 85 102 119 85 102 119 85 102 119 85 102 119 85 102 119 85 102 119 85 102 119 85 102 119 85 102 119 85 102 119 85 102 119 85 102 119 85 102 119 85 102 119 85 102 119 85 102 119 51 68 85 51 68 85 51 68 85 51 68 85 51 68 85 51 68 85 34 34 51 34 34 51 34 34 51 34 34 51 34 34 51 34 34 51 0 0 0 0 0 0 0 0 0 0 0 0 0 0 0 0 0 0 0 0 0 0 0 0
0 0 0 0 0 0 0 0 0 0 0 0 0 0 0 0 0 0 0 0 0 0 0 0 34 34 51 34 34 51 34 34 51 34 34 51 34 34 51 34 34 51 51 68 85 51 68 85 51 68 85 51 68 85 51 68 85 51 68 85 85 102 119 85 102 119 85 102 119 85 102 119 85 102 119 85 102 119 85 102 119 85 102 119 85 102 119 85 102 119 85 102 119 85 102 119 85 102 119 85 102 119 85 102 119 85 102 119 85 102 119 85 102 119 51 68 85 51 68 85 51 68 85 51 68 85 51 68 85 51 68 85 34 34 51 34 34 51 119 136 153 119 136 153 119 136 153 119 136 153 170 187 204 170 187 204 170 187 204 170 187 204 170 187 204 170 187 204 170 187 204 170 187 204 170 187 204 170 187 204 170 187 204 170 187 204 119 136 153 119 136 153 119 136 153 119 136 153 34 34 51 34 34 51 34 34 51 34 34 51 51 68 85 51 68 85 51 68 85 51 68 85 51 68 85 51 68 85 85 102 119 85 102 119 85 102 119 85 102 119 85 102 119 85 102 119 85 102 119 85 102 119 85 102 119 85 102 119 85 102 119 85 102 119 85 102 119 85 102 119 85 102 119 85 102 119 51 68 85 51 68 85 51 68 85 51 68 85 51 68 85 51 68 85 34 34 51 34 34 51 34 34 51 34 34 51 34 34 51 34 34 51 0 0 0 0 0 0 0 0 0 0 0 0 0 0 0 0 0 0 0 0 0 0 0 0
0 0 0 0 0 0 0 0 0 0 0 0 0 0 0 0 0 0 0 0 0 0 0 0 34 34 51 34 34 51 34 34 51 34 34 51 34 34 51 34 34 51 51 68 85 51 68 85 51 68 85 51 68 85 51 68 85 51 68 85 85 102 119 85 102 119 85 102 119 85 102 119 85 102 119 85 102 119 85 102 119 85 102 119 85 102 119 85 102 119 85 102 119 85 102 119 85 102 119 85 102 119 85 102 119 85 102 119 85 102 119 85 102 119 51 68 85 51 68 85 51 68 85 51 68 85 51 68 85 51 68 85 34 34 51 34 34 51 119 136 153 119 136 153 119 136 153 119 136 153 170 187 204 170 187 204 170 187 204 170 187 204 170 187 204 170 187 204 170 187 204 170 187 204 170 187 204 170 187 204 170 187 204 170 187 204 119 136 153 119 136 153 119 136 153 119 136 153 34 34 51 34 34 51 34 34 51 34 34 51 51 68 85 51 68 85 51 68 85 51 68 85 51 68 85 51 68 85 85 102 119 85 102 119 85 102 119 85 102 119 85 102 119 85 102 119 85 102 119 85 102 119 85 102 119 85 102 119 85 102 119 85 102 119 85 102 119 85 102 119 85 102 119 85 102 119 51 68 85 51 68 85 51 68 85 51 68 85 51 68 85 51 68 85 34 34 51 34 34 51 34 34 51 34 34 51 34 34 51 34 34 51 0 0 0 0 0 0 0 0 0 0 0 0 0 0 0 0 0 0 0 0 0 0 0 0
0 0 0 0 0 0 0 0 0 0 0 0 0 0 0 0 0 0 0 0 0 0 0 0 34 34 51 34 34 51 34 34 51 34 34 51 34 34 51 34 34 51 51 68 85 51 68 85 51 68 85 51 68 85 51 68 85 51 68 85 85 102 119 85 102 119 85 102 119 85 102 119 85 102 119 85 102 119 85 102 119 85 102 119 85 102 119 85 102 119 85 102 119 85 102 119 85 102 119 85 102 119 85 102 119 85 102 119 85 102 119 85 102 119 51 68 85 51 68 85 51 68 85 51 68 85 51 68 85 51 68 85 34 34 51 34 34 51 119 136 153 119 136 153 119 136 153 119 136 153 170 187 204 170 187 204 170 187 204 170 187 204 170 187 204 170 187 204 170 187 204 170 187 204 170 187 204 170 187 204 170 187 204 170 187 204 119 136 153 119 136 153 119 136 153 119 136 153 34 34 51 34 34 51 34 34 51 34 34 51 51 68 85 51 68 85 51 68 85 51 68 85 51 68 85 51 68 85 85 102 119 85 102 119 85 102 119 85 102 119 85 102 119 85 102 119 85 102 119 85 102 119 85 102 119 85 102 119 85 102 119 85 102 119 85 102 119 85 102 119 85 102 119 85 102 119 51 68 85 51 68 85 51 68 85 51 68 85 51 68 85 51 68 85 34 34 51 34 34 51 34 34 51 34 34 51 34 34 51 34 34 51 0 0 0 0 0 0 0 0 0 0 0 0 0 0 0 0 0 0 0 0 0 0 0 0
0 0 0 0 0 0 0 0 0 0 0 0 0 0 0 0 0 0 0 0 0 0 0 0 34 34 51 34 34 51 34 34 51 34 34 51 34 34 51 34 34 51 51 68 85 51 68 85 51 68 85 51 68 85 51 68 85 51 68 85 51 68 85 51 68 85 51 68 85 51 68 85 51 68 85 51 68 85 51 68 85 51 68 85 51 68 85 51 68 85 51 68 85 51 68 85 51 68 85 51 68 85 51 68 85 51 68 85 51 68 85 51 68 85 51 68 85 51 68 85 51 68 85 51 68 85 51 68 85 51 68 85 34 34 51 34 34 51 119 136 153 119 136 153 119 136 153 119 136 153 170 187 204 170 187 204 170 187 204 170 187 204 170 187 204 170 187 204 170 187 204 170 187 204 170 187 204 170 187 204 170 187 204 170 187 204 119 136 153 119 136 153 119 136 153 119 136 153 34 34 51 34 34 51 34 34 51 34 34 51 51 68 85 51 68 85 51 68 85 51 68 85 51 68 85 51 68 85 51 68 85 51 68 85 51 68 85 51 68 85 51 68 85 51 68 85 51 68 85 51 68 85 51 68 85 51 68 85 51 68 85 51 68 85 51 68 85 51 68 85 51 68 85 51 68 85 51 68 85 51 68 85 51 68 85 51 68 85 51 68 85 51 68 85 34 34 51 34 34 51 34 34 51 34 34 51 34 34 51 34 34 51 0 0 0 0 0 0 0 0 0 0 0 0 0 0 0 0 0 0 0 0 0 0 0 0
0 0 0 0 0 0 0 0 0 0 0 0 0 0 0 0 0 0 0 0 0 0 0 0 34 34 51 34 34 51 34 34 51 34 34 51 34 34 51 34 34 51 51 68 85 51 68 85 51 68 85 51 68 85 51 68 85 51 68 85 51 68 85 51 68 85 51 68 85 51 68 85 51 68 85 51 68 85 51 68 85 51 68 85 51 68 85 51 68 85 51 68 85 51 68 85 51 68 85 51 68 85 51 68 85 51 68 85 51 68 85 51 68 85 51 68 85 51 68 85 51 68 85 51 68 85 51 68 85 51 68 85 34 34 51 34 34 51 119 136 153 119 136 153 119 136 153 119 136 153 170 187 204 170 187 204 170 187 204 170 187 204 170 187 204 170 187 204 170 187 204 170 187 204 170 187 204 170 187 204 170 187 204 170 187 204 119 136 153 119 136 153 119 136 153 119 136 153 34 34 51 34 34 51 34 34 51 34 34 51 51 68 85 51 68 85 51 68 85 51 68 85 51 68 85 51 68 85 51 68 85 51 68 85 51 68 85 51 68 85 51 68 85 51 68 85 51 68 85 51 68 85 51 68 85 51 68 85 51 68 85 51 68 85 51 68 85 51 68 85 51 68 85 51 68 85 51 68 85 51 68 85 51 68 85 51 68 85 51 68 85 51 68 85 34 34 51 34 34 51 34 34 51 34 34 51 34 34 51 34 34 51 0 0 0 0 0 0 0 0 0 0 0 0 0 0 0 0 0 0 0 0 0 0 0 0
0 0 0 0 0 0 0 0 0 0 0 0 0 0 0 0 0 0 0 0 0 0 0 0 34 34 51 34 34 51 34 34 51 34 34 51 34 34 51 34 34 51 51 68 85 51 68 85 51 68 85 51 68 85 51 68 85 51 68 85 51 68 85 51 68 85 51 68 85 51 68 85 51 68 85 51 68 85 51 68 85 51 68 85 51 68 85 51 68 85 51 68 85 51 68 85 51 68 85 51 68 85 51 68 85 51 68 85 51 68 85 51 68 85 51 68 85 51 68 85 51 68 85 51 68 85 51 68 85 51 68 85 34 34 51 34 34 51 119 136 153 119 136 153 119 136 153 119 136 153 170 187 204 170 187 204 170 187 204 170 187 204 170 187 204 170 187 204 170 187 204 170 187 204 170 187 204 170 187 204 170 187 204 170 187 204 119 136 153 119 136 153 119 136 153 119 136 153 34 34 51 34 34 51 34 34 51 34 34 51 51 68 85 51 68 85 51 68 85 51 68 85 51 68 85 51 68 85 51 68 85 51 68 85 51 68 85 51 68 85 51 68 85 51 68 85 51 68 85 51 68 85 51 68 85 51 68 85 51 68 85 51 68 85 51 68 85 51 68 85 51 68 85 51 68 85 51 68 85 51 68 85 51 68 85 51 68 85 51 68 85 51 68 85 34 34 51 34 34 51 34 34 51 34 34 51 34 34 51 34 34 51 0 0 0 0 0 0 0 0 0 0 0 0 0 0 0 0 0 0 0 0 0 0 0 0
0 0 0 0 0 0 0 0 0 0 0 0 0 0 0 0 0 0 0 0 0 0 0 0 34 34 51 34 34 51 34 34 51 34 34 51 34 34 51 34 34 51 51 68 85 51 68 85 51 68 85 51 68 85 51 68 85 51 68 85 51 68 85 51 68 85 51 68 85 51 68 85 51 68 85 51 68 85 51 68 85 51 68 85 51 68 85 51 68 85 51 68 85 51 68 85 51 68 85 51 68 85 51 68 85 51 68 85 51 68 85 51 68 85 51 68 85 51 68 85 51 68 85 51 68 85 51 68 85 51 68 85 34 34 51 34 34 51 119 136 153 119 136 153 119 136 153 119 136 153 170 187 204 170 187 204 170 187 204 170 187 204 170 187 204 170 187 204 170 187 204 170 187 204 170 187 204 170 187 204 170 187 204 170 187 204 119 136 153 119 136 153 119 136 153 119 136 153 34 34 51 34 34 51 34 34 51 34 34 51 51 68 85 51 68 85 51 68 85 51 68 85 51 68 85 51 68 85 51 68 85 51 68 85 51 68 85 51 68 85 51 68 85 51 68 85 51 68 85 51 68 85 51 68 85 51 68 85 51 68 85 51 68 85 51 68 85 51 68 85 51 68 85 51 68 85 51 68 85 51 68 85 51 68 85 51 68 85 51 68 85 51 68 85 34 34 51 34 34 51 34 34 51 34 34 51 34 34 51 34 34 51 0 0 0 0 0 0 0 0 0 0 0 0 0 0 0 0 0 0 0 0 0 0 0 0
0 0 0 0 0 0 0 0 0 0 0 0 0 0 0 0 0 0 0 0 0 0 0 0 0 0 0 0 0 0 0 0 0 0 0 0 0 0 0 0 0 0 51 68 85 51 68 85 51 68 85 51 68 85 51 68 85 51 68 85 51 68 85 51 68 85 51 68 85 51 68 85 51 68 85 51 68 85 51 68 85 51 68 85 51 68 85 51 68 85 51 68 85 51 68 85 51 68 85 51 68 85 51 68 85 51 68 85 51 68 85 51 68 85 51 68 85 51 68 85 51 68 85 51 68 85 51 68 85 51 68 85 0 0 0 0 0 0 119 136 153 119 136 153 119 136 153 119 136 153 119 136 153 119 136 153 119 136 153 119 136 153 119 136 153 119 136 153 119 136 153 119 136 153 119 136 153 119 136 153 119 136 153 119 136 153 119 136 153 119 136 153 119 136 153 119 136 153 0 0 0 0 0 0 0 0 0 0 0 0 51 68 85 51 68 85 51 68 85 51 68 85 51 68 85 51 68 85 51 68 85 51 68 85 51 68 85 51 68 85 51 68 85 51 68 85 51 68 85 51 68 85 51 68 85 51 68 85 51 68 85 51 68 85 51 68 85 51 68 85 51 68 85 51 68 85 51 68 85 51 68 85 51 68 85 51 68 85 51 68 85 51 68 85 0 0 0 0 0 0 0 0 0 0 0 0 0 0 0 0 0 0 0 0 0 0 0 0 0 0 0 0 0 0 0 0 0 0 0 0 0 0 0 0 0 0
0 0 0 0 0 0 0 0 0 0 0 0 0 0 0 0 0 0 0 0 0 0 0 0 0 0 0 0 0 0 0 0 0 0 0 0 0 0 0 0 0 0 51 68 85 51 68 85 51 68 85 51 68 85 51 68 85 51 68 85 51 68 85 51 68 85 51 68 85 51 68 85 51 68 85 51 68 85 51 68 85 51 68 85 51 68 85 51 68 85 51 68 85 51 68 85 51 68 85 51 68 85 51 68 85 51 68 85 51 68 85 51 68 85 51 68 85 51 68 85 51 68 85 51 68 85 51 68 85 51 68 85 0 0 0 0 0 0 119 136 153 119 136 153 119 136 153 119 136 153 119 136 153 119 136 153 119 136 153 119 136 153 119 136 153 119 136 153 119 136 153 119 136 153 119 136 153 119 136 153 119 136 153 119 136 153 119 136 153 119 136 153 119 136 153 119 136 153 0 0 0 0 0 0 0 0 0 0 0 0 51 68 85 51 68 85 51 68 85 51 68 85 51 68 85 51 68 85 51 68 85 51 68 85 51 68 85 51 68 85 51 68 85 51 68 85 51 68 85 51 68 85 51 68 85 51 68 85 51 68 85 51 68 85 51 68 85 51 68 85 51 68 85 51 68 85 51 68 85 51 68 85 51 68 85 51 68 85 51 68 85 51 68 85 0 0 0 0 0 0 0 0 0 0 0 0 0 0 0 0 0 0 0 0 0 0 0 0 0 0 0 0 0 0 0 0 0 0 0 0 0 0 0 0 0 0
0 0 0 0 0 0 0 0 0 0 0 0 0 0 0 0 0 0 0 0 0 0 0 0 0 0 0 0 0 0 0 0 0 0 0 0 0 0 0 0 0 0 51 68 85 51 68 85 51 68 85 51 68 85 51 68 85 51 68 85 51 68 85 51 68 85 51 68 85 51 68 85 51 68 85 51 68 85 51 68 85 51 68 85 51 68 85 51 68 85 51 68 85 51 68 85 51 68 85 51 68 85 51 68 85 51 68 85 51 68 85 51 68 85 51 68 85 51 68 85 51 68 85 51 68 85 51 68 85 51 68 85 0 0 0 0 0 0 119 136 153 119 136 153 119 136 153 119 136 153 119 136 153 119 136 153 119 136 153 119 136 153 119 136 153 119 136 153 119 136 153 119 136 153 119 136 153 119 136 153 119 136 153 119 136 153 119 136 153 119 136 153 119 136 153 119 136 153 0 0 0 0 0 0 0 0 0 0 0 0 51 68 85 51 68 85 51 68 85 51 68 85 51 68 85 51 68 85 51 68 85 51 68 85 51 68 85 51 68 85 51 68 85 51 68 85 51 68 85 51 68 85 51 68 85 51 68 85 51 68 85 51 68 85 51 68 85 51 68 85 51 68 85 51 68 85 51 68 85 51 68 85 51 68 85 51 68 85 51 68 85 51 68 85 0 0 0 0 0 0 0 0 0 0 0 0 0 0 0 0 0 0 0 0 0 0 0 0 0 0 0 0 0 0 0 0 0 0 0 0 0 0 0 0 0 0
0 0 0 0 0 0 0 0 0 0 0 0 0 0 0 0 0 0 0 0 0 0 0 0 0 0 0 0 0 0 0 0 0 0 0 0 0 0 0 0 0 0 51 68 85 51 68 85 51 68 85 51 68 85 51 68 85 51 68 85 51 68 85 51 68 85 51 68 85 51 68 85 51 68 85 51 68 85 51 68 85 51 68 85 51 68 85 51 68 85 51 68 85 51 68 85 51 68 85 51 68 85 51 68 85 51 68 85 51 68 85 51 68 85 51 68 85 51 68 85 51 68 85 51 68 85 51 68 85 51 68 85 0 0 0 0 0 0 119 136 153 119 136 153 119 136 153 119 136 153 119 136 153 119 136 153 119 136 153 119 136 153 119 136 153 119 136 153 119 136 153 119 136 153 119 136 153 119 136 153 119 136 153 119 136 153 119 136 153 119 136 153 119 136 153 119 136 153 0 0 0 0 0 0 0 0 0 0 0 0 51 68 85 51 68 85 51 68 85 51 68 85 51 68 85 51 68 85 51 68 85 51 68 85 51 68 85 51 68 85 51 68 85 51 68 85 51 68 85 51 68 85 51 68 85 51 68 85 51 68 85 51 68 85 51 68 85 51 68 85 51 68 85 51 68 85 51 68 85 51 68 85 51 68 85 51 68 85 51 68 85 51 68 85 0 0 0 0 0 0 0 0 0 0 0 0 0 0 0 0 0 0 0 0 0 0 0 0 0 0 0 0 0 0 0 0 0 0 0 0 0 0 0 0 0 0
0 0 0 0 0 0 0 0 0 0 0 0 0 0 0 0 0 0 0 0 0 0 0 0 0 0 0 0 0 0 0 0 0 0 0 0 0 0 0 0 0 0 0 0 0 0 0 0 0 0 0 0 0 0 0 0 0 0 0 0 0 0 0 0 0 0 0 0 0 0 0 0 0 0 0 0 0 0 0 0 0 0 0 0 0 0 0 0 0 0 0 0 0 0 0 0 0 0 0 0 0 0 0 0 0 0 0 0 0 0 0 0 0 0 0 0 0 0 0 0 0 0 0 0 0 0 0 0 0 0 0 0 0 0 0 0 0 0 0 0 0 0 0 0 0 0 0 0 0 0 0 0 0 0 0 0 0 0 0 0 0 0 0 0 0 0 0 0 0 0 0 0 0 0 0 0 0 0 0 0 0 0 0 0 0 0 0 0 0 0 0 0 0 0 0 0 0 0 0 0 0 0 0 0 0 0 0 0 0 0 0 0 0 0 0 0 0 0 0 0 0 0 0 0 0 0 0 0 0 0 0 0 0 0 0 0 0 0 0 0 0 0 0 0 0 0 0 0 0 0 0 0 0 0 0 0 0 0 0 0 0 0 0 0 0 0 0 0 0 0 0 0 0 0 0 0 0 0 0 0 0 0 0 0 0 0 0 0 0 0 0 0 0 0 0 0 0 0 0 0 0 0 0 0 0 0 0 0 0 0 0 0 0 0 0 0 0 0 0 0 0 0 0 0 0 0 0 0 0 0 0 0 0 0 0 0
0 0 0 0 0 0 0 0 0 0 0 0 0 0 0 0 0 0 0 0 0 0 0 0 0 0 0 0 0 0 0 0 0 0 0 0 0 0 0 0 0 0 0 0 0 0 0 0 0 0 0 0 0 0 0 0 0 0 0 0 0 0 0 0 0 0 0 0 0 0 0 0 0 0 0 0 0 0 0 0 0 0 0 0 0 0 0 0 0 0 0 0 0 0 0 0 0 0 0 0 0 0 0 0 0 0 0 0 0 0 0 0 0 0 0 0 0 0 0 0 0 0 0 0 0 0 0 0 0 0 0 0 0 0 0 0 0 0 0 0 0 0 0 0 0 0 0 0 0 0 0 0 0 0 0 0 0 0 0 0 0 0 0 0 0 0 0 0 0 0 0 0 0 0 0 0 0 0 0 0 0 0 0 0 0 0 0 0 0 0 0 0 0 0 0 0 0 0 0 0 0 0 0 0 0 0 0 0 0 0 0 0 0 0 0 0 0 0 0 0 0 0 0 0 0 0 0 0 0 0 0 0 0 0 0 0 0 0 0 0 0 0 0 0 0 0 0 0 0 0 0 0 0 0 0 0 0 0 0 0 0 0 0 0 0 0 0 0 0 0 0 0 0 0 0 0 0 0 0 0 0 0 0 0 0 0 0 0 0 0 0 0 0 0 0 0 0 0 0 0 0 0 0 0 0 0 0 0 0 0 0 0 0 0 0 0 0 0 0 0 0 0 0 0 0 0 0 0 0 0 0 0 0 0 0 0
0 0 0 0 0 0 0 0 0 0 0 0 0 0 0 0 0 0 0 0 0 0 0 0 0 0 0 0 0 0 0 0 0 0 0 0 0 0 0 0 0 0 0 0 0 0 0 0 0 0 0 0 0 0 0 0 0 0 0 0 0 0 0 0 0 0 0 0 0 0 0 0 0 0 0 0 0 0 0 0 0 0 0 0 0 0 0 0 0 0 0 0 0 0 0 0 0 0 0 0 0 0 0 0 0 0 0 0 0 0 0 0 0 0 0 0 0 0 0 0 0 0 0 0 0 0 0 0 0 0 0 0 0 0 0 0 0 0 0 0 0 0 0 0 0 0 0 0 0 0 0 0 0 0 0 0 0 0 0 0 0 0 0 0 0 0 0 0 0 0 0 0 0 0 0 0 0 0 0 0 0 0 0 0 0 0 0 0 0 0 0 0 0 0 0 0 0 0 0 0 0 0 0 0 0 0 0 0 0 0 0 0 0 0 0 0 0 0 0 0 0 0 0 0 0 0 0 0 0 0 0 0 0 0 0 0 0 0 0 0 0 0 0 0 0 0 0 0 0 0 0 0 0 0 0 0 0 0 0 0 0 0 0 0 0 0 0 0 0 0 0 0 0 0 0 0 0 0 0 0 0 0 0 0 0 0 0 0 0 0 0 0 0 0 0 0 0 0 0 0 0 0 0 0 0 0 0 0 0 0 0 0 0 0 0 0 0 0 0 0 0 0 0 0 0 0 0 0 0 0 0 0 0 0 0 0
0 0 0 0 0 0 0 0 0 0 0 0 0 0 0 0 0 0 0 0 0 0 0 0 0 0 0 0 0 0 0 0 0 0 0 0 0 0 0 0 0 0 0 0 0 0 0 0 0 0 0 0 0 0 0 0 0 0 0 0 0 0 0 0 0 0 0 0 0 0 0 0 0 0 0 0 0 0 0 0 0 0 0 0 0 0 0 0 0 0 0 0 0 0 0 0 0 0 0 0 0 0 0 0 0 0 0 0 0 0 0 0 0 0 0 0 0 0 0 0 0 0 0 0 0 0 0 0 0 0 0 0 0 0 0 0 0 0 0 0 0 0 0 0 0 0 0 0 0 0 0 0 0 0 0 0 0 0 0 0 0 0 0 0 0 0 0 0 0 0 0 0 0 0 0 0 0 0 0 0 0 0 0 0 0 0 0 0 0 0 0 0 0 0 0 0 0 0 0 0 0 0 0 0 0 0 0 0 0 0 0 0 0 0 0 0 0 0 0 0 0 0 0 0 0 0 0 0 0 0 0 0 0 0 0 0 0 0 0 0 0 0 0 0 0 0 0 0 0 0 0 0 0 0 0 0 0 0 0 0 0 0 0 0 0 0 0 0 0 0 0 0 0 0 0 0 0 0 0 0 0 0 0 0 0 0 0 0 0 0 0 0 0 0 0 0 0 0 0 0 0 0 0 0 0 0 0 0 0 0 0 0 0 0 0 0 0 0 0 0 0 0 0 0 0 0 0 0 0 0 0 0 0 0 0 0
