P3
192 40
255
17 17 34 17 17 34 17 17 34 17 17 34 17 17 34 17 17 34 17 17 34 17 17 34 17 17 34 17 17 34 17 17 34 17 17 34 17 17 34 17 17 34 17 17 34 17 17 34 17 17 34 17 17 34 17 17 34 17 17 34 17 17 34 17 17 34 17 17 34 17 17 34 17 17 34 17 17 34 17 17 34 17 17 34 17 17 34 17 17 34 17 17 34 17 17 34 17 17 34 17 17 34 17 17 34 17 17 34 17 17 34 17 17 34 17 17 34 17 17 34 17 17 34 17 17 34 17 17 34 17 17 34 17 17 34 17 17 34 17 17 34 17 17 34 17 17 34 17 17 34 17 17 34 17 17 34 17 17 34 17 17 34 17 17 34 17 17 34 17 17 34 17 17 34 17 17 34 17 17 34 17 17 34 17 17 34 17 17 34 17 17 34 17 17 34 17 17 34 17 17 34 17 17 34 17 17 34 17 17 34 17 17 34 17 17 34 17 17 34 17 17 34 17 17 34 17 17 34 17 17 34 17 17 34 17 17 34 17 17 34 17 17 34 17 17 34 17 17 34 17 17 34 17 17 34 17 17 34 17 17 34 17 17 34 17 17 34 17 17 34 17 17 34 17 17 34 17 17 34 17 17 34 17 17 34 17 17 34 17 17 34 17 17 34 17 17 34 17 17 34 17 17 34 17 17 34 17 17 34 17 17 34 17 17 34 17 17 34 17 17 34 17 17 34 17 17 34 17 17 34 17 17 34 17 17 34 17 17 34 17 17 34 17 17 34 17 17 34 17 17 34 17 17 34 17 17 34 17 17 34 17 17 34 17 17 34 17 17 34 17 17 34 17 17 34 17 17 34 17 17 34 17 17 34 17 17 34 17 17 34 17 17 34 17 17 34 17 17 34 17 17 34 17 17 34 17 17 34 17 17 34 17 17 34 17 17 34 17 17 34 17 17 34 17 17 34 17 17 34 17 17 34 17 17 34 17 17 34 17 17 34 17 17 34 17 17 34 17 17 34 17 17 34 17 17 34 17 17 34 17 17 34 17 17 34 17 17 34 17 17 34 17 17 34 17 17 34 17 17 34 17 17 34 17 17 34 17 17 34 17 17 34 17 17 34 17 17 34 17 17 34 17 17 34 17 17 34 17 17 34 17 17 34 17 17 34 17 17 34 17 17 34 17 17 34 17 17 34 17 17 34 17 17 34 17 17 34 17 17 34 17 17 34 17 17 34 17 17 34 17 17 34 17 17 34 17 17 34 17 17 34 17 17 34 17 17 34 17 17 34 17 17 34 17 17 34
17 17 34 17 17 34 17 17 34 17 17 34 17 17 34 17 17 34 17 17 34 17 17 34 17 17 34 17 17 34 17 17 34 17 17 34 17 17 34 17 17 34 17 17 34 17 17 34 17 17 34 17 17 34 17 17 34 17 17 34 17 17 34 17 17 34 17 17 34 17 17 34 17 17 34 17 17 34 17 17 34 17 17 34 17 17 34 17 17 34 17 17 34 17 17 34 17 17 34 17 17 34 17 17 34 17 17 34 17 17 34 17 17 34 17 17 34 17 17 34 17 17 34 17 17 34 17 17 34 17 17 34 17 17 34 17 17 34 17 17 34 17 17 34 17 17 34 17 17 34 17 17 34 17 17 34 17 17 34 17 17 34 17 17 34 17 17 34 17 17 34 17 17 34 17 17 34 17 17 34 17 17 34 17 17 34 17 17 34 17 17 34 17 17 34 17 17 34 17 17 34 17 17 34 17 17 34 17 17 34 17 17 34 17 17 34 17 17 34 17 17 34 17 17 34 17 17 34 17 17 34 17 17 34 17 17 34 17 17 34 17 17 34 17 17 34 17 17 34 17 17 34 17 17 34 17 17 34 17 17 34 17 17 34 17 17 34 17 17 34 17 17 34 17 17 34 17 17 34 17 17 34 17 17 34 17 17 34 17 17 34 17 17 34 17 17 34 17 17 34 17 17 34 17 17 34 17 17 34 17 17 34 17 17 34 17 17 34 17 17 34 17 17 34 17 17 34 17 17 34 17 17 34 17 17 34 17 17 34 17 17 34 17 17 34 17 17 34 17 17 34 17 17 34 17 17 34 17 17 34 17 17 34 17 17 34 17 17 34 17 17 34 17 17 34 17 17 34 17 17 34 17 17 34 17 17 34 17 17 34 17 17 34 17 17 34 17 17 34 17 17 34 17 17 34 17 17 34 17 17 34 17 17 34 17 17 34 17 17 34 17 17 34 17 17 34 17 17 34 17 17 34 17 17 34 17 17 34 17 17 34 17 17 34 17 17 34 17 17 34 17 17 34 17 17 34 17 17 34 17 17 34 17 17 34 17 17 34 17 17 34 17 17 34 17 17 34 17 17 34 17 17 34 17 17 34 17 17 34 17 17 34 17 17 34 17 17 34 17 17 34 17 17 34 17 17 34 17 17 34 17 17 34 17 17 34 17 17 34 17 17 34 17 17 34 17 17 34 17 17 34 17 17 34 17 17 34 17 17 34 17 17 34 17 17 34 17 17 34 17 17 34 17 17 34 17 17 34 17 17 34 17 17 34 17 17 34 17 17 34 17 17 34 17 17 34
17 17 34 17 17 34 17 17 34 17 17 34 17 17 34 17 17 34 17 17 34 17 17 34 17 17 34 17 17 34 17 17 34 17 17 34 17 17 34 17 17 34 17 17 34 17 17 34 17 17 34 17 17 34 17 17 34 17 17 34 17 17 34 17 17 34 17 17 34 17 17 34 17 17 34 17 17 34 17 17 34 17 17 34 17 17 34 17 17 34 17 17 34 17 17 34 17 17 34 17 17 34 17 17 34 17 17 34 17 17 34 17 17 34 17 17 34 17 17 34 17 17 34 17 17 34 17 17 34 17 17 34 17 17 34 17 17 34 17 17 34 17 17 34 17 17 34 17 17 34 17 17 34 17 17 34 17 17 34 17 17 34 17 17 34 17 17 34 17 17 34 17 17 34 17 17 34 17 17 34 17 17 34 17 17 34 17 17 34 17 17 34 17 17 34 17 17 34 17 17 34 17 17 34 17 17 34 17 17 34 17 17 34 17 17 34 17 17 34 17 17 34 17 17 34 17 17 34 17 17 34 17 17 34 17 17 34 17 17 34 17 17 34 17 17 34 17 17 34 17 17 34 17 17 34 17 17 34 17 17 34 17 17 34 17 17 34 17 17 34 17 17 34 17 17 34 17 17 34 17 17 34 17 17 34 17 17 34 17 17 34 17 17 34 17 17 34 17 17 34 17 17 34 17 17 34 17 17 34 17 17 34 17 17 34 17 17 34 17 17 34 17 17 34 17 17 34 17 17 34 17 17 34 17 17 34 17 17 34 17 17 34 17 17 34 17 17 34 17 17 34 17 17 34 17 17 34 17 17 34 17 17 34 17 17 34 17 17 34 17 17 34 17 17 34 17 17 34 17 17 34 17 17 34 17 17 34 17 17 34 17 17 34 17 17 34 17 17 34 17 17 34 17 17 34 17 17 34 17 17 34 17 17 34 17 17 34 17 17 34 17 17 34 17 17 34 17 17 34 17 17 34 17 17 34 17 17 34 17 17 34 17 17 34 17 17 34 17 17 34 17 17 34 17 17 34 17 17 34 17 17 34 17 17 34 17 17 34 17 17 34 17 17 34 17 17 34 17 17 34 17 17 34 17 17 34 17 17 34 17 17 34 17 17 34 17 17 34 17 17 34 17 17 34 17 17 34 17 17 34 17 17 34 17 17 34 17 17 34 17 17 34 17 17 34 17 17 34 17 17 34 17 17 34 17 17 34 17 17 34 17 17 34 17 17 34 17 17 34 17 17 34 17 17 34 17 17 34 17 17 34 17 17 34 17 17 34 17 17 34 17 17 34 17 17 34
17 17 34 17 17 34 17 17 34 17 17 34 17 17 34 17 17 34 17 17 34 17 17 34 17 17 34 17 17 34 17 17 34 17 17 34 17 17 34 17 17 34 17 17 34 17 17 34 17 17 34 17 17 34 17 17 34 17 17 34 17 17 34 17 17 34 17 17 34 17 17 34 17 17 34 17 17 34 17 17 34 17 17 34 17 17 34 17 17 34 17 17 34 17 17 34 17 17 34 17 17 34 17 17 34 17 17 34 17 17 34 17 17 34 17 17 34 17 17 34 17 17 34 17 17 34 17 17 34 17 17 34 17 17 34 17 17 34 17 17 34 17 17 34 17 17 34 17 17 34 17 17 34 17 17 34 17 17 34 17 17 34 17 17 34 17 17 34 17 17 34 17 17 34 17 17 34 17 17 34 17 17 34 17 17 34 17 17 34 17 17 34 17 17 34 17 17 34 17 17 34 17 17 34 17 17 34 17 17 34 17 17 34 17 17 34 0 170 221 0 170 221 0 170 221 0 170 221 17 17 34 17 17 34 17 17 34 17 17 34 17 17 34 17 17 34 17 17 34 17 17 34 17 17 34 17 17 34 17 17 34 17 17 34 17 17 34 17 17 34 17 17 34 17 17 34 17 17 34 17 17 34 17 17 34 17 17 34 17 17 34 17 17 34 17 17 34 17 17 34 17 17 34 17 17 34 17 17 34 17 17 34 17 17 34 17 17 34 17 17 34 17 17 34 17 17 34 17 17 34 17 17 34 17 17 34 17 17 34 17 17 34 17 17 34 17 17 34 17 17 34 17 17 34 17 17 34 17 17 34 17 17 34 17 17 34 17 17 34 17 17 34 17 17 34 17 17 34 17 17 34 17 17 34 17 17 34 17 17 34 17 17 34 17 17 34 17 17 34 17 17 34 17 17 34 17 17 34 17 17 34 17 17 34 17 17 34 17 17 34 17 17 34 17 17 34 17 17 34 17 17 34 17 17 34 17 17 34 17 17 34 17 17 34 17 17 34 17 17 34 17 17 34 17 17 34 17 17 34 17 17 34 17 17 34 17 17 34 17 17 34 17 17 34 17 17 34 17 17 34 17 17 34 17 17 34 17 17 34 17 17 34 17 17 34 17 17 34 17 17 34 17 17 34 17 17 34 17 17 34 17 17 34 17 17 34 17 17 34 17 17 34 17 17 34 17 17 34 17 17 34 17 17 34 17 17 34 17 17 34 17 17 34 17 17 34 17 17 34 17 17 34 17 17 34 17 17 34 17 17 34 17 17 34 17 17 34 17 17 34 17 17 34 17 17 34
17 17 34 17 17 34 17 17 34 17 17 34 17 17 34 17 17 34 17 17 34 17 17 34 17 17 34 17 17 34 17 17 34 17 17 34 17 17 34 17 17 34 17 17 34 17 17 34 17 17 34 17 17 34 17 17 34 17 17 34 17 17 34 17 17 34 17 17 34 17 17 34 17 17 34 17 17 34 17 17 34 17 17 34 17 17 34 17 17 34 17 17 34 17 17 34 17 17 34 17 17 34 17 17 34 17 17 34 17 17 34 17 17 34 17 17 34 17 17 34 17 17 34 17 17 34 17 17 34 17 17 34 17 17 34 17 17 34 17 17 34 17 17 34 17 17 34 17 17 34 17 17 34 17 17 34 17 17 34 17 17 34 17 17 34 17 17 34 17 17 34 17 17 34 17 17 34 17 17 34 17 17 34 17 17 34 17 17 34 17 17 34 17 17 34 17 17 34 17 17 34 17 17 34 17 17 34 17 17 34 17 17 34 17 17 34 0 170 221 0 170 221 0 170 221 0 170 221 17 17 34 17 17 34 17 17 34 17 17 34 17 17 34 17 17 34 17 17 34 17 17 34 17 17 34 17 17 34 17 17 34 17 17 34 17 17 34 17 17 34 17 17 34 17 17 34 17 17 34 17 17 34 17 17 34 17 17 34 17 17 34 17 17 34 17 17 34 17 17 34 17 17 34 17 17 34 17 17 34 17 17 34 17 17 34 17 17 34 17 17 34 17 17 34 17 17 34 17 17 34 17 17 34 17 17 34 17 17 34 17 17 34 17 17 34 17 17 34 17 17 34 17 17 34 17 17 34 17 17 34 17 17 34 17 17 34 17 17 34 17 17 34 17 17 34 17 17 34 17 17 34 17 17 34 17 17 34 17 17 34 17 17 34 17 17 34 17 17 34 17 17 34 17 17 34 17 17 34 17 17 34 17 17 34 17 17 34 17 17 34 17 17 34 17 17 34 17 17 34 17 17 34 17 17 34 17 17 34 17 17 34 17 17 34 17 17 34 17 17 34 17 17 34 17 17 34 17 17 34 17 17 34 17 17 34 17 17 34 17 17 34 17 17 34 17 17 34 17 17 34 17 17 34 17 17 34 17 17 34 17 17 34 17 17 34 17 17 34 17 17 34 17 17 34 17 17 34 17 17 34 17 17 34 17 17 34 17 17 34 17 17 34 17 17 34 17 17 34 17 17 34 17 17 34 17 17 34 17 17 34 17 17 34 17 17 34 17 17 34 17 17 34 17 17 34 17 17 34 17 17 34 17 17 34 17 17 34 17 17 34 17 17 34 17 17 34
17 17 34 17 17 34 17 17 34 17 17 34 17 17 34 17 17 34 17 17 34 17 17 34 17 17 34 17 17 34 17 17 34 17 17 34 17 17 34 17 17 34 17 17 34 17 17 34 17 17 34 17 17 34 17 17 34 17 17 34 17 17 34 17 17 34 17 17 34 17 17 34 17 17 34 17 17 34 17 17 34 17 17 34 17 17 34 17 17 34 17 17 34 17 17 34 17 17 34 17 17 34 17 17 34 17 17 34 17 17 34 17 17 34 17 17 34 17 17 34 17 17 34 17 17 34 17 17 34 17 17 34 17 17 34 17 17 34 17 17 34 17 17 34 17 17 34 17 17 34 17 17 34 17 17 34 17 17 34 17 17 34 17 17 34 17 17 34 17 17 34 17 17 34 17 17 34 17 17 34 17 17 34 17 17 34 17 17 34 17 17 34 17 17 34 17 17 34 17 17 34 17 17 34 17 17 34 17 17 34 17 17 34 17 17 34 0 170 221 0 170 221 0 170 221 0 170 221 17 17 34 17 17 34 17 17 34 17 17 34 17 17 34 17 17 34 17 17 34 17 17 34 17 17 34 17 17 34 17 17 34 17 17 34 17 17 34 17 17 34 17 17 34 17 17 34 17 17 34 17 17 34 17 17 34 17 17 34 17 17 34 17 17 34 17 17 34 17 17 34 17 17 34 17 17 34 17 17 34 17 17 34 17 17 34 17 17 34 17 17 34 17 17 34 17 17 34 17 17 34 17 17 34 17 17 34 17 17 34 17 17 34 17 17 34 17 17 34 17 17 34 17 17 34 17 17 34 17 17 34 17 17 34 17 17 34 17 17 34 17 17 34 17 17 34 17 17 34 17 17 34 17 17 34 17 17 34 17 17 34 17 17 34 17 17 34 17 17 34 17 17 34 17 17 34 17 17 34 17 17 34 17 17 34 17 17 34 17 17 34 17 17 34 17 17 34 17 17 34 17 17 34 17 17 34 17 17 34 17 17 34 17 17 34 17 17 34 17 17 34 17 17 34 17 17 34 17 17 34 17 17 34 17 17 34 17 17 34 17 17 34 17 17 34 17 17 34 17 17 34 17 17 34 17 17 34 17 17 34 17 17 34 17 17 34 17 17 34 17 17 34 17 17 34 17 17 34 17 17 34 17 17 34 17 17 34 17 17 34 17 17 34 17 17 34 17 17 34 17 17 34 17 17 34 17 17 34 17 17 34 17 17 34 17 17 34 17 17 34 17 17 34 17 17 34 17 17 34 17 17 34 17 17 34 17 17 34 17 17 34 17 17 34 17 17 34
17 17 34 17 17 34 17 17 34 17 17 34 17 17 34 17 17 34 17 17 34 17 17 34 17 17 34 17 17 34 17 17 34 17 17 34 17 17 34 17 17 34 17 17 34 17 17 34 17 17 34 17 17 34 17 17 34 17 17 34 17 17 34 17 17 34 17 17 34 17 17 34 17 17 34 17 17 34 17 17 34 17 17 34 17 17 34 17 17 34 17 17 34 17 17 34 17 17 34 17 17 34 17 17 34 17 17 34 17 17 34 17 17 34 17 17 34 17 17 34 17 17 34 17 17 34 17 17 34 17 17 34 17 17 34 17 17 34 17 17 34 17 17 34 17 17 34 17 17 34 17 17 34 17 17 34 17 17 34 17 17 34 17 17 34 17 17 34 17 17 34 17 17 34 17 17 34 17 17 34 17 17 34 17 17 34 17 17 34 17 17 34 17 17 34 17 17 34 17 17 34 17 17 34 17 17 34 17 17 34 17 17 34 17 17 34 0 170 221 0 170 221 0 170 221 0 170 221 17 17 34 17 17 34 17 17 34 17 17 34 17 17 34 17 17 34 17 17 34 17 17 34 17 17 34 17 17 34 17 17 34 17 17 34 17 17 34 17 17 34 17 17 34 17 17 34 17 17 34 17 17 34 17 17 34 17 17 34 17 17 34 17 17 34 17 17 34 17 17 34 17 17 34 17 17 34 17 17 34 17 17 34 17 17 34 17 17 34 17 17 34 17 17 34 17 17 34 17 17 34 17 17 34 17 17 34 17 17 34 17 17 34 17 17 34 17 17 34 17 17 34 17 17 34 17 17 34 17 17 34 17 17 34 17 17 34 17 17 34 17 17 34 17 17 34 17 17 34 17 17 34 17 17 34 17 17 34 17 17 34 17 17 34 17 17 34 17 17 34 17 17 34 17 17 34 17 17 34 17 17 34 17 17 34 17 17 34 17 17 34 17 17 34 17 17 34 17 17 34 17 17 34 17 17 34 17 17 34 17 17 34 17 17 34 17 17 34 17 17 34 17 17 34 17 17 34 17 17 34 17 17 34 17 17 34 17 17 34 17 17 34 17 17 34 17 17 34 17 17 34 17 17 34 17 17 34 17 17 34 17 17 34 17 17 34 17 17 34 17 17 34 17 17 34 17 17 34 17 17 34 17 17 34 17 17 34 17 17 34 17 17 34 17 17 34 17 17 34 17 17 34 17 17 34 17 17 34 17 17 34 17 17 34 17 17 34 17 17 34 17 17 34 17 17 34 17 17 34 17 17 34 17 17 34 17 17 34 17 17 34 17 17 34 17 17 34
17 17 34 17 17 34 17 17 34 17 17 34 17 17 34 17 17 34 17 17 34 17 17 34 17 17 34 17 17 34 17 17 34 17 17 34 221 238 255 221 238 255 17 17 34 17 17 34 17 17 34 17 17 34 17 17 34 17 17 34 221 238 255 221 238 255 17 17 34 17 17 34 17 17 34 17 17 34 17 17 34 17 17 34 221 238 255 221 238 255 221 238 255 221 238 255 221 238 255 221 238 255 17 17 34 17 17 34 17 17 34 17 17 34 17 17 34 17 17 34 221 238 255 221 238 255 221 238 255 221 238 255 221 238 255 221 238 255 221 238 255 221 238 255 221 238 255 221 238 255 17 17 34 17 17 34 17 17 34 17 17 34 221 238 255 221 238 255 221 238 255 221 238 255 221 238 255 221 238 255 221 238 255 221 238 255 17 17 34 17 17 34 17 17 34 17 17 34 17 17 34 17 17 34 17 17 34 17 17 34 17 17 34 17 17 34 0 170 221 0 170 221 0 170 221 0 170 221 17 17 34 17 17 34 17 17 34 17 17 34 17 17 34 17 17 34 17 17 34 17 17 34 17 17 34 17 17 34 17 17 34 17 17 34 17 17 34 17 17 34 170 187 204 170 187 204 170 187 204 170 187 204 170 187 204 170 187 204 170 187 204 170 187 204 17 17 34 17 17 34 17 17 34 17 17 34 170 187 204 170 187 204 170 187 204 170 187 204 170 187 204 170 187 204 170 187 204 170 187 204 170 187 204 170 187 204 17 17 34 17 17 34 17 17 34 17 17 34 170 187 204 170 187 204 170 187 204 170 187 204 170 187 204 170 187 204 170 187 204 170 187 204 17 17 34 17 17 34 17 17 34 17 17 34 17 17 34 17 17 34 170 187 204 170 187 204 170 187 204 170 187 204 170 187 204 170 187 204 170 187 204 170 187 204 170 187 204 170 187 204 17 17 34 17 17 34 17 17 34 17 17 34 170 187 204 170 187 204 17 17 34 17 17 34 17 17 34 17 17 34 17 17 34 17 17 34 170 187 204 170 187 204 17 17 34 17 17 34 17 17 34 17 17 34 170 187 204 170 187 204 170 187 204 170 187 204 170 187 204 170 187 204 170 187 204 170 187 204 170 187 204 170 187 204 17 17 34 17 17 34 17 17 34 17 17 34 17 17 34 17 17 34 17 17 34 17 17 34 17 17 34 17 17 34 17 17 34 17 17 34 17 17 34 17 17 34 17 17 34 17 17 34 17 17 34 17 17 34 17 17 34 17 17 34 17 17 34 17 17 34 17 17 34 17 17 34
17 17 34 17 17 34 17 17 34 17 17 34 17 17 34 17 17 34 17 17 34 17 17 34 17 17 34 17 17 34 17 17 34 17 17 34 221 238 255 221 238 255 17 17 34 17 17 34 17 17 34 17 17 34 17 17 34 17 17 34 221 238 255 221 238 255 17 17 34 17 17 34 17 17 34 17 17 34 17 17 34 17 17 34 221 238 255 221 238 255 221 238 255 221 238 255 221 238 255 221 238 255 17 17 34 17 17 34 17 17 34 17 17 34 17 17 34 17 17 34 221 238 255 221 238 255 221 238 255 221 238 255 221 238 255 221 238 255 221 238 255 221 238 255 221 238 255 221 238 255 17 17 34 17 17 34 17 17 34 17 17 34 221 238 255 221 238 255 221 238 255 221 238 255 221 238 255 221 238 255 221 238 255 221 238 255 17 17 34 17 17 34 17 17 34 17 17 34 17 17 34 17 17 34 17 17 34 17 17 34 17 17 34 17 17 34 0 170 221 0 170 221 0 170 221 0 170 221 17 17 34 17 17 34 17 17 34 17 17 34 17 17 34 17 17 34 17 17 34 17 17 34 17 17 34 17 17 34 17 17 34 17 17 34 17 17 34 17 17 34 170 187 204 170 187 204 170 187 204 170 187 204 170 187 204 170 187 204 170 187 204 170 187 204 17 17 34 17 17 34 17 17 34 17 17 34 170 187 204 170 187 204 170 187 204 170 187 204 170 187 204 170 187 204 170 187 204 170 187 204 170 187 204 170 187 204 17 17 34 17 17 34 17 17 34 17 17 34 170 187 204 170 187 204 170 187 204 170 187 204 170 187 204 170 187 204 170 187 204 170 187 204 17 17 34 17 17 34 17 17 34 17 17 34 17 17 34 17 17 34 170 187 204 170 187 204 170 187 204 170 187 204 170 187 204 170 187 204 170 187 204 170 187 204 170 187 204 170 187 204 17 17 34 17 17 34 17 17 34 17 17 34 170 187 204 170 187 204 17 17 34 17 17 34 17 17 34 17 17 34 17 17 34 17 17 34 170 187 204 170 187 204 17 17 34 17 17 34 17 17 34 17 17 34 170 187 204 170 187 204 170 187 204 170 187 204 170 187 204 170 187 204 170 187 204 170 187 204 170 187 204 170 187 204 17 17 34 17 17 34 17 17 34 17 17 34 17 17 34 17 17 34 17 17 34 17 17 34 17 17 34 17 17 34 17 17 34 17 17 34 17 17 34 17 17 34 17 17 34 17 17 34 17 17 34 17 17 34 17 17 34 17 17 34 17 17 34 17 17 34 17 17 34 17 17 34
17 17 34 17 17 34 17 17 34 17 17 34 17 17 34 17 17 34 17 17 34 17 17 34 17 17 34 17 17 34 17 17 34 17 17 34 221 238 255 221 238 255 17 17 34 17 17 34 17 17 34 17 17 34 17 17 34 17 17 34 221 238 255 221 238 255 17 17 34 17 17 34 17 17 34 17 17 34 17 17 34 17 17 34 221 238 255 221 238 255 221 238 255 221 238 255 221 238 255 221 238 255 17 17 34 17 17 34 17 17 34 17 17 34 17 17 34 17 17 34 221 238 255 221 238 255 221 238 255 221 238 255 221 238 255 221 238 255 221 238 255 221 238 255 221 238 255 221 238 255 17 17 34 17 17 34 17 17 34 17 17 34 221 238 255 221 238 255 221 238 255 221 238 255 221 238 255 221 238 255 221 238 255 221 238 255 17 17 34 17 17 34 17 17 34 17 17 34 17 17 34 17 17 34 17 17 34 17 17 34 17 17 34 17 17 34 0 170 221 0 170 221 0 170 221 0 170 221 17 17 34 17 17 34 17 17 34 17 17 34 17 17 34 17 17 34 17 17 34 17 17 34 17 17 34 17 17 34 17 17 34 17 17 34 17 17 34 17 17 34 170 187 204 170 187 204 170 187 204 170 187 204 170 187 204 170 187 204 170 187 204 170 187 204 17 17 34 17 17 34 17 17 34 17 17 34 170 187 204 170 187 204 170 187 204 170 187 204 170 187 204 170 187 204 170 187 204 170 187 204 170 187 204 170 187 204 17 17 34 17 17 34 17 17 34 17 17 34 170 187 204 170 187 204 170 187 204 170 187 204 170 187 204 170 187 204 170 187 204 170 187 204 17 17 34 17 17 34 17 17 34 17 17 34 17 17 34 17 17 34 170 187 204 170 187 204 170 187 204 170 187 204 170 187 204 170 187 204 170 187 204 170 187 204 170 187 204 170 187 204 17 17 34 17 17 34 17 17 34 17 17 34 170 187 204 170 187 204 17 17 34 17 17 34 17 17 34 17 17 34 17 17 34 17 17 34 170 187 204 170 187 204 17 17 34 17 17 34 17 17 34 17 17 34 170 187 204 170 187 204 170 187 204 170 187 204 170 187 204 170 187 204 170 187 204 170 187 204 170 187 204 170 187 204 17 17 34 17 17 34 17 17 34 17 17 34 17 17 34 17 17 34 17 17 34 17 17 34 17 17 34 17 17 34 17 17 34 17 17 34 17 17 34 17 17 34 17 17 34 17 17 34 17 17 34 17 17 34 17 17 34 17 17 34 17 17 34 17 17 34 17 17 34 17 17 34
17 17 34 17 17 34 17 17 34 17 17 34 17 17 34 17 17 34 17 17 34 17 17 34 17 17 34 17 17 34 17 17 34 17 17 34 221 238 255 221 238 255 17 17 34 17 17 34 17 17 34 17 17 34 17 17 34 17 17 34 221 238 255 221 238 255 17 17 34 17 17 34 17 17 34 17 17 34 17 17 34 17 17 34 221 238 255 221 238 255 221 238 255 221 238 255 221 238 255 221 238 255 17 17 34 17 17 34 17 17 34 17 17 34 17 17 34 17 17 34 221 238 255 221 238 255 221 238 255 221 238 255 221 238 255 221 238 255 221 238 255 221 238 255 221 238 255 221 238 255 17 17 34 17 17 34 17 17 34 17 17 34 221 238 255 221 238 255 221 238 255 221 238 255 221 238 255 221 238 255 221 238 255 221 238 255 17 17 34 17 17 34 17 17 34 17 17 34 17 17 34 17 17 34 17 17 34 17 17 34 17 17 34 17 17 34 0 170 221 0 170 221 0 170 221 0 170 221 17 17 34 17 17 34 17 17 34 17 17 34 17 17 34 17 17 34 17 17 34 17 17 34 17 17 34 17 17 34 17 17 34 17 17 34 17 17 34 17 17 34 170 187 204 170 187 204 170 187 204 170 187 204 170 187 204 170 187 204 170 187 204 170 187 204 17 17 34 17 17 34 17 17 34 17 17 34 170 187 204 170 187 204 170 187 204 170 187 204 170 187 204 170 187 204 170 187 204 170 187 204 170 187 204 170 187 204 17 17 34 17 17 34 17 17 34 17 17 34 170 187 204 170 187 204 170 187 204 170 187 204 170 187 204 170 187 204 170 187 204 170 187 204 17 17 34 17 17 34 17 17 34 17 17 34 17 17 34 17 17 34 170 187 204 170 187 204 170 187 204 170 187 204 170 187 204 170 187 204 170 187 204 170 187 204 170 187 204 170 187 204 17 17 34 17 17 34 17 17 34 17 17 34 170 187 204 170 187 204 17 17 34 17 17 34 17 17 34 17 17 34 17 17 34 17 17 34 170 187 204 170 187 204 17 17 34 17 17 34 17 17 34 17 17 34 170 187 204 170 187 204 170 187 204 170 187 204 170 187 204 170 187 204 170 187 204 170 187 204 170 187 204 170 187 204 17 17 34 17 17 34 17 17 34 17 17 34 17 17 34 17 17 34 17 17 34 17 17 34 17 17 34 17 17 34 17 17 34 17 17 34 17 17 34 17 17 34 17 17 34 17 17 34 17 17 34 17 17 34 17 17 34 17 17 34 17 17 34 17 17 34 17 17 34 17 17 34
17 17 34 17 17 34 17 17 34 17 17 34 17 17 34 17 17 34 17 17 34 17 17 34 17 17 34 17 17 34 17 17 34 17 17 34 221 238 255 221 238 255 17 17 34 17 17 34 17 17 34 17 17 34 17 17 34 17 17 34 221 238 255 221 238 255 17 17 34 17 17 34 17 17 34 17 17 34 221 238 255 221 238 255 17 17 34 17 17 34 17 17 34 17 17 34 17 17 34 17 17 34 221 238 255 221 238 255 17 17 34 17 17 34 17 17 34 17 17 34 17 17 34 17 17 34 17 17 34 17 17 34 221 238 255 221 238 255 17 17 34 17 17 34 17 17 34 17 17 34 17 17 34 17 17 34 17 17 34 17 17 34 221 238 255 221 238 255 17 17 34 17 17 34 17 17 34 17 17 34 17 17 34 17 17 34 221 238 255 221 238 255 17 17 34 17 17 34 17 17 34 17 17 34 17 17 34 17 17 34 17 17 34 17 17 34 0 170 221 0 170 221 0 170 221 0 170 221 17 17 34 17 17 34 17 17 34 17 17 34 17 17 34 17 17 34 17 17 34 17 17 34 17 17 34 17 17 34 17 17 34 17 17 34 170 187 204 170 187 204 17 17 34 17 17 34 17 17 34 17 17 34 17 17 34 17 17 34 17 17 34 17 17 34 17 17 34 17 17 34 17 17 34 17 17 34 17 17 34 17 17 34 17 17 34 17 17 34 170 187 204 170 187 204 17 17 34 17 17 34 17 17 34 17 17 34 17 17 34 17 17 34 17 17 34 17 17 34 170 187 204 170 187 204 17 17 34 17 17 34 17 17 34 17 17 34 17 17 34 17 17 34 170 187 204 170 187 204 17 17 34 17 17 34 17 17 34 17 17 34 17 17 34 17 17 34 17 17 34 17 17 34 170 187 204 170 187 204 17 17 34 17 17 34 17 17 34 17 17 34 17 17 34 17 17 34 17 17 34 17 17 34 170 187 204 170 187 204 17 17 34 17 17 34 17 17 34 17 17 34 170 187 204 170 187 204 17 17 34 17 17 34 17 17 34 17 17 34 17 17 34 17 17 34 170 187 204 170 187 204 17 17 34 17 17 34 17 17 34 17 17 34 17 17 34 17 17 34 17 17 34 17 17 34 17 17 34 17 17 34 17 17 34 17 17 34 17 17 34 17 17 34 17 17 34 17 17 34 17 17 34 17 17 34 17 17 34 17 17 34 17 17 34 17 17 34 17 17 34 17 17 34 17 17 34 17 17 34 17 17 34 17 17 34 17 17 34 17 17 34 17 17 34 17 17 34
17 17 34 17 17 34 17 17 34 17 17 34 17 17 34 17 17 34 17 17 34 17 17 34 17 17 34 17 17 34 17 17 34 17 17 34 221 238 255 221 238 255 17 17 34 17 17 34 17 17 34 17 17 34 17 17 34 17 17 34 221 238 255 221 238 255 17 17 34 17 17 34 17 17 34 17 17 34 221 238 255 221 238 255 17 17 34 17 17 34 17 17 34 17 17 34 17 17 34 17 17 34 221 238 255 221 238 255 17 17 34 17 17 34 17 17 34 17 17 34 17 17 34 17 17 34 17 17 34 17 17 34 221 238 255 221 238 255 17 17 34 17 17 34 17 17 34 17 17 34 17 17 34 17 17 34 17 17 34 17 17 34 221 238 255 221 238 255 17 17 34 17 17 34 17 17 34 17 17 34 17 17 34 17 17 34 221 238 255 221 238 255 17 17 34 17 17 34 17 17 34 17 17 34 17 17 34 17 17 34 17 17 34 17 17 34 0 170 221 0 170 221 0 170 221 0 170 221 17 17 34 17 17 34 17 17 34 17 17 34 17 17 34 17 17 34 17 17 34 17 17 34 17 17 34 17 17 34 17 17 34 17 17 34 170 187 204 170 187 204 17 17 34 17 17 34 17 17 34 17 17 34 17 17 34 17 17 34 17 17 34 17 17 34 17 17 34 17 17 34 17 17 34 17 17 34 17 17 34 17 17 34 17 17 34 17 17 34 170 187 204 170 187 204 17 17 34 17 17 34 17 17 34 17 17 34 17 17 34 17 17 34 17 17 34 17 17 34 170 187 204 170 187 204 17 17 34 17 17 34 17 17 34 17 17 34 17 17 34 17 17 34 170 187 204 170 187 204 17 17 34 17 17 34 17 17 34 17 17 34 17 17 34 17 17 34 17 17 34 17 17 34 170 187 204 170 187 204 17 17 34 17 17 34 17 17 34 17 17 34 17 17 34 17 17 34 17 17 34 17 17 34 170 187 204 170 187 204 17 17 34 17 17 34 17 17 34 17 17 34 170 187 204 170 187 204 17 17 34 17 17 34 17 17 34 17 17 34 17 17 34 17 17 34 170 187 204 170 187 204 17 17 34 17 17 34 17 17 34 17 17 34 17 17 34 17 17 34 17 17 34 17 17 34 17 17 34 17 17 34 17 17 34 17 17 34 17 17 34 17 17 34 17 17 34 17 17 34 17 17 34 17 17 34 17 17 34 17 17 34 17 17 34 17 17 34 17 17 34 17 17 34 17 17 34 17 17 34 17 17 34 17 17 34 17 17 34 17 17 34 17 17 34 17 17 34
17 17 34 17 17 34 17 17 34 17 17 34 17 17 34 17 17 34 17 17 34 17 17 34 17 17 34 17 17 34 17 17 34 17 17 34 221 238 255 221 238 255 17 17 34 17 17 34 17 17 34 17 17 34 17 17 34 17 17 34 221 238 255 221 238 255 17 17 34 17 17 34 17 17 34 17 17 34 221 238 255 221 238 255 17 17 34 17 17 34 17 17 34 17 17 34 17 17 34 17 17 34 221 238 255 221 238 255 17 17 34 17 17 34 17 17 34 17 17 34 17 17 34 17 17 34 17 17 34 17 17 34 221 238 255 221 238 255 17 17 34 17 17 34 17 17 34 17 17 34 17 17 34 17 17 34 17 17 34 17 17 34 221 238 255 221 238 255 17 17 34 17 17 34 17 17 34 17 17 34 17 17 34 17 17 34 221 238 255 221 238 255 17 17 34 17 17 34 17 17 34 17 17 34 17 17 34 17 17 34 17 17 34 17 17 34 0 170 221 0 170 221 0 170 221 0 170 221 17 17 34 17 17 34 17 17 34 17 17 34 17 17 34 17 17 34 17 17 34 17 17 34 17 17 34 17 17 34 17 17 34 17 17 34 170 187 204 170 187 204 17 17 34 17 17 34 17 17 34 17 17 34 17 17 34 17 17 34 17 17 34 17 17 34 17 17 34 17 17 34 17 17 34 17 17 34 17 17 34 17 17 34 17 17 34 17 17 34 170 187 204 170 187 204 17 17 34 17 17 34 17 17 34 17 17 34 17 17 34 17 17 34 17 17 34 17 17 34 170 187 204 170 187 204 17 17 34 17 17 34 17 17 34 17 17 34 17 17 34 17 17 34 170 187 204 170 187 204 17 17 34 17 17 34 17 17 34 17 17 34 17 17 34 17 17 34 17 17 34 17 17 34 170 187 204 170 187 204 17 17 34 17 17 34 17 17 34 17 17 34 17 17 34 17 17 34 17 17 34 17 17 34 170 187 204 170 187 204 17 17 34 17 17 34 17 17 34 17 17 34 170 187 204 170 187 204 17 17 34 17 17 34 17 17 34 17 17 34 17 17 34 17 17 34 170 187 204 170 187 204 17 17 34 17 17 34 17 17 34 17 17 34 17 17 34 17 17 34 17 17 34 17 17 34 17 17 34 17 17 34 17 17 34 17 17 34 17 17 34 17 17 34 17 17 34 17 17 34 17 17 34 17 17 34 17 17 34 17 17 34 17 17 34 17 17 34 17 17 34 17 17 34 17 17 34 17 17 34 17 17 34 17 17 34 17 17 34 17 17 34 17 17 34 17 17 34
17 17 34 17 17 34 17 17 34 17 17 34 17 17 34 17 17 34 17 17 34 17 17 34 17 17 34 17 17 34 17 17 34 17 17 34 221 238 255 221 238 255 17 17 34 17 17 34 17 17 34 17 17 34 17 17 34 17 17 34 221 238 255 221 238 255 17 17 34 17 17 34 17 17 34 17 17 34 221 238 255 221 238 255 17 17 34 17 17 34 17 17 34 17 17 34 17 17 34 17 17 34 221 238 255 221 238 255 17 17 34 17 17 34 17 17 34 17 17 34 17 17 34 17 17 34 17 17 34 17 17 34 221 238 255 221 238 255 17 17 34 17 17 34 17 17 34 17 17 34 17 17 34 17 17 34 17 17 34 17 17 34 221 238 255 221 238 255 17 17 34 17 17 34 17 17 34 17 17 34 17 17 34 17 17 34 221 238 255 221 238 255 17 17 34 17 17 34 17 17 34 17 17 34 17 17 34 17 17 34 17 17 34 17 17 34 0 170 221 0 170 221 0 170 221 0 170 221 17 17 34 17 17 34 17 17 34 17 17 34 17 17 34 17 17 34 17 17 34 17 17 34 17 17 34 17 17 34 17 17 34 17 17 34 170 187 204 170 187 204 17 17 34 17 17 34 17 17 34 17 17 34 17 17 34 17 17 34 17 17 34 17 17 34 17 17 34 17 17 34 17 17 34 17 17 34 17 17 34 17 17 34 17 17 34 17 17 34 170 187 204 170 187 204 17 17 34 17 17 34 17 17 34 17 17 34 17 17 34 17 17 34 17 17 34 17 17 34 170 187 204 170 187 204 17 17 34 17 17 34 17 17 34 17 17 34 17 17 34 17 17 34 170 187 204 170 187 204 17 17 34 17 17 34 17 17 34 17 17 34 17 17 34 17 17 34 17 17 34 17 17 34 170 187 204 170 187 204 17 17 34 17 17 34 17 17 34 17 17 34 17 17 34 17 17 34 17 17 34 17 17 34 170 187 204 170 187 204 17 17 34 17 17 34 17 17 34 17 17 34 170 187 204 170 187 204 17 17 34 17 17 34 17 17 34 17 17 34 17 17 34 17 17 34 170 187 204 170 187 204 17 17 34 17 17 34 17 17 34 17 17 34 17 17 34 17 17 34 17 17 34 17 17 34 17 17 34 17 17 34 17 17 34 17 17 34 17 17 34 17 17 34 17 17 34 17 17 34 17 17 34 17 17 34 17 17 34 17 17 34 17 17 34 17 17 34 17 17 34 17 17 34 17 17 34 17 17 34 17 17 34 17 17 34 17 17 34 17 17 34 17 17 34 17 17 34
17 17 34 17 17 34 17 17 34 17 17 34 17 17 34 17 17 34 17 17 34 17 17 34 17 17 34 17 17 34 17 17 34 17 17 34 17 17 34 17 17 34 221 238 255 221 238 255 17 17 34 17 17 34 221 238 255 221 238 255 17 17 34 17 17 34 17 17 34 17 17 34 17 17 34 17 17 34 221 238 255 221 238 255 17 17 34 17 17 34 17 17 34 17 17 34 17 17 34 17 17 34 221 238 255 221 238 255 17 17 34 17 17 34 17 17 34 17 17 34 17 17 34 17 17 34 17 17 34 17 17 34 221 238 255 221 238 255 17 17 34 17 17 34 17 17 34 17 17 34 17 17 34 17 17 34 17 17 34 17 17 34 221 238 255 221 238 255 17 17 34 17 17 34 17 17 34 17 17 34 17 17 34 17 17 34 221 238 255 221 238 255 17 17 34 17 17 34 17 17 34 17 17 34 17 17 34 17 17 34 17 17 34 17 17 34 0 170 221 0 170 221 0 170 221 0 170 221 17 17 34 17 17 34 17 17 34 17 17 34 17 17 34 17 17 34 17 17 34 17 17 34 17 17 34 17 17 34 17 17 34 17 17 34 17 17 34 17 17 34 170 187 204 170 187 204 170 187 204 170 187 204 170 187 204 170 187 204 17 17 34 17 17 34 17 17 34 17 17 34 17 17 34 17 17 34 17 17 34 17 17 34 17 17 34 17 17 34 170 187 204 170 187 204 17 17 34 17 17 34 17 17 34 17 17 34 17 17 34 17 17 34 17 17 34 17 17 34 170 187 204 170 187 204 170 187 204 170 187 204 170 187 204 170 187 204 170 187 204 170 187 204 17 17 34 17 17 34 17 17 34 17 17 34 17 17 34 17 17 34 17 17 34 17 17 34 17 17 34 17 17 34 170 187 204 170 187 204 17 17 34 17 17 34 17 17 34 17 17 34 17 17 34 17 17 34 17 17 34 17 17 34 170 187 204 170 187 204 170 187 204 170 187 204 170 187 204 170 187 204 17 17 34 17 17 34 17 17 34 17 17 34 17 17 34 17 17 34 17 17 34 17 17 34 170 187 204 170 187 204 170 187 204 170 187 204 170 187 204 170 187 204 170 187 204 170 187 204 17 17 34 17 17 34 17 17 34 17 17 34 17 17 34 17 17 34 17 17 34 17 17 34 17 17 34 17 17 34 17 17 34 17 17 34 17 17 34 17 17 34 17 17 34 17 17 34 17 17 34 17 17 34 17 17 34 17 17 34 17 17 34 17 17 34 17 17 34 17 17 34 17 17 34 17 17 34
17 17 34 17 17 34 17 17 34 17 17 34 17 17 34 17 17 34 17 17 34 17 17 34 17 17 34 17 17 34 17 17 34 17 17 34 17 17 34 17 17 34 221 238 255 221 238 255 17 17 34 17 17 34 221 238 255 221 238 255 17 17 34 17 17 34 17 17 34 17 17 34 17 17 34 17 17 34 221 238 255 221 238 255 17 17 34 17 17 34 17 17 34 17 17 34 17 17 34 17 17 34 221 238 255 221 238 255 17 17 34 17 17 34 17 17 34 17 17 34 17 17 34 17 17 34 17 17 34 17 17 34 221 238 255 221 238 255 17 17 34 17 17 34 17 17 34 17 17 34 17 17 34 17 17 34 17 17 34 17 17 34 221 238 255 221 238 255 17 17 34 17 17 34 17 17 34 17 17 34 17 17 34 17 17 34 221 238 255 221 238 255 17 17 34 17 17 34 17 17 34 17 17 34 17 17 34 17 17 34 17 17 34 17 17 34 0 170 221 0 170 221 0 170 221 0 170 221 17 17 34 17 17 34 17 17 34 17 17 34 17 17 34 17 17 34 17 17 34 17 17 34 17 17 34 17 17 34 17 17 34 17 17 34 17 17 34 17 17 34 170 187 204 170 187 204 170 187 204 170 187 204 170 187 204 170 187 204 17 17 34 17 17 34 17 17 34 17 17 34 17 17 34 17 17 34 17 17 34 17 17 34 17 17 34 17 17 34 170 187 204 170 187 204 17 17 34 17 17 34 17 17 34 17 17 34 17 17 34 17 17 34 17 17 34 17 17 34 170 187 204 170 187 204 170 187 204 170 187 204 170 187 204 170 187 204 170 187 204 170 187 204 17 17 34 17 17 34 17 17 34 17 17 34 17 17 34 17 17 34 17 17 34 17 17 34 17 17 34 17 17 34 170 187 204 170 187 204 17 17 34 17 17 34 17 17 34 17 17 34 17 17 34 17 17 34 17 17 34 17 17 34 170 187 204 170 187 204 170 187 204 170 187 204 170 187 204 170 187 204 17 17 34 17 17 34 17 17 34 17 17 34 17 17 34 17 17 34 17 17 34 17 17 34 170 187 204 170 187 204 170 187 204 170 187 204 170 187 204 170 187 204 170 187 204 170 187 204 17 17 34 17 17 34 17 17 34 17 17 34 17 17 34 17 17 34 17 17 34 17 17 34 17 17 34 17 17 34 17 17 34 17 17 34 17 17 34 17 17 34 17 17 34 17 17 34 17 17 34 17 17 34 17 17 34 17 17 34 17 17 34 17 17 34 17 17 34 17 17 34 17 17 34 17 17 34
17 17 34 17 17 34 17 17 34 17 17 34 17 17 34 17 17 34 17 17 34 17 17 34 17 17 34 17 17 34 17 17 34 17 17 34 17 17 34 17 17 34 221 238 255 221 238 255 17 17 34 17 17 34 221 238 255 221 238 255 17 17 34 17 17 34 17 17 34 17 17 34 17 17 34 17 17 34 221 238 255 221 238 255 17 17 34 17 17 34 17 17 34 17 17 34 17 17 34 17 17 34 221 238 255 221 238 255 17 17 34 17 17 34 17 17 34 17 17 34 17 17 34 17 17 34 17 17 34 17 17 34 221 238 255 221 238 255 17 17 34 17 17 34 17 17 34 17 17 34 17 17 34 17 17 34 17 17 34 17 17 34 221 238 255 221 238 255 17 17 34 17 17 34 17 17 34 17 17 34 17 17 34 17 17 34 221 238 255 221 238 255 17 17 34 17 17 34 17 17 34 17 17 34 17 17 34 17 17 34 17 17 34 17 17 34 0 170 221 0 170 221 0 170 221 0 170 221 17 17 34 17 17 34 17 17 34 17 17 34 17 17 34 17 17 34 17 17 34 17 17 34 17 17 34 17 17 34 17 17 34 17 17 34 17 17 34 17 17 34 170 187 204 170 187 204 170 187 204 170 187 204 170 187 204 170 187 204 17 17 34 17 17 34 17 17 34 17 17 34 17 17 34 17 17 34 17 17 34 17 17 34 17 17 34 17 17 34 170 187 204 170 187 204 17 17 34 17 17 34 17 17 34 17 17 34 17 17 34 17 17 34 17 17 34 17 17 34 170 187 204 170 187 204 170 187 204 170 187 204 170 187 204 170 187 204 170 187 204 170 187 204 17 17 34 17 17 34 17 17 34 17 17 34 17 17 34 17 17 34 17 17 34 17 17 34 17 17 34 17 17 34 170 187 204 170 187 204 17 17 34 17 17 34 17 17 34 17 17 34 17 17 34 17 17 34 17 17 34 17 17 34 170 187 204 170 187 204 170 187 204 170 187 204 170 187 204 170 187 204 17 17 34 17 17 34 17 17 34 17 17 34 17 17 34 17 17 34 17 17 34 17 17 34 170 187 204 170 187 204 170 187 204 170 187 204 170 187 204 170 187 204 170 187 204 170 187 204 17 17 34 17 17 34 17 17 34 17 17 34 17 17 34 17 17 34 17 17 34 17 17 34 17 17 34 17 17 34 17 17 34 17 17 34 17 17 34 17 17 34 17 17 34 17 17 34 17 17 34 17 17 34 17 17 34 17 17 34 17 17 34 17 17 34 17 17 34 17 17 34 17 17 34 17 17 34
17 17 34 17 17 34 17 17 34 17 17 34 17 17 34 17 17 34 17 17 34 17 17 34 17 17 34 17 17 34 17 17 34 17 17 34 17 17 34 17 17 34 221 238 255 221 238 255 17 17 34 17 17 34 221 238 255 221 238 255 17 17 34 17 17 34 17 17 34 17 17 34 17 17 34 17 17 34 221 238 255 221 238 255 17 17 34 17 17 34 17 17 34 17 17 34 17 17 34 17 17 34 221 238 255 221 238 255 17 17 34 17 17 34 17 17 34 17 17 34 17 17 34 17 17 34 17 17 34 17 17 34 221 238 255 221 238 255 17 17 34 17 17 34 17 17 34 17 17 34 17 17 34 17 17 34 17 17 34 17 17 34 221 238 255 221 238 255 17 17 34 17 17 34 17 17 34 17 17 34 17 17 34 17 17 34 221 238 255 221 238 255 17 17 34 17 17 34 17 17 34 17 17 34 17 17 34 17 17 34 17 17 34 17 17 34 0 170 221 0 170 221 0 170 221 0 170 221 17 17 34 17 17 34 17 17 34 17 17 34 17 17 34 17 17 34 17 17 34 17 17 34 17 17 34 17 17 34 17 17 34 17 17 34 17 17 34 17 17 34 170 187 204 170 187 204 170 187 204 170 187 204 170 187 204 170 187 204 17 17 34 17 17 34 17 17 34 17 17 34 17 17 34 17 17 34 17 17 34 17 17 34 17 17 34 17 17 34 170 187 204 170 187 204 17 17 34 17 17 34 17 17 34 17 17 34 17 17 34 17 17 34 17 17 34 17 17 34 170 187 204 170 187 204 170 187 204 170 187 204 170 187 204 170 187 204 170 187 204 170 187 204 17 17 34 17 17 34 17 17 34 17 17 34 17 17 34 17 17 34 17 17 34 17 17 34 17 17 34 17 17 34 170 187 204 170 187 204 17 17 34 17 17 34 17 17 34 17 17 34 17 17 34 17 17 34 17 17 34 17 17 34 170 187 204 170 187 204 170 187 204 170 187 204 170 187 204 170 187 204 17 17 34 17 17 34 17 17 34 17 17 34 17 17 34 17 17 34 17 17 34 17 17 34 170 187 204 170 187 204 170 187 204 170 187 204 170 187 204 170 187 204 170 187 204 170 187 204 17 17 34 17 17 34 17 17 34 17 17 34 17 17 34 17 17 34 17 17 34 17 17 34 17 17 34 17 17 34 17 17 34 17 17 34 17 17 34 17 17 34 17 17 34 17 17 34 17 17 34 17 17 34 17 17 34 17 17 34 17 17 34 17 17 34 17 17 34 17 17 34 17 17 34 17 17 34
17 17 34 17 17 34 17 17 34 17 17 34 17 17 34 17 17 34 17 17 34 17 17 34 17 17 34 17 17 34 17 17 34 17 17 34 17 17 34 17 17 34 221 238 255 221 238 255 17 17 34 17 17 34 221 238 255 221 238 255 17 17 34 17 17 34 17 17 34 17 17 34 17 17 34 17 17 34 221 238 255 221 238 255 17 17 34 17 17 34 17 17 34 17 17 34 17 17 34 17 17 34 221 238 255 221 238 255 17 17 34 17 17 34 17 17 34 17 17 34 17 17 34 17 17 34 17 17 34 17 17 34 221 238 255 221 238 255 17 17 34 17 17 34 17 17 34 17 17 34 17 17 34 17 17 34 17 17 34 17 17 34 221 238 255 221 238 255 17 17 34 17 17 34 17 17 34 17 17 34 17 17 34 17 17 34 221 238 255 221 238 255 17 17 34 17 17 34 17 17 34 17 17 34 17 17 34 17 17 34 17 17 34 17 17 34 0 170 221 0 170 221 0 170 221 0 170 221 17 17 34 17 17 34 17 17 34 17 17 34 17 17 34 17 17 34 17 17 34 17 17 34 17 17 34 17 17 34 17 17 34 17 17 34 17 17 34 17 17 34 17 17 34 17 17 34 17 17 34 17 17 34 17 17 34 17 17 34 170 187 204 170 187 204 17 17 34 17 17 34 17 17 34 17 17 34 17 17 34 17 17 34 17 17 34 17 17 34 170 187 204 170 187 204 17 17 34 17 17 34 17 17 34 17 17 34 17 17 34 17 17 34 17 17 34 17 17 34 170 187 204 170 187 204 17 17 34 17 17 34 170 187 204 170 187 204 17 17 34 17 17 34 17 17 34 17 17 34 17 17 34 17 17 34 17 17 34 17 17 34 17 17 34 17 17 34 17 17 34 17 17 34 170 187 204 170 187 204 17 17 34 17 17 34 17 17 34 17 17 34 17 17 34 17 17 34 17 17 34 17 17 34 170 187 204 170 187 204 17 17 34 17 17 34 17 17 34 17 17 34 170 187 204 170 187 204 17 17 34 17 17 34 17 17 34 17 17 34 17 17 34 17 17 34 170 187 204 170 187 204 17 17 34 17 17 34 17 17 34 17 17 34 17 17 34 17 17 34 17 17 34 17 17 34 17 17 34 17 17 34 17 17 34 17 17 34 17 17 34 17 17 34 17 17 34 17 17 34 17 17 34 17 17 34 17 17 34 17 17 34 17 17 34 17 17 34 17 17 34 17 17 34 17 17 34 17 17 34 17 17 34 17 17 34 17 17 34 17 17 34 17 17 34 17 17 34
17 17 34 17 17 34 17 17 34 17 17 34 17 17 34 17 17 34 17 17 34 17 17 34 17 17 34 17 17 34 17 17 34 17 17 34 17 17 34 17 17 34 221 238 255 221 238 255 17 17 34 17 17 34 221 238 255 221 238 255 17 17 34 17 17 34 17 17 34 17 17 34 17 17 34 17 17 34 221 238 255 221 238 255 17 17 34 17 17 34 17 17 34 17 17 34 17 17 34 17 17 34 221 238 255 221 238 255 17 17 34 17 17 34 17 17 34 17 17 34 17 17 34 17 17 34 17 17 34 17 17 34 221 238 255 221 238 255 17 17 34 17 17 34 17 17 34 17 17 34 17 17 34 17 17 34 17 17 34 17 17 34 221 238 255 221 238 255 17 17 34 17 17 34 17 17 34 17 17 34 17 17 34 17 17 34 221 238 255 221 238 255 17 17 34 17 17 34 17 17 34 17 17 34 17 17 34 17 17 34 17 17 34 17 17 34 0 170 221 0 170 221 0 170 221 0 170 221 17 17 34 17 17 34 17 17 34 17 17 34 17 17 34 17 17 34 17 17 34 17 17 34 17 17 34 17 17 34 17 17 34 17 17 34 17 17 34 17 17 34 17 17 34 17 17 34 17 17 34 17 17 34 17 17 34 17 17 34 170 187 204 170 187 204 17 17 34 17 17 34 17 17 34 17 17 34 17 17 34 17 17 34 17 17 34 17 17 34 170 187 204 170 187 204 17 17 34 17 17 34 17 17 34 17 17 34 17 17 34 17 17 34 17 17 34 17 17 34 170 187 204 170 187 204 17 17 34 17 17 34 170 187 204 170 187 204 17 17 34 17 17 34 17 17 34 17 17 34 17 17 34 17 17 34 17 17 34 17 17 34 17 17 34 17 17 34 17 17 34 17 17 34 170 187 204 170 187 204 17 17 34 17 17 34 17 17 34 17 17 34 17 17 34 17 17 34 17 17 34 17 17 34 170 187 204 170 187 204 17 17 34 17 17 34 17 17 34 17 17 34 170 187 204 170 187 204 17 17 34 17 17 34 17 17 34 17 17 34 17 17 34 17 17 34 170 187 204 170 187 204 17 17 34 17 17 34 17 17 34 17 17 34 17 17 34 17 17 34 17 17 34 17 17 34 17 17 34 17 17 34 17 17 34 17 17 34 17 17 34 17 17 34 17 17 34 17 17 34 17 17 34 17 17 34 17 17 34 17 17 34 17 17 34 17 17 34 17 17 34 17 17 34 17 17 34 17 17 34 17 17 34 17 17 34 17 17 34 17 17 34 17 17 34 17 17 34
17 17 34 17 17 34 17 17 34 17 17 34 17 17 34 17 17 34 17 17 34 17 17 34 17 17 34 17 17 34 17 17 34 17 17 34 17 17 34 17 17 34 221 238 255 221 238 255 17 17 34 17 17 34 221 238 255 221 238 255 17 17 34 17 17 34 17 17 34 17 17 34 17 17 34 17 17 34 221 238 255 221 238 255 17 17 34 17 17 34 17 17 34 17 17 34 17 17 34 17 17 34 221 238 255 221 238 255 17 17 34 17 17 34 17 17 34 17 17 34 17 17 34 17 17 34 17 17 34 17 17 34 221 238 255 221 238 255 17 17 34 17 17 34 17 17 34 17 17 34 17 17 34 17 17 34 17 17 34 17 17 34 221 238 255 221 238 255 17 17 34 17 17 34 17 17 34 17 17 34 17 17 34 17 17 34 221 238 255 221 238 255 17 17 34 17 17 34 17 17 34 17 17 34 17 17 34 17 17 34 17 17 34 17 17 34 0 170 221 0 170 221 0 170 221 0 170 221 17 17 34 17 17 34 17 17 34 17 17 34 17 17 34 17 17 34 17 17 34 17 17 34 17 17 34 17 17 34 17 17 34 17 17 34 17 17 34 17 17 34 17 17 34 17 17 34 17 17 34 17 17 34 17 17 34 17 17 34 170 187 204 170 187 204 17 17 34 17 17 34 17 17 34 17 17 34 17 17 34 17 17 34 17 17 34 17 17 34 170 187 204 170 187 204 17 17 34 17 17 34 17 17 34 17 17 34 17 17 34 17 17 34 17 17 34 17 17 34 170 187 204 170 187 204 17 17 34 17 17 34 170 187 204 170 187 204 17 17 34 17 17 34 17 17 34 17 17 34 17 17 34 17 17 34 17 17 34 17 17 34 17 17 34 17 17 34 17 17 34 17 17 34 170 187 204 170 187 204 17 17 34 17 17 34 17 17 34 17 17 34 17 17 34 17 17 34 17 17 34 17 17 34 170 187 204 170 187 204 17 17 34 17 17 34 17 17 34 17 17 34 170 187 204 170 187 204 17 17 34 17 17 34 17 17 34 17 17 34 17 17 34 17 17 34 170 187 204 170 187 204 17 17 34 17 17 34 17 17 34 17 17 34 17 17 34 17 17 34 17 17 34 17 17 34 17 17 34 17 17 34 17 17 34 17 17 34 17 17 34 17 17 34 17 17 34 17 17 34 17 17 34 17 17 34 17 17 34 17 17 34 17 17 34 17 17 34 17 17 34 17 17 34 17 17 34 17 17 34 17 17 34 17 17 34 17 17 34 17 17 34 17 17 34 17 17 34
17 17 34 17 17 34 17 17 34 17 17 34 17 17 34 17 17 34 17 17 34 17 17 34 17 17 34 17 17 34 17 17 34 17 17 34 17 17 34 17 17 34 221 238 255 221 238 255 17 17 34 17 17 34 221 238 255 221 238 255 17 17 34 17 17 34 17 17 34 17 17 34 17 17 34 17 17 34 221 238 255 221 238 255 17 17 34 17 17 34 17 17 34 17 17 34 17 17 34 17 17 34 221 238 255 221 238 255 17 17 34 17 17 34 17 17 34 17 17 34 17 17 34 17 17 34 17 17 34 17 17 34 221 238 255 221 238 255 17 17 34 17 17 34 17 17 34 17 17 34 17 17 34 17 17 34 17 17 34 17 17 34 221 238 255 221 238 255 17 17 34 17 17 34 17 17 34 17 17 34 17 17 34 17 17 34 221 238 255 221 238 255 17 17 34 17 17 34 17 17 34 17 17 34 17 17 34 17 17 34 17 17 34 17 17 34 0 170 221 0 170 221 0 170 221 0 170 221 17 17 34 17 17 34 17 17 34 17 17 34 17 17 34 17 17 34 17 17 34 17 17 34 17 17 34 17 17 34 17 17 34 17 17 34 17 17 34 17 17 34 17 17 34 17 17 34 17 17 34 17 17 34 17 17 34 17 17 34 170 187 204 170 187 204 17 17 34 17 17 34 17 17 34 17 17 34 17 17 34 17 17 34 17 17 34 17 17 34 170 187 204 170 187 204 17 17 34 17 17 34 17 17 34 17 17 34 17 17 34 17 17 34 17 17 34 17 17 34 170 187 204 170 187 204 17 17 34 17 17 34 170 187 204 170 187 204 17 17 34 17 17 34 17 17 34 17 17 34 17 17 34 17 17 34 17 17 34 17 17 34 17 17 34 17 17 34 17 17 34 17 17 34 170 187 204 170 187 204 17 17 34 17 17 34 17 17 34 17 17 34 17 17 34 17 17 34 17 17 34 17 17 34 170 187 204 170 187 204 17 17 34 17 17 34 17 17 34 17 17 34 170 187 204 170 187 204 17 17 34 17 17 34 17 17 34 17 17 34 17 17 34 17 17 34 170 187 204 170 187 204 17 17 34 17 17 34 17 17 34 17 17 34 17 17 34 17 17 34 17 17 34 17 17 34 17 17 34 17 17 34 17 17 34 17 17 34 17 17 34 17 17 34 17 17 34 17 17 34 17 17 34 17 17 34 17 17 34 17 17 34 17 17 34 17 17 34 17 17 34 17 17 34 17 17 34 17 17 34 17 17 34 17 17 34 17 17 34 17 17 34 17 17 34 17 17 34
17 17 34 17 17 34 17 17 34 17 17 34 17 17 34 17 17 34 17 17 34 17 17 34 17 17 34 17 17 34 17 17 34 17 17 34 17 17 34 17 17 34 17 17 34 17 17 34 221 238 255 221 238 255 17 17 34 17 17 34 17 17 34 17 17 34 17 17 34 17 17 34 17 17 34 17 17 34 17 17 34 17 17 34 221 238 255 221 238 255 221 238 255 221 238 255 221 238 255 221 238 255 17 17 34 17 17 34 17 17 34 17 17 34 17 17 34 17 17 34 221 238 255 221 238 255 221 238 255 221 238 255 221 238 255 221 238 255 221 238 255 221 238 255 221 238 255 221 238 255 17 17 34 17 17 34 17 17 34 17 17 34 221 238 255 221 238 255 221 238 255 221 238 255 221 238 255 221 238 255 221 238 255 221 238 255 17 17 34 17 17 34 17 17 34 17 17 34 17 17 34 17 17 34 17 17 34 17 17 34 17 17 34 17 17 34 0 170 221 0 170 221 0 170 221 0 170 221 17 17 34 17 17 34 17 17 34 17 17 34 17 17 34 17 17 34 17 17 34 17 17 34 17 17 34 17 17 34 17 17 34 17 17 34 170 187 204 170 187 204 170 187 204 170 187 204 170 187 204 170 187 204 170 187 204 170 187 204 17 17 34 17 17 34 17 17 34 17 17 34 17 17 34 17 17 34 17 17 34 17 17 34 17 17 34 17 17 34 170 187 204 170 187 204 17 17 34 17 17 34 17 17 34 17 17 34 17 17 34 17 17 34 17 17 34 17 17 34 170 187 204 170 187 204 17 17 34 17 17 34 17 17 34 17 17 34 170 187 204 170 187 204 17 17 34 17 17 34 17 17 34 17 17 34 17 17 34 17 17 34 170 187 204 170 187 204 170 187 204 170 187 204 170 187 204 170 187 204 170 187 204 170 187 204 170 187 204 170 187 204 17 17 34 17 17 34 17 17 34 17 17 34 170 187 204 170 187 204 17 17 34 17 17 34 17 17 34 17 17 34 17 17 34 17 17 34 170 187 204 170 187 204 17 17 34 17 17 34 17 17 34 17 17 34 170 187 204 170 187 204 170 187 204 170 187 204 170 187 204 170 187 204 170 187 204 170 187 204 170 187 204 170 187 204 17 17 34 17 17 34 17 17 34 17 17 34 17 17 34 17 17 34 17 17 34 17 17 34 17 17 34 17 17 34 17 17 34 17 17 34 17 17 34 17 17 34 17 17 34 17 17 34 17 17 34 17 17 34 17 17 34 17 17 34 17 17 34 17 17 34 17 17 34 17 17 34
17 17 34 17 17 34 17 17 34 17 17 34 17 17 34 17 17 34 17 17 34 17 17 34 17 17 34 17 17 34 17 17 34 17 17 34 17 17 34 17 17 34 17 17 34 17 17 34 221 238 255 221 238 255 17 17 34 17 17 34 17 17 34 17 17 34 17 17 34 17 17 34 17 17 34 17 17 34 17 17 34 17 17 34 221 238 255 221 238 255 221 238 255 221 238 255 221 238 255 221 238 255 17 17 34 17 17 34 17 17 34 17 17 34 17 17 34 17 17 34 221 238 255 221 238 255 221 238 255 221 238 255 221 238 255 221 238 255 221 238 255 221 238 255 221 238 255 221 238 255 17 17 34 17 17 34 17 17 34 17 17 34 221 238 255 221 238 255 221 238 255 221 238 255 221 238 255 221 238 255 221 238 255 221 238 255 17 17 34 17 17 34 17 17 34 17 17 34 17 17 34 17 17 34 17 17 34 17 17 34 17 17 34 17 17 34 0 170 221 0 170 221 0 170 221 0 170 221 17 17 34 17 17 34 17 17 34 17 17 34 17 17 34 17 17 34 17 17 34 17 17 34 17 17 34 17 17 34 17 17 34 17 17 34 170 187 204 170 187 204 170 187 204 170 187 204 170 187 204 170 187 204 170 187 204 170 187 204 17 17 34 17 17 34 17 17 34 17 17 34 17 17 34 17 17 34 17 17 34 17 17 34 17 17 34 17 17 34 170 187 204 170 187 204 17 17 34 17 17 34 17 17 34 17 17 34 17 17 34 17 17 34 17 17 34 17 17 34 170 187 204 170 187 204 17 17 34 17 17 34 17 17 34 17 17 34 170 187 204 170 187 204 17 17 34 17 17 34 17 17 34 17 17 34 17 17 34 17 17 34 170 187 204 170 187 204 170 187 204 170 187 204 170 187 204 170 187 204 170 187 204 170 187 204 170 187 204 170 187 204 17 17 34 17 17 34 17 17 34 17 17 34 170 187 204 170 187 204 17 17 34 17 17 34 17 17 34 17 17 34 17 17 34 17 17 34 170 187 204 170 187 204 17 17 34 17 17 34 17 17 34 17 17 34 170 187 204 170 187 204 170 187 204 170 187 204 170 187 204 170 187 204 170 187 204 170 187 204 170 187 204 170 187 204 17 17 34 17 17 34 17 17 34 17 17 34 17 17 34 17 17 34 17 17 34 17 17 34 17 17 34 17 17 34 17 17 34 17 17 34 17 17 34 17 17 34 17 17 34 17 17 34 17 17 34 17 17 34 17 17 34 17 17 34 17 17 34 17 17 34 17 17 34 17 17 34
17 17 34 17 17 34 17 17 34 17 17 34 17 17 34 17 17 34 17 17 34 17 17 34 17 17 34 17 17 34 17 17 34 17 17 34 17 17 34 17 17 34 17 17 34 17 17 34 221 238 255 221 238 255 17 17 34 17 17 34 17 17 34 17 17 34 17 17 34 17 17 34 17 17 34 17 17 34 17 17 34 17 17 34 221 238 255 221 238 255 221 238 255 221 238 255 221 238 255 221 238 255 17 17 34 17 17 34 17 17 34 17 17 34 17 17 34 17 17 34 221 238 255 221 238 255 221 238 255 221 238 255 221 238 255 221 238 255 221 238 255 221 238 255 221 238 255 221 238 255 17 17 34 17 17 34 17 17 34 17 17 34 221 238 255 221 238 255 221 238 255 221 238 255 221 238 255 221 238 255 221 238 255 221 238 255 17 17 34 17 17 34 17 17 34 17 17 34 17 17 34 17 17 34 17 17 34 17 17 34 17 17 34 17 17 34 0 170 221 0 170 221 0 170 221 0 170 221 17 17 34 17 17 34 17 17 34 17 17 34 17 17 34 17 17 34 17 17 34 17 17 34 17 17 34 17 17 34 17 17 34 17 17 34 170 187 204 170 187 204 170 187 204 170 187 204 170 187 204 170 187 204 170 187 204 170 187 204 17 17 34 17 17 34 17 17 34 17 17 34 17 17 34 17 17 34 17 17 34 17 17 34 17 17 34 17 17 34 170 187 204 170 187 204 17 17 34 17 17 34 17 17 34 17 17 34 17 17 34 17 17 34 17 17 34 17 17 34 170 187 204 170 187 204 17 17 34 17 17 34 17 17 34 17 17 34 170 187 204 170 187 204 17 17 34 17 17 34 17 17 34 17 17 34 17 17 34 17 17 34 170 187 204 170 187 204 170 187 204 170 187 204 170 187 204 170 187 204 170 187 204 170 187 204 170 187 204 170 187 204 17 17 34 17 17 34 17 17 34 17 17 34 170 187 204 170 187 204 17 17 34 17 17 34 17 17 34 17 17 34 17 17 34 17 17 34 170 187 204 170 187 204 17 17 34 17 17 34 17 17 34 17 17 34 170 187 204 170 187 204 170 187 204 170 187 204 170 187 204 170 187 204 170 187 204 170 187 204 170 187 204 170 187 204 17 17 34 17 17 34 17 17 34 17 17 34 17 17 34 17 17 34 17 17 34 17 17 34 17 17 34 17 17 34 17 17 34 17 17 34 17 17 34 17 17 34 17 17 34 17 17 34 17 17 34 17 17 34 17 17 34 17 17 34 17 17 34 17 17 34 17 17 34 17 17 34
17 17 34 17 17 34 17 17 34 17 17 34 17 17 34 17 17 34 17 17 34 17 17 34 17 17 34 17 17 34 17 17 34 17 17 34 17 17 34 17 17 34 17 17 34 17 17 34 221 238 255 221 238 255 17 17 34 17 17 34 17 17 34 17 17 34 17 17 34 17 17 34 17 17 34 17 17 34 17 17 34 17 17 34 221 238 255 221 238 255 221 238 255 221 238 255 221 238 255 221 238 255 17 17 34 17 17 34 17 17 34 17 17 34 17 17 34 17 17 34 221 238 255 221 238 255 221 238 255 221 238 255 221 238 255 221 238 255 221 238 255 221 238 255 221 238 255 221 238 255 17 17 34 17 17 34 17 17 34 17 17 34 221 238 255 221 238 255 221 238 255 221 238 255 221 238 255 221 238 255 221 238 255 221 238 255 17 17 34 17 17 34 17 17 34 17 17 34 17 17 34 17 17 34 17 17 34 17 17 34 17 17 34 17 17 34 0 170 221 0 170 221 0 170 221 0 170 221 17 17 34 17 17 34 17 17 34 17 17 34 17 17 34 17 17 34 17 17 34 17 17 34 17 17 34 17 17 34 17 17 34 17 17 34 170 187 204 170 187 204 170 187 204 170 187 204 170 187 204 170 187 204 170 187 204 170 187 204 17 17 34 17 17 34 17 17 34 17 17 34 17 17 34 17 17 34 17 17 34 17 17 34 17 17 34 17 17 34 170 187 204 170 187 204 17 17 34 17 17 34 17 17 34 17 17 34 17 17 34 17 17 34 17 17 34 17 17 34 170 187 204 170 187 204 17 17 34 17 17 34 17 17 34 17 17 34 170 187 204 170 187 204 17 17 34 17 17 34 17 17 34 17 17 34 17 17 34 17 17 34 170 187 204 170 187 204 170 187 204 170 187 204 170 187 204 170 187 204 170 187 204 170 187 204 170 187 204 170 187 204 17 17 34 17 17 34 17 17 34 17 17 34 170 187 204 170 187 204 17 17 34 17 17 34 17 17 34 17 17 34 17 17 34 17 17 34 170 187 204 170 187 204 17 17 34 17 17 34 17 17 34 17 17 34 170 187 204 170 187 204 170 187 204 170 187 204 170 187 204 170 187 204 170 187 204 170 187 204 170 187 204 170 187 204 17 17 34 17 17 34 17 17 34 17 17 34 17 17 34 17 17 34 17 17 34 17 17 34 17 17 34 17 17 34 17 17 34 17 17 34 17 17 34 17 17 34 17 17 34 17 17 34 17 17 34 17 17 34 17 17 34 17 17 34 17 17 34 17 17 34 17 17 34 17 17 34
17 17 34 17 17 34 17 17 34 17 17 34 17 17 34 17 17 34 17 17 34 17 17 34 17 17 34 17 17 34 17 17 34 17 17 34 17 17 34 17 17 34 17 17 34 17 17 34 17 17 34 17 17 34 17 17 34 17 17 34 17 17 34 17 17 34 17 17 34 17 17 34 17 17 34 17 17 34 17 17 34 17 17 34 17 17 34 17 17 34 17 17 34 17 17 34 17 17 34 17 17 34 17 17 34 17 17 34 17 17 34 17 17 34 17 17 34 17 17 34 17 17 34 17 17 34 17 17 34 17 17 34 17 17 34 17 17 34 17 17 34 17 17 34 17 17 34 17 17 34 17 17 34 17 17 34 17 17 34 17 17 34 17 17 34 17 17 34 17 17 34 17 17 34 17 17 34 17 17 34 17 17 34 17 17 34 17 17 34 17 17 34 17 17 34 17 17 34 17 17 34 17 17 34 17 17 34 17 17 34 17 17 34 17 17 34 0 170 221 0 170 221 0 170 221 0 170 221 17 17 34 17 17 34 17 17 34 17 17 34 17 17 34 17 17 34 17 17 34 17 17 34 17 17 34 17 17 34 17 17 34 17 17 34 17 17 34 17 17 34 17 17 34 17 17 34 17 17 34 17 17 34 17 17 34 17 17 34 17 17 34 17 17 34 17 17 34 17 17 34 17 17 34 17 17 34 17 17 34 17 17 34 17 17 34 17 17 34 17 17 34 17 17 34 17 17 34 17 17 34 17 17 34 17 17 34 17 17 34 17 17 34 17 17 34 17 17 34 17 17 34 17 17 34 17 17 34 17 17 34 17 17 34 17 17 34 17 17 34 17 17 34 17 17 34 17 17 34 17 17 34 17 17 34 17 17 34 17 17 34 17 17 34 17 17 34 17 17 34 17 17 34 17 17 34 17 17 34 17 17 34 17 17 34 17 17 34 17 17 34 17 17 34 17 17 34 17 17 34 17 17 34 17 17 34 17 17 34 17 17 34 17 17 34 17 17 34 17 17 34 17 17 34 17 17 34 17 17 34 17 17 34 17 17 34 17 17 34 17 17 34 17 17 34 17 17 34 17 17 34 17 17 34 17 17 34 17 17 34 17 17 34 17 17 34 17 17 34 17 17 34 17 17 34 17 17 34 17 17 34 17 17 34 17 17 34 17 17 34 17 17 34 17 17 34 17 17 34 17 17 34 17 17 34 17 17 34 17 17 34 17 17 34 17 17 34 17 17 34 17 17 34 17 17 34 17 17 34 17 17 34 17 17 34 17 17 34 17 17 34 17 17 34 17 17 34
17 17 34 17 17 34 17 17 34 17 17 34 17 17 34 17 17 34 17 17 34 17 17 34 17 17 34 17 17 34 17 17 34 17 17 34 17 17 34 17 17 34 17 17 34 17 17 34 17 17 34 17 17 34 17 17 34 17 17 34 17 17 34 17 17 34 17 17 34 17 17 34 17 17 34 17 17 34 17 17 34 17 17 34 17 17 34 17 17 34 17 17 34 17 17 34 17 17 34 17 17 34 17 17 34 17 17 34 17 17 34 17 17 34 17 17 34 17 17 34 17 17 34 17 17 34 17 17 34 17 17 34 17 17 34 17 17 34 17 17 34 17 17 34 17 17 34 17 17 34 17 17 34 17 17 34 17 17 34 17 17 34 17 17 34 17 17 34 17 17 34 17 17 34 17 17 34 17 17 34 17 17 34 17 17 34 17 17 34 17 17 34 17 17 34 17 17 34 17 17 34 17 17 34 17 17 34 17 17 34 17 17 34 17 17 34 0 170 221 0 170 221 0 170 221 0 170 221 17 17 34 17 17 34 17 17 34 17 17 34 17 17 34 17 17 34 17 17 34 17 17 34 17 17 34 17 17 34 17 17 34 17 17 34 17 17 34 17 17 34 17 17 34 17 17 34 17 17 34 17 17 34 17 17 34 17 17 34 17 17 34 17 17 34 17 17 34 17 17 34 17 17 34 17 17 34 17 17 34 17 17 34 17 17 34 17 17 34 17 17 34 17 17 34 17 17 34 17 17 34 17 17 34 17 17 34 17 17 34 17 17 34 17 17 34 17 17 34 17 17 34 17 17 34 17 17 34 17 17 34 17 17 34 17 17 34 17 17 34 17 17 34 17 17 34 17 17 34 17 17 34 17 17 34 17 17 34 17 17 34 17 17 34 17 17 34 17 17 34 17 17 34 17 17 34 17 17 34 17 17 34 17 17 34 17 17 34 17 17 34 17 17 34 17 17 34 17 17 34 17 17 34 17 17 34 17 17 34 17 17 34 17 17 34 17 17 34 17 17 34 17 17 34 17 17 34 17 17 34 17 17 34 17 17 34 17 17 34 17 17 34 17 17 34 17 17 34 17 17 34 17 17 34 17 17 34 17 17 34 17 17 34 17 17 34 17 17 34 17 17 34 17 17 34 17 17 34 17 17 34 17 17 34 17 17 34 17 17 34 17 17 34 17 17 34 17 17 34 17 17 34 17 17 34 17 17 34 17 17 34 17 17 34 17 17 34 17 17 34 17 17 34 17 17 34 17 17 34 17 17 34 17 17 34 17 17 34 17 17 34 17 17 34 17 17 34
17 17 34 17 17 34 17 17 34 17 17 34 17 17 34 17 17 34 17 17 34 17 17 34 17 17 34 17 17 34 17 17 34 17 17 34 17 17 34 17 17 34 17 17 34 17 17 34 17 17 34 17 17 34 17 17 34 17 17 34 17 17 34 17 17 34 17 17 34 17 17 34 17 17 34 17 17 34 17 17 34 17 17 34 17 17 34 17 17 34 17 17 34 17 17 34 17 17 34 17 17 34 17 17 34 17 17 34 17 17 34 17 17 34 17 17 34 17 17 34 17 17 34 17 17 34 17 17 34 17 17 34 17 17 34 17 17 34 17 17 34 17 17 34 17 17 34 17 17 34 17 17 34 17 17 34 17 17 34 17 17 34 17 17 34 17 17 34 17 17 34 17 17 34 17 17 34 17 17 34 17 17 34 17 17 34 17 17 34 17 17 34 17 17 34 17 17 34 17 17 34 17 17 34 17 17 34 17 17 34 17 17 34 17 17 34 0 170 221 0 170 221 0 170 221 0 170 221 17 17 34 17 17 34 17 17 34 17 17 34 17 17 34 17 17 34 17 17 34 17 17 34 17 17 34 17 17 34 17 17 34 17 17 34 17 17 34 17 17 34 17 17 34 17 17 34 17 17 34 17 17 34 17 17 34 17 17 34 17 17 34 17 17 34 17 17 34 17 17 34 17 17 34 17 17 34 17 17 34 17 17 34 17 17 34 17 17 34 17 17 34 17 17 34 17 17 34 17 17 34 17 17 34 17 17 34 17 17 34 17 17 34 17 17 34 17 17 34 17 17 34 17 17 34 17 17 34 17 17 34 17 17 34 17 17 34 17 17 34 17 17 34 17 17 34 17 17 34 17 17 34 17 17 34 17 17 34 17 17 34 17 17 34 17 17 34 17 17 34 17 17 34 17 17 34 17 17 34 17 17 34 17 17 34 17 17 34 17 17 34 17 17 34 17 17 34 17 17 34 17 17 34 17 17 34 17 17 34 17 17 34 17 17 34 17 17 34 17 17 34 17 17 34 17 17 34 17 17 34 17 17 34 17 17 34 17 17 34 17 17 34 17 17 34 17 17 34 17 17 34 17 17 34 17 17 34 17 17 34 17 17 34 17 17 34 17 17 34 17 17 34 17 17 34 17 17 34 17 17 34 17 17 34 17 17 34 17 17 34 17 17 34 17 17 34 17 17 34 17 17 34 17 17 34 17 17 34 17 17 34 17 17 34 17 17 34 17 17 34 17 17 34 17 17 34 17 17 34 17 17 34 17 17 34 17 17 34 17 17 34 17 17 34 17 17 34
17 17 34 17 17 34 17 17 34 17 17 34 17 17 34 17 17 34 17 17 34 17 17 34 17 17 34 17 17 34 17 17 34 17 17 34 17 17 34 17 17 34 17 17 34 17 17 34 17 17 34 17 17 34 17 17 34 17 17 34 17 17 34 17 17 34 17 17 34 17 17 34 17 17 34 17 17 34 17 17 34 17 17 34 17 17 34 17 17 34 17 17 34 17 17 34 17 17 34 17 17 34 17 17 34 17 17 34 17 17 34 17 17 34 17 17 34 17 17 34 17 17 34 17 17 34 17 17 34 17 17 34 17 17 34 17 17 34 17 17 34 17 17 34 17 17 34 17 17 34 17 17 34 17 17 34 17 17 34 17 17 34 17 17 34 17 17 34 17 17 34 17 17 34 17 17 34 17 17 34 17 17 34 17 17 34 17 17 34 17 17 34 17 17 34 17 17 34 17 17 34 17 17 34 17 17 34 17 17 34 17 17 34 17 17 34 0 170 221 0 170 221 0 170 221 0 170 221 17 17 34 17 17 34 17 17 34 17 17 34 17 17 34 17 17 34 17 17 34 17 17 34 17 17 34 17 17 34 17 17 34 17 17 34 17 17 34 17 17 34 17 17 34 17 17 34 17 17 34 17 17 34 17 17 34 17 17 34 17 17 34 17 17 34 17 17 34 17 17 34 17 17 34 17 17 34 17 17 34 17 17 34 17 17 34 17 17 34 17 17 34 17 17 34 17 17 34 17 17 34 17 17 34 17 17 34 17 17 34 17 17 34 17 17 34 17 17 34 17 17 34 17 17 34 17 17 34 17 17 34 17 17 34 17 17 34 17 17 34 17 17 34 17 17 34 17 17 34 17 17 34 17 17 34 17 17 34 17 17 34 17 17 34 17 17 34 17 17 34 17 17 34 17 17 34 17 17 34 17 17 34 17 17 34 17 17 34 17 17 34 17 17 34 17 17 34 17 17 34 17 17 34 17 17 34 17 17 34 17 17 34 17 17 34 17 17 34 17 17 34 17 17 34 17 17 34 17 17 34 17 17 34 17 17 34 17 17 34 17 17 34 17 17 34 17 17 34 17 17 34 17 17 34 17 17 34 17 17 34 17 17 34 17 17 34 17 17 34 17 17 34 17 17 34 17 17 34 17 17 34 17 17 34 17 17 34 17 17 34 17 17 34 17 17 34 17 17 34 17 17 34 17 17 34 17 17 34 17 17 34 17 17 34 17 17 34 17 17 34 17 17 34 17 17 34 17 17 34 17 17 34 17 17 34 17 17 34 17 17 34 17 17 34 17 17 34
17 17 34 17 17 34 17 17 34 17 17 34 17 17 34 17 17 34 17 17 34 17 17 34 17 17 34 17 17 34 17 17 34 17 17 34 17 17 34 17 17 34 17 17 34 17 17 34 17 17 34 17 17 34 17 17 34 17 17 34 17 17 34 17 17 34 17 17 34 17 17 34 17 17 34 17 17 34 17 17 34 17 17 34 17 17 34 17 17 34 17 17 34 17 17 34 17 17 34 17 17 34 17 17 34 17 17 34 17 17 34 17 17 34 17 17 34 17 17 34 17 17 34 17 17 34 17 17 34 17 17 34 17 17 34 17 17 34 17 17 34 17 17 34 17 17 34 17 17 34 17 17 34 17 17 34 17 17 34 17 17 34 17 17 34 17 17 34 17 17 34 17 17 34 17 17 34 17 17 34 17 17 34 17 17 34 17 17 34 17 17 34 17 17 34 17 17 34 17 17 34 17 17 34 17 17 34 17 17 34 17 17 34 17 17 34 0 170 221 0 170 221 0 170 221 0 170 221 17 17 34 17 17 34 17 17 34 17 17 34 17 17 34 17 17 34 17 17 34 17 17 34 17 17 34 17 17 34 17 17 34 17 17 34 17 17 34 17 17 34 17 17 34 17 17 34 17 17 34 17 17 34 17 17 34 17 17 34 17 17 34 17 17 34 17 17 34 17 17 34 17 17 34 17 17 34 17 17 34 17 17 34 17 17 34 17 17 34 17 17 34 17 17 34 17 17 34 17 17 34 17 17 34 17 17 34 17 17 34 17 17 34 17 17 34 17 17 34 17 17 34 17 17 34 17 17 34 17 17 34 17 17 34 17 17 34 17 17 34 17 17 34 17 17 34 17 17 34 17 17 34 17 17 34 17 17 34 17 17 34 17 17 34 17 17 34 17 17 34 17 17 34 17 17 34 17 17 34 17 17 34 17 17 34 17 17 34 17 17 34 17 17 34 17 17 34 17 17 34 17 17 34 17 17 34 17 17 34 17 17 34 17 17 34 17 17 34 17 17 34 17 17 34 17 17 34 17 17 34 17 17 34 17 17 34 17 17 34 17 17 34 17 17 34 17 17 34 17 17 34 17 17 34 17 17 34 17 17 34 17 17 34 17 17 34 17 17 34 17 17 34 17 17 34 17 17 34 17 17 34 17 17 34 17 17 34 17 17 34 17 17 34 17 17 34 17 17 34 17 17 34 17 17 34 17 17 34 17 17 34 17 17 34 17 17 34 17 17 34 17 17 34 17 17 34 17 17 34 17 17 34 17 17 34 17 17 34 17 17 34 17 17 34 17 17 34
17 17 34 17 17 34 17 17 34 17 17 34 17 17 34 17 17 34 17 17 34 17 17 34 17 17 34 17 17 34 17 17 34 17 17 34 17 17 34 17 17 34 17 17 34 17 17 34 17 17 34 17 17 34 17 17 34 17 17 34 17 17 34 17 17 34 17 17 34 17 17 34 17 17 34 17 17 34 17 17 34 17 17 34 17 17 34 17 17 34 17 17 34 17 17 34 17 17 34 17 17 34 17 17 34 17 17 34 17 17 34 17 17 34 17 17 34 17 17 34 17 17 34 17 17 34 17 17 34 17 17 34 17 17 34 17 17 34 17 17 34 17 17 34 17 17 34 17 17 34 17 17 34 17 17 34 17 17 34 17 17 34 17 17 34 17 17 34 17 17 34 17 17 34 17 17 34 17 17 34 17 17 34 17 17 34 17 17 34 17 17 34 17 17 34 17 17 34 17 17 34 17 17 34 17 17 34 17 17 34 17 17 34 17 17 34 0 170 221 0 170 221 0 170 221 0 170 221 17 17 34 17 17 34 17 17 34 17 17 34 17 17 34 17 17 34 17 17 34 17 17 34 17 17 34 17 17 34 17 17 34 17 17 34 17 17 34 17 17 34 17 17 34 17 17 34 17 17 34 17 17 34 17 17 34 17 17 34 17 17 34 17 17 34 17 17 34 17 17 34 17 17 34 17 17 34 17 17 34 17 17 34 17 17 34 17 17 34 17 17 34 17 17 34 17 17 34 17 17 34 17 17 34 17 17 34 17 17 34 17 17 34 17 17 34 17 17 34 17 17 34 17 17 34 17 17 34 17 17 34 17 17 34 17 17 34 17 17 34 17 17 34 17 17 34 17 17 34 17 17 34 17 17 34 17 17 34 17 17 34 17 17 34 17 17 34 17 17 34 17 17 34 17 17 34 17 17 34 17 17 34 17 17 34 17 17 34 17 17 34 17 17 34 17 17 34 17 17 34 17 17 34 17 17 34 17 17 34 17 17 34 17 17 34 17 17 34 17 17 34 17 17 34 17 17 34 17 17 34 17 17 34 17 17 34 17 17 34 17 17 34 17 17 34 17 17 34 17 17 34 17 17 34 17 17 34 17 17 34 17 17 34 17 17 34 17 17 34 17 17 34 17 17 34 17 17 34 17 17 34 17 17 34 17 17 34 17 17 34 17 17 34 17 17 34 17 17 34 17 17 34 17 17 34 17 17 34 17 17 34 17 17 34 17 17 34 17 17 34 17 17 34 17 17 34 17 17 34 17 17 34 17 17 34 17 17 34 17 17 34 17 17 34 17 17 34
17 17 34 17 17 34 17 17 34 17 17 34 17 17 34 17 17 34 17 17 34 17 17 34 17 17 34 17 17 34 17 17 34 17 17 34 17 17 34 17 17 34 17 17 34 17 17 34 17 17 34 17 17 34 17 17 34 17 17 34 17 17 34 17 17 34 17 17 34 17 17 34 17 17 34 17 17 34 17 17 34 17 17 34 17 17 34 17 17 34 17 17 34 17 17 34 17 17 34 17 17 34 17 17 34 17 17 34 17 17 34 17 17 34 17 17 34 17 17 34 17 17 34 17 17 34 17 17 34 17 17 34 17 17 34 17 17 34 17 17 34 17 17 34 17 17 34 17 17 34 17 17 34 17 17 34 17 17 34 17 17 34 17 17 34 17 17 34 17 17 34 17 17 34 17 17 34 17 17 34 17 17 34 17 17 34 17 17 34 17 17 34 17 17 34 17 17 34 17 17 34 17 17 34 17 17 34 17 17 34 17 17 34 17 17 34 0 170 221 0 170 221 0 170 221 0 170 221 17 17 34 17 17 34 17 17 34 17 17 34 17 17 34 17 17 34 17 17 34 17 17 34 17 17 34 17 17 34 17 17 34 17 17 34 17 17 34 17 17 34 17 17 34 17 17 34 17 17 34 17 17 34 17 17 34 17 17 34 17 17 34 17 17 34 17 17 34 17 17 34 17 17 34 17 17 34 17 17 34 17 17 34 17 17 34 17 17 34 17 17 34 17 17 34 17 17 34 17 17 34 17 17 34 17 17 34 17 17 34 17 17 34 17 17 34 17 17 34 17 17 34 17 17 34 17 17 34 17 17 34 17 17 34 17 17 34 17 17 34 17 17 34 17 17 34 17 17 34 17 17 34 17 17 34 17 17 34 17 17 34 17 17 34 17 17 34 17 17 34 17 17 34 17 17 34 17 17 34 17 17 34 17 17 34 17 17 34 17 17 34 17 17 34 17 17 34 17 17 34 17 17 34 17 17 34 17 17 34 17 17 34 17 17 34 17 17 34 17 17 34 17 17 34 17 17 34 17 17 34 17 17 34 17 17 34 17 17 34 17 17 34 17 17 34 17 17 34 17 17 34 17 17 34 17 17 34 17 17 34 17 17 34 17 17 34 17 17 34 17 17 34 17 17 34 17 17 34 17 17 34 17 17 34 17 17 34 17 17 34 17 17 34 17 17 34 17 17 34 17 17 34 17 17 34 17 17 34 17 17 34 17 17 34 17 17 34 17 17 34 17 17 34 17 17 34 17 17 34 17 17 34 17 17 34 17 17 34 17 17 34 17 17 34 17 17 34
17 17 34 17 17 34 17 17 34 17 17 34 17 17 34 17 17 34 17 17 34 17 17 34 17 17 34 17 17 34 17 17 34 17 17 34 17 17 34 17 17 34 17 17 34 17 17 34 17 17 34 17 17 34 17 17 34 17 17 34 17 17 34 17 17 34 17 17 34 17 17 34 17 17 34 17 17 34 17 17 34 17 17 34 17 17 34 17 17 34 17 17 34 17 17 34 17 17 34 17 17 34 17 17 34 17 17 34 17 17 34 17 17 34 17 17 34 17 17 34 17 17 34 17 17 34 17 17 34 17 17 34 17 17 34 17 17 34 17 17 34 17 17 34 17 17 34 17 17 34 17 17 34 17 17 34 17 17 34 17 17 34 17 17 34 17 17 34 17 17 34 17 17 34 17 17 34 17 17 34 17 17 34 17 17 34 17 17 34 17 17 34 17 17 34 17 17 34 17 17 34 17 17 34 17 17 34 17 17 34 17 17 34 17 17 34 0 170 221 0 170 221 0 170 221 0 170 221 17 17 34 17 17 34 17 17 34 17 17 34 17 17 34 17 17 34 17 17 34 17 17 34 17 17 34 17 17 34 17 17 34 17 17 34 17 17 34 17 17 34 17 17 34 17 17 34 17 17 34 17 17 34 17 17 34 17 17 34 17 17 34 17 17 34 17 17 34 17 17 34 17 17 34 17 17 34 17 17 34 17 17 34 17 17 34 17 17 34 17 17 34 17 17 34 17 17 34 17 17 34 17 17 34 17 17 34 17 17 34 17 17 34 17 17 34 17 17 34 17 17 34 17 17 34 17 17 34 17 17 34 17 17 34 17 17 34 17 17 34 17 17 34 17 17 34 17 17 34 17 17 34 17 17 34 17 17 34 17 17 34 17 17 34 17 17 34 17 17 34 17 17 34 17 17 34 17 17 34 17 17 34 17 17 34 17 17 34 17 17 34 17 17 34 17 17 34 17 17 34 17 17 34 17 17 34 17 17 34 17 17 34 17 17 34 17 17 34 17 17 34 17 17 34 17 17 34 17 17 34 17 17 34 17 17 34 17 17 34 17 17 34 17 17 34 17 17 34 17 17 34 17 17 34 17 17 34 17 17 34 17 17 34 17 17 34 17 17 34 17 17 34 17 17 34 17 17 34 17 17 34 17 17 34 17 17 34 17 17 34 17 17 34 17 17 34 17 17 34 17 17 34 17 17 34 17 17 34 17 17 34 17 17 34 17 17 34 17 17 34 17 17 34 17 17 34 17 17 34 17 17 34 17 17 34 17 17 34 17 17 34 17 17 34 17 17 34
17 17 34 17 17 34 17 17 34 17 17 34 17 17 34 17 17 34 17 17 34 17 17 34 17 17 34 17 17 34 17 17 34 17 17 34 17 17 34 17 17 34 17 17 34 17 17 34 17 17 34 17 17 34 17 17 34 17 17 34 17 17 34 17 17 34 17 17 34 17 17 34 17 17 34 17 17 34 17 17 34 17 17 34 17 17 34 17 17 34 17 17 34 17 17 34 17 17 34 17 17 34 17 17 34 17 17 34 17 17 34 17 17 34 17 17 34 17 17 34 17 17 34 17 17 34 17 17 34 17 17 34 17 17 34 17 17 34 17 17 34 17 17 34 17 17 34 17 17 34 17 17 34 17 17 34 17 17 34 17 17 34 17 17 34 17 17 34 17 17 34 17 17 34 17 17 34 17 17 34 17 17 34 17 17 34 17 17 34 17 17 34 17 17 34 17 17 34 17 17 34 17 17 34 17 17 34 17 17 34 17 17 34 17 17 34 0 170 221 0 170 221 0 170 221 0 170 221 17 17 34 17 17 34 17 17 34 17 17 34 17 17 34 17 17 34 17 17 34 17 17 34 17 17 34 17 17 34 17 17 34 17 17 34 17 17 34 17 17 34 17 17 34 17 17 34 17 17 34 17 17 34 17 17 34 17 17 34 17 17 34 17 17 34 17 17 34 17 17 34 17 17 34 17 17 34 17 17 34 17 17 34 17 17 34 17 17 34 17 17 34 17 17 34 17 17 34 17 17 34 17 17 34 17 17 34 17 17 34 17 17 34 17 17 34 17 17 34 17 17 34 17 17 34 17 17 34 17 17 34 17 17 34 17 17 34 17 17 34 17 17 34 17 17 34 17 17 34 17 17 34 17 17 34 17 17 34 17 17 34 17 17 34 17 17 34 17 17 34 17 17 34 17 17 34 17 17 34 17 17 34 17 17 34 17 17 34 17 17 34 17 17 34 17 17 34 17 17 34 17 17 34 17 17 34 17 17 34 17 17 34 17 17 34 17 17 34 17 17 34 17 17 34 17 17 34 17 17 34 17 17 34 17 17 34 17 17 34 17 17 34 17 17 34 17 17 34 17 17 34 17 17 34 17 17 34 17 17 34 17 17 34 17 17 34 17 17 34 17 17 34 17 17 34 17 17 34 17 17 34 17 17 34 17 17 34 17 17 34 17 17 34 17 17 34 17 17 34 17 17 34 17 17 34 17 17 34 17 17 34 17 17 34 17 17 34 17 17 34 17 17 34 17 17 34 17 17 34 17 17 34 17 17 34 17 17 34 17 17 34 17 17 34 17 17 34
17 17 34 17 17 34 17 17 34 17 17 34 17 17 34 17 17 34 17 17 34 17 17 34 17 17 34 17 17 34 17 17 34 17 17 34 17 17 34 17 17 34 17 17 34 17 17 34 17 17 34 17 17 34 17 17 34 17 17 34 17 17 34 17 17 34 17 17 34 17 17 34 17 17 34 17 17 34 17 17 34 17 17 34 17 17 34 17 17 34 17 17 34 17 17 34 17 17 34 17 17 34 17 17 34 17 17 34 17 17 34 17 17 34 17 17 34 17 17 34 17 17 34 17 17 34 17 17 34 17 17 34 17 17 34 17 17 34 17 17 34 17 17 34 17 17 34 17 17 34 17 17 34 17 17 34 17 17 34 17 17 34 17 17 34 17 17 34 17 17 34 17 17 34 17 17 34 17 17 34 17 17 34 17 17 34 17 17 34 17 17 34 17 17 34 17 17 34 17 17 34 17 17 34 17 17 34 17 17 34 17 17 34 17 17 34 0 170 221 0 170 221 0 170 221 0 170 221 17 17 34 17 17 34 17 17 34 17 17 34 17 17 34 17 17 34 17 17 34 17 17 34 17 17 34 17 17 34 17 17 34 17 17 34 17 17 34 17 17 34 17 17 34 17 17 34 17 17 34 17 17 34 17 17 34 17 17 34 17 17 34 17 17 34 17 17 34 17 17 34 17 17 34 17 17 34 17 17 34 17 17 34 17 17 34 17 17 34 17 17 34 17 17 34 17 17 34 17 17 34 17 17 34 17 17 34 17 17 34 17 17 34 17 17 34 17 17 34 17 17 34 17 17 34 17 17 34 17 17 34 17 17 34 17 17 34 17 17 34 17 17 34 17 17 34 17 17 34 17 17 34 17 17 34 17 17 34 17 17 34 17 17 34 17 17 34 17 17 34 17 17 34 17 17 34 17 17 34 17 17 34 17 17 34 17 17 34 17 17 34 17 17 34 17 17 34 17 17 34 17 17 34 17 17 34 17 17 34 17 17 34 17 17 34 17 17 34 17 17 34 17 17 34 17 17 34 17 17 34 17 17 34 17 17 34 17 17 34 17 17 34 17 17 34 17 17 34 17 17 34 17 17 34 17 17 34 17 17 34 17 17 34 17 17 34 17 17 34 17 17 34 17 17 34 17 17 34 17 17 34 17 17 34 17 17 34 17 17 34 17 17 34 17 17 34 17 17 34 17 17 34 17 17 34 17 17 34 17 17 34 17 17 34 17 17 34 17 17 34 17 17 34 17 17 34 17 17 34 17 17 34 17 17 34 17 17 34 17 17 34 17 17 34 17 17 34
17 17 34 17 17 34 17 17 34 17 17 34 17 17 34 17 17 34 17 17 34 17 17 34 17 17 34 17 17 34 17 17 34 17 17 34 17 17 34 17 17 34 17 17 34 17 17 34 17 17 34 17 17 34 17 17 34 17 17 34 17 17 34 17 17 34 17 17 34 17 17 34 17 17 34 17 17 34 17 17 34 17 17 34 17 17 34 17 17 34 17 17 34 17 17 34 17 17 34 17 17 34 17 17 34 17 17 34 17 17 34 17 17 34 17 17 34 17 17 34 17 17 34 17 17 34 17 17 34 17 17 34 17 17 34 17 17 34 17 17 34 17 17 34 17 17 34 17 17 34 17 17 34 17 17 34 17 17 34 17 17 34 17 17 34 17 17 34 17 17 34 17 17 34 17 17 34 17 17 34 17 17 34 17 17 34 17 17 34 17 17 34 17 17 34 17 17 34 17 17 34 17 17 34 17 17 34 17 17 34 17 17 34 17 17 34 17 17 34 17 17 34 17 17 34 17 17 34 17 17 34 17 17 34 17 17 34 17 17 34 17 17 34 17 17 34 17 17 34 17 17 34 17 17 34 17 17 34 17 17 34 17 17 34 17 17 34 17 17 34 17 17 34 17 17 34 17 17 34 17 17 34 17 17 34 17 17 34 17 17 34 17 17 34 17 17 34 17 17 34 17 17 34 17 17 34 17 17 34 17 17 34 17 17 34 17 17 34 17 17 34 17 17 34 17 17 34 17 17 34 17 17 34 17 17 34 17 17 34 17 17 34 17 17 34 17 17 34 17 17 34 17 17 34 17 17 34 17 17 34 17 17 34 17 17 34 17 17 34 17 17 34 17 17 34 17 17 34 17 17 34 17 17 34 17 17 34 17 17 34 17 17 34 17 17 34 17 17 34 17 17 34 17 17 34 17 17 34 17 17 34 17 17 34 17 17 34 17 17 34 17 17 34 17 17 34 17 17 34 17 17 34 17 17 34 17 17 34 17 17 34 17 17 34 17 17 34 17 17 34 17 17 34 17 17 34 17 17 34 17 17 34 17 17 34 17 17 34 17 17 34 17 17 34 17 17 34 17 17 34 17 17 34 17 17 34 17 17 34 17 17 34 17 17 34 17 17 34 17 17 34 17 17 34 17 17 34 17 17 34 17 17 34 17 17 34 17 17 34 17 17 34 17 17 34 17 17 34 17 17 34 17 17 34 17 17 34 17 17 34 17 17 34 17 17 34 17 17 34 17 17 34 17 17 34 17 17 34 17 17 34 17 17 34 17 17 34 17 17 34 17 17 34 17 17 34
17 17 34 17 17 34 17 17 34 17 17 34 17 17 34 17 17 34 17 17 34 17 17 34 17 17 34 17 17 34 17 17 34 17 17 34 17 17 34 17 17 34 17 17 34 17 17 34 17 17 34 17 17 34 17 17 34 17 17 34 17 17 34 17 17 34 17 17 34 17 17 34 17 17 34 17 17 34 17 17 34 17 17 34 17 17 34 17 17 34 17 17 34 17 17 34 17 17 34 17 17 34 17 17 34 17 17 34 17 17 34 17 17 34 17 17 34 17 17 34 17 17 34 17 17 34 17 17 34 17 17 34 17 17 34 17 17 34 17 17 34 17 17 34 17 17 34 17 17 34 17 17 34 17 17 34 17 17 34 17 17 34 17 17 34 17 17 34 17 17 34 17 17 34 17 17 34 17 17 34 17 17 34 17 17 34 17 17 34 17 17 34 17 17 34 17 17 34 17 17 34 17 17 34 17 17 34 17 17 34 17 17 34 17 17 34 17 17 34 17 17 34 17 17 34 17 17 34 17 17 34 17 17 34 17 17 34 17 17 34 17 17 34 17 17 34 17 17 34 17 17 34 17 17 34 17 17 34 17 17 34 17 17 34 17 17 34 17 17 34 17 17 34 17 17 34 17 17 34 17 17 34 17 17 34 17 17 34 17 17 34 17 17 34 17 17 34 17 17 34 17 17 34 17 17 34 17 17 34 17 17 34 17 17 34 17 17 34 17 17 34 17 17 34 17 17 34 17 17 34 17 17 34 17 17 34 17 17 34 17 17 34 17 17 34 17 17 34 17 17 34 17 17 34 17 17 34 17 17 34 17 17 34 17 17 34 17 17 34 17 17 34 17 17 34 17 17 34 17 17 34 17 17 34 17 17 34 17 17 34 17 17 34 17 17 34 17 17 34 17 17 34 17 17 34 17 17 34 17 17 34 17 17 34 17 17 34 17 17 34 17 17 34 17 17 34 17 17 34 17 17 34 17 17 34 17 17 34 17 17 34 17 17 34 17 17 34 17 17 34 17 17 34 17 17 34 17 17 34 17 17 34 17 17 34 17 17 34 17 17 34 17 17 34 17 17 34 17 17 34 17 17 34 17 17 34 17 17 34 17 17 34 17 17 34 17 17 34 17 17 34 17 17 34 17 17 34 17 17 34 17 17 34 17 17 34 17 17 34 17 17 34 17 17 34 17 17 34 17 17 34 17 17 34 17 17 34 17 17 34 17 17 34 17 17 34 17 17 34 17 17 34 17 17 34 17 17 34 17 17 34 17 17 34 17 17 34 17 17 34 17 17 34 17 17 34
17 17 34 17 17 34 17 17 34 17 17 34 17 17 34 17 17 34 17 17 34 17 17 34 17 17 34 17 17 34 17 17 34 17 17 34 17 17 34 17 17 34 17 17 34 17 17 34 17 17 34 17 17 34 17 17 34 17 17 34 17 17 34 17 17 34 17 17 34 17 17 34 17 17 34 17 17 34 17 17 34 17 17 34 17 17 34 17 17 34 17 17 34 17 17 34 17 17 34 17 17 34 17 17 34 17 17 34 17 17 34 17 17 34 17 17 34 17 17 34 17 17 34 17 17 34 17 17 34 17 17 34 17 17 34 17 17 34 17 17 34 17 17 34 17 17 34 17 17 34 17 17 34 17 17 34 17 17 34 17 17 34 17 17 34 17 17 34 17 17 34 17 17 34 17 17 34 17 17 34 17 17 34 17 17 34 17 17 34 17 17 34 17 17 34 17 17 34 17 17 34 17 17 34 17 17 34 17 17 34 17 17 34 17 17 34 17 17 34 17 17 34 17 17 34 17 17 34 17 17 34 17 17 34 17 17 34 17 17 34 17 17 34 17 17 34 17 17 34 17 17 34 17 17 34 17 17 34 17 17 34 17 17 34 17 17 34 17 17 34 17 17 34 17 17 34 17 17 34 17 17 34 17 17 34 17 17 34 17 17 34 17 17 34 17 17 34 17 17 34 17 17 34 17 17 34 17 17 34 17 17 34 17 17 34 17 17 34 17 17 34 17 17 34 17 17 34 17 17 34 17 17 34 17 17 34 17 17 34 17 17 34 17 17 34 17 17 34 17 17 34 17 17 34 17 17 34 17 17 34 17 17 34 17 17 34 17 17 34 17 17 34 17 17 34 17 17 34 17 17 34 17 17 34 17 17 34 17 17 34 17 17 34 17 17 34 17 17 34 17 17 34 17 17 34 17 17 34 17 17 34 17 17 34 17 17 34 17 17 34 17 17 34 17 17 34 17 17 34 17 17 34 17 17 34 17 17 34 17 17 34 17 17 34 17 17 34 17 17 34 17 17 34 17 17 34 17 17 34 17 17 34 17 17 34 17 17 34 17 17 34 17 17 34 17 17 34 17 17 34 17 17 34 17 17 34 17 17 34 17 17 34 17 17 34 17 17 34 17 17 34 17 17 34 17 17 34 17 17 34 17 17 34 17 17 34 17 17 34 17 17 34 17 17 34 17 17 34 17 17 34 17 17 34 17 17 34 17 17 34 17 17 34 17 17 34 17 17 34 17 17 34 17 17 34 17 17 34 17 17 34 17 17 34 17 17 34 17 17 34 17 17 34 17 17 34
